; This file was generated with "Universal Gcode Sender 2.1.13"
;
; Tool: 1.5mm
; Depth per pass: 1.0mm
; Plunge speed: 200mm/min
; Safe height: 10.0mm
; Tool step over: 0.9mm

G21 ; millimeters
G90 ; absolute coordinate
G17 ; XY plane
G94 ; units per minute feed rate mode

; Path - Mill - Inside path (1/15)
M3 S10500
G0 Z10
G0 X172.662Y-10.25
G0 Z0
G1 F200 X172.662Y-10.25Z-1.1
G1 F600 X172.662Y-10.25Z-1.1
G1 X193.298Y-10.25Z-1.1
G1 X193.298Y-27.249Z-1.1
G1 X192.533Y-27.249Z-1.1
G1 X192.527Y-27.248Z-1.1
G1 X192.502Y-27.247Z-1.1
G1 X192.494Y-27.247Z-1.1
G1 X192.438Y-27.24Z-1.1
G1 X192.43Y-27.239Z-1.1
G1 X192.411Y-27.236Z-1.1
G1 X192.403Y-27.234Z-1.1
G1 X192.348Y-27.221Z-1.1
G1 X192.341Y-27.219Z-1.1
G1 X192.316Y-27.212Z-1.1
G1 X192.311Y-27.21Z-1.1
G1 X192.282Y-27.2Z-1.1
G1 X192.276Y-27.197Z-1.1
G1 X192.248Y-27.186Z-1.1
G1 X192.242Y-27.183Z-1.1
G1 X192.215Y-27.17Z-1.1
G1 X192.209Y-27.167Z-1.1
G1 X192.182Y-27.153Z-1.1
G1 X192.177Y-27.15Z-1.1
G1 X192.15Y-27.134Z-1.1
G1 X192.145Y-27.131Z-1.1
G1 X192.12Y-27.114Z-1.1
G1 X192.115Y-27.11Z-1.1
G1 X192.09Y-27.092Z-1.1
G1 X192.085Y-27.088Z-1.1
G1 X192.062Y-27.069Z-1.1
G1 X192.057Y-27.065Z-1.1
G1 X192.034Y-27.044Z-1.1
G1 X192.03Y-27.04Z-1.1
G1 X192.008Y-27.018Z-1.1
G1 X192.004Y-27.014Z-1.1
G1 X191.984Y-26.991Z-1.1
G1 X191.98Y-26.987Z-1.1
G1 X191.96Y-26.963Z-1.1
G1 X191.956Y-26.958Z-1.1
G1 X191.938Y-26.934Z-1.1
G1 X191.935Y-26.929Z-1.1
G1 X191.921Y-26.908Z-1.1
G1 X191.916Y-26.901Z-1.1
G1 X191.888Y-26.852Z-1.1
G1 X191.884Y-26.845Z-1.1
G1 X191.875Y-26.828Z-1.1
G1 X191.872Y-26.821Z-1.1
G1 X191.85Y-26.769Z-1.1
G1 X191.847Y-26.761Z-1.1
G1 X191.84Y-26.743Z-1.1
G1 X191.838Y-26.736Z-1.1
G1 X191.822Y-26.682Z-1.1
G1 X191.811Y-26.627Z-1.1
G1 X191.809Y-26.62Z-1.1
G1 X191.806Y-26.595Z-1.1
G1 X191.805Y-26.588Z-1.1
G1 X191.802Y-26.56Z-1.1
G1 X191.802Y-26.553Z-1.1
G1 X191.799Y-26.485Z-1.1
G1 X191.798Y-26.479Z-1.1
G1 X191.798Y-22.371Z-1.1
G1 X191.798Y-22.352Z-1.1
G1 X191.798Y-22.348Z-1.1
G1 X191.78Y-22.204Z-1.1
G1 X191.735Y-22.065Z-1.1
G1 X191.664Y-21.939Z-1.1
G1 X191.57Y-21.828Z-1.1
G1 X191.456Y-21.737Z-1.1
G1 X191.327Y-21.671Z-1.1
G1 X191.187Y-21.63Z-1.1
G1 X191.043Y-21.617Z-1.1
G1 X190.898Y-21.632Z-1.1
G1 X190.893Y-21.633Z-1.1
G1 X190.687Y-21.708Z-1.1
G1 X190.567Y-21.773Z-1.1
G1 X190.561Y-21.775Z-1.1
G1 X190.452Y-21.827Z-1.1
G1 X190.447Y-21.83Z-1.1
G1 X190.335Y-21.876Z-1.1
G1 X190.329Y-21.879Z-1.1
G1 X190.215Y-21.92Z-1.1
G1 X190.21Y-21.921Z-1.1
G1 X190.094Y-21.957Z-1.1
G1 X190.088Y-21.958Z-1.1
G1 X189.97Y-21.988Z-1.1
G1 X189.964Y-21.989Z-1.1
G1 X189.846Y-22.012Z-1.1
G1 X189.84Y-22.013Z-1.1
G1 X189.72Y-22.031Z-1.1
G1 X189.714Y-22.032Z-1.1
G1 X189.594Y-22.043Z-1.1
G1 X189.587Y-22.044Z-1.1
G1 X189.467Y-22.049Z-1.1
G1 X189.46Y-22.049Z-1.1
G1 X189.339Y-22.049Z-1.1
G1 X189.333Y-22.049Z-1.1
G1 X189.212Y-22.042Z-1.1
G1 X189.206Y-22.041Z-1.1
G1 X189.086Y-22.029Z-1.1
G1 X189.08Y-22.028Z-1.1
G1 X188.96Y-22.01Z-1.1
G1 X188.954Y-22.008Z-1.1
G1 X188.836Y-21.984Z-1.1
G1 X188.83Y-21.983Z-1.1
G1 X188.713Y-21.952Z-1.1
G1 X188.707Y-21.95Z-1.1
G1 X188.591Y-21.914Z-1.1
G1 X188.585Y-21.912Z-1.1
G1 X188.472Y-21.87Z-1.1
G1 X188.466Y-21.868Z-1.1
G1 X188.355Y-21.821Z-1.1
G1 X188.349Y-21.818Z-1.1
G1 X188.241Y-21.765Z-1.1
G1 X188.235Y-21.762Z-1.1
G1 X188.129Y-21.704Z-1.1
G1 X188.124Y-21.701Z-1.1
G1 X188.021Y-21.637Z-1.1
G1 X188.016Y-21.634Z-1.1
G1 X187.916Y-21.565Z-1.1
G1 X187.911Y-21.562Z-1.1
G1 X187.815Y-21.488Z-1.1
G1 X187.81Y-21.484Z-1.1
G1 X187.718Y-21.406Z-1.1
G1 X187.713Y-21.402Z-1.1
G1 X187.625Y-21.32Z-1.1
G1 X187.621Y-21.315Z-1.1
G1 X187.537Y-21.228Z-1.1
G1 X187.532Y-21.224Z-1.1
G1 X187.453Y-21.133Z-1.1
G1 X187.449Y-21.128Z-1.1
G1 X187.374Y-21.033Z-1.1
G1 X187.37Y-21.028Z-1.1
G1 X187.3Y-20.93Z-1.1
G1 X187.296Y-20.924Z-1.1
G1 X187.231Y-20.822Z-1.1
G1 X187.228Y-20.817Z-1.1
G1 X187.168Y-20.712Z-1.1
G1 X187.165Y-20.707Z-1.1
G1 X187.11Y-20.599Z-1.1
G1 X187.108Y-20.593Z-1.1
G1 X187.058Y-20.483Z-1.1
G1 X187.056Y-20.477Z-1.1
G1 X187.012Y-20.364Z-1.1
G1 X187.01Y-20.359Z-1.1
G1 X186.972Y-20.244Z-1.1
G1 X186.971Y-20.238Z-1.1
G1 X186.938Y-20.121Z-1.1
G1 X186.937Y-20.115Z-1.1
G1 X186.91Y-19.997Z-1.1
G1 X186.909Y-19.991Z-1.1
G1 X186.889Y-19.872Z-1.1
G1 X186.888Y-19.866Z-1.1
G1 X186.873Y-19.746Z-1.1
G1 X186.873Y-19.74Z-1.1
G1 X186.864Y-19.619Z-1.1
G1 X186.864Y-19.613Z-1.1
G1 X186.861Y-19.492Z-1.1
G1 X186.861Y-19.486Z-1.1
G1 X186.865Y-19.365Z-1.1
G1 X186.865Y-19.358Z-1.1
G1 X186.875Y-19.238Z-1.1
G1 X186.876Y-19.231Z-1.1
G1 X186.891Y-19.112Z-1.1
G1 X186.892Y-19.106Z-1.1
G1 X186.914Y-18.987Z-1.1
G1 X186.915Y-18.98Z-1.1
G1 X186.942Y-18.863Z-1.1
G1 X186.944Y-18.857Z-1.1
G1 X186.977Y-18.741Z-1.1
G1 X186.979Y-18.735Z-1.1
G1 X187.018Y-18.62Z-1.1
G1 X187.02Y-18.614Z-1.1
G1 X187.065Y-18.502Z-1.1
G1 X187.067Y-18.496Z-1.1
G1 X187.117Y-18.386Z-1.1
G1 X187.12Y-18.381Z-1.1
G1 X187.176Y-18.273Z-1.1
G1 X187.179Y-18.268Z-1.1
G1 X187.24Y-18.164Z-1.1
G1 X187.243Y-18.158Z-1.1
G1 X187.309Y-18.057Z-1.1
G1 X187.313Y-18.052Z-1.1
G1 X187.384Y-17.954Z-1.1
G1 X187.387Y-17.949Z-1.1
G1 X187.463Y-17.855Z-1.1
G1 X187.467Y-17.85Z-1.1
G1 X187.548Y-17.76Z-1.1
G1 X187.552Y-17.755Z-1.1
G1 X187.637Y-17.669Z-1.1
G1 X187.641Y-17.665Z-1.1
G1 X187.73Y-17.583Z-1.1
G1 X187.735Y-17.579Z-1.1
G1 X187.828Y-17.501Z-1.1
G1 X187.833Y-17.498Z-1.1
G1 X187.929Y-17.425Z-1.1
G1 X187.934Y-17.421Z-1.1
G1 X188.035Y-17.354Z-1.1
G1 X188.04Y-17.35Z-1.1
G1 X188.157Y-17.28Z-1.1
G1 X188.262Y-17.203Z-1.1
G1 X188.267Y-17.199Z-1.1
G1 X188.366Y-17.094Z-1.1
G1 X188.443Y-16.972Z-1.1
G1 X188.495Y-16.838Z-1.1
G1 X188.521Y-16.697Z-1.1
G1 X188.519Y-16.553Z-1.1
G1 X188.49Y-16.412Z-1.1
G1 X188.434Y-16.279Z-1.1
G1 X188.432Y-16.275Z-1.1
G1 X188.422Y-16.257Z-1.1
G1 X186.066Y-12.133Z-1.1
G1 X186.027Y-12.072Z-1.1
G1 X186.023Y-12.067Z-1.1
G1 X185.933Y-11.961Z-1.1
G1 X185.824Y-11.874Z-1.1
G1 X185.701Y-11.808Z-1.1
G1 X185.568Y-11.767Z-1.1
G1 X185.43Y-11.75Z-1.1
G1 X185.424Y-11.75Z-1.1
G1 X185.405Y-11.75Z-1.1
G1 X173.429Y-11.75Z-1.1
G1 X173.424Y-11.75Z-1.1
G1 X173.382Y-11.748Z-1.1
G1 X173.377Y-11.748Z-1.1
G1 X173.341Y-11.745Z-1.1
G1 X173.335Y-11.745Z-1.1
G1 X173.305Y-11.741Z-1.1
G1 X173.298Y-11.74Z-1.1
G1 X173.268Y-11.735Z-1.1
G1 X173.262Y-11.734Z-1.1
G1 X173.232Y-11.727Z-1.1
G1 X173.227Y-11.726Z-1.1
G1 X173.197Y-11.717Z-1.1
G1 X173.191Y-11.716Z-1.1
G1 X173.162Y-11.706Z-1.1
G1 X173.156Y-11.704Z-1.1
G1 X173.133Y-11.695Z-1.1
G1 X173.126Y-11.692Z-1.1
G1 X173.074Y-11.668Z-1.1
G1 X173.067Y-11.665Z-1.1
G1 X173.045Y-11.653Z-1.1
G1 X173.04Y-11.65Z-1.1
G1 X173.018Y-11.637Z-1.1
G1 X173.012Y-11.633Z-1.1
G1 X172.965Y-11.601Z-1.1
G1 X172.959Y-11.596Z-1.1
G1 X172.939Y-11.581Z-1.1
G1 X172.934Y-11.577Z-1.1
G1 X172.915Y-11.56Z-1.1
G1 X172.909Y-11.555Z-1.1
G1 X172.869Y-11.516Z-1.1
G1 X172.863Y-11.51Z-1.1
G1 X172.846Y-11.491Z-1.1
G1 X172.842Y-11.487Z-1.1
G1 X172.826Y-11.467Z-1.1
G1 X172.822Y-11.461Z-1.1
G1 X172.789Y-11.416Z-1.1
G1 X172.76Y-11.368Z-1.1
G1 X172.756Y-11.362Z-1.1
G1 X172.744Y-11.339Z-1.1
G1 X172.741Y-11.334Z-1.1
G1 X172.73Y-11.311Z-1.1
G1 X172.727Y-11.304Z-1.1
G1 X172.706Y-11.251Z-1.1
G1 X172.704Y-11.244Z-1.1
G1 X172.696Y-11.22Z-1.1
G1 X172.694Y-11.214Z-1.1
G1 X172.686Y-11.185Z-1.1
G1 X172.684Y-11.179Z-1.1
G1 X172.678Y-11.149Z-1.1
G1 X172.676Y-11.143Z-1.1
G1 X172.672Y-11.118Z-1.1
G1 X172.671Y-11.111Z-1.1
G1 X172.665Y-11.055Z-1.1
G1 X172.662Y-10.988Z-1.1
G1 X172.662Y-10.984Z-1.1
G1 X172.662Y-10.25Z-1.1
G0 Z10
G0 X172.662Y-10.25
G0 Z0
G1 F200 X172.662Y-10.25Z-2.1
G1 F600 X172.662Y-10.25Z-2.1
G1 X193.298Y-10.25Z-2.1
G1 X193.298Y-27.249Z-2.1
G1 X192.533Y-27.249Z-2.1
G1 X192.527Y-27.248Z-2.1
G1 X192.502Y-27.247Z-2.1
G1 X192.494Y-27.247Z-2.1
G1 X192.438Y-27.24Z-2.1
G1 X192.43Y-27.239Z-2.1
G1 X192.411Y-27.236Z-2.1
G1 X192.403Y-27.234Z-2.1
G1 X192.348Y-27.221Z-2.1
G1 X192.341Y-27.219Z-2.1
G1 X192.316Y-27.212Z-2.1
G1 X192.311Y-27.21Z-2.1
G1 X192.282Y-27.2Z-2.1
G1 X192.276Y-27.197Z-2.1
G1 X192.248Y-27.186Z-2.1
G1 X192.242Y-27.183Z-2.1
G1 X192.215Y-27.17Z-2.1
G1 X192.209Y-27.167Z-2.1
G1 X192.182Y-27.153Z-2.1
G1 X192.177Y-27.15Z-2.1
G1 X192.15Y-27.134Z-2.1
G1 X192.145Y-27.131Z-2.1
G1 X192.12Y-27.114Z-2.1
G1 X192.115Y-27.11Z-2.1
G1 X192.09Y-27.092Z-2.1
G1 X192.085Y-27.088Z-2.1
G1 X192.062Y-27.069Z-2.1
G1 X192.057Y-27.065Z-2.1
G1 X192.034Y-27.044Z-2.1
G1 X192.03Y-27.04Z-2.1
G1 X192.008Y-27.018Z-2.1
G1 X192.004Y-27.014Z-2.1
G1 X191.984Y-26.991Z-2.1
G1 X191.98Y-26.987Z-2.1
G1 X191.96Y-26.963Z-2.1
G1 X191.956Y-26.958Z-2.1
G1 X191.938Y-26.934Z-2.1
G1 X191.935Y-26.929Z-2.1
G1 X191.921Y-26.908Z-2.1
G1 X191.916Y-26.901Z-2.1
G1 X191.888Y-26.852Z-2.1
G1 X191.884Y-26.845Z-2.1
G1 X191.875Y-26.828Z-2.1
G1 X191.872Y-26.821Z-2.1
G1 X191.85Y-26.769Z-2.1
G1 X191.847Y-26.761Z-2.1
G1 X191.84Y-26.743Z-2.1
G1 X191.838Y-26.736Z-2.1
G1 X191.822Y-26.682Z-2.1
G1 X191.811Y-26.627Z-2.1
G1 X191.809Y-26.62Z-2.1
G1 X191.806Y-26.595Z-2.1
G1 X191.805Y-26.588Z-2.1
G1 X191.802Y-26.56Z-2.1
G1 X191.802Y-26.553Z-2.1
G1 X191.799Y-26.485Z-2.1
G1 X191.798Y-26.479Z-2.1
G1 X191.798Y-22.371Z-2.1
G1 X191.798Y-22.352Z-2.1
G1 X191.798Y-22.348Z-2.1
G1 X191.78Y-22.204Z-2.1
G1 X191.735Y-22.065Z-2.1
G1 X191.664Y-21.939Z-2.1
G1 X191.57Y-21.828Z-2.1
G1 X191.456Y-21.737Z-2.1
G1 X191.327Y-21.671Z-2.1
G1 X191.187Y-21.63Z-2.1
G1 X191.043Y-21.617Z-2.1
G1 X190.898Y-21.632Z-2.1
G1 X190.893Y-21.633Z-2.1
G1 X190.687Y-21.708Z-2.1
G1 X190.567Y-21.773Z-2.1
G1 X190.561Y-21.775Z-2.1
G1 X190.452Y-21.827Z-2.1
G1 X190.447Y-21.83Z-2.1
G1 X190.335Y-21.876Z-2.1
G1 X190.329Y-21.879Z-2.1
G1 X190.215Y-21.92Z-2.1
G1 X190.21Y-21.921Z-2.1
G1 X190.094Y-21.957Z-2.1
G1 X190.088Y-21.958Z-2.1
G1 X189.97Y-21.988Z-2.1
G1 X189.964Y-21.989Z-2.1
G1 X189.846Y-22.012Z-2.1
G1 X189.84Y-22.013Z-2.1
G1 X189.72Y-22.031Z-2.1
G1 X189.714Y-22.032Z-2.1
G1 X189.594Y-22.043Z-2.1
G1 X189.587Y-22.044Z-2.1
G1 X189.467Y-22.049Z-2.1
G1 X189.46Y-22.049Z-2.1
G1 X189.339Y-22.049Z-2.1
G1 X189.333Y-22.049Z-2.1
G1 X189.212Y-22.042Z-2.1
G1 X189.206Y-22.041Z-2.1
G1 X189.086Y-22.029Z-2.1
G1 X189.08Y-22.028Z-2.1
G1 X188.96Y-22.01Z-2.1
G1 X188.954Y-22.008Z-2.1
G1 X188.836Y-21.984Z-2.1
G1 X188.83Y-21.983Z-2.1
G1 X188.713Y-21.952Z-2.1
G1 X188.707Y-21.95Z-2.1
G1 X188.591Y-21.914Z-2.1
G1 X188.585Y-21.912Z-2.1
G1 X188.472Y-21.87Z-2.1
G1 X188.466Y-21.868Z-2.1
G1 X188.355Y-21.821Z-2.1
G1 X188.349Y-21.818Z-2.1
G1 X188.241Y-21.765Z-2.1
G1 X188.235Y-21.762Z-2.1
G1 X188.129Y-21.704Z-2.1
G1 X188.124Y-21.701Z-2.1
G1 X188.021Y-21.637Z-2.1
G1 X188.016Y-21.634Z-2.1
G1 X187.916Y-21.565Z-2.1
G1 X187.911Y-21.562Z-2.1
G1 X187.815Y-21.488Z-2.1
G1 X187.81Y-21.484Z-2.1
G1 X187.718Y-21.406Z-2.1
G1 X187.713Y-21.402Z-2.1
G1 X187.625Y-21.32Z-2.1
G1 X187.621Y-21.315Z-2.1
G1 X187.537Y-21.228Z-2.1
G1 X187.532Y-21.224Z-2.1
G1 X187.453Y-21.133Z-2.1
G1 X187.449Y-21.128Z-2.1
G1 X187.374Y-21.033Z-2.1
G1 X187.37Y-21.028Z-2.1
G1 X187.3Y-20.93Z-2.1
G1 X187.296Y-20.924Z-2.1
G1 X187.231Y-20.822Z-2.1
G1 X187.228Y-20.817Z-2.1
G1 X187.168Y-20.712Z-2.1
G1 X187.165Y-20.707Z-2.1
G1 X187.11Y-20.599Z-2.1
G1 X187.108Y-20.593Z-2.1
G1 X187.058Y-20.483Z-2.1
G1 X187.056Y-20.477Z-2.1
G1 X187.012Y-20.364Z-2.1
G1 X187.01Y-20.359Z-2.1
G1 X186.972Y-20.244Z-2.1
G1 X186.971Y-20.238Z-2.1
G1 X186.938Y-20.121Z-2.1
G1 X186.937Y-20.115Z-2.1
G1 X186.91Y-19.997Z-2.1
G1 X186.909Y-19.991Z-2.1
G1 X186.889Y-19.872Z-2.1
G1 X186.888Y-19.866Z-2.1
G1 X186.873Y-19.746Z-2.1
G1 X186.873Y-19.74Z-2.1
G1 X186.864Y-19.619Z-2.1
G1 X186.864Y-19.613Z-2.1
G1 X186.861Y-19.492Z-2.1
G1 X186.861Y-19.486Z-2.1
G1 X186.865Y-19.365Z-2.1
G1 X186.865Y-19.358Z-2.1
G1 X186.875Y-19.238Z-2.1
G1 X186.876Y-19.231Z-2.1
G1 X186.891Y-19.112Z-2.1
G1 X186.892Y-19.106Z-2.1
G1 X186.914Y-18.987Z-2.1
G1 X186.915Y-18.98Z-2.1
G1 X186.942Y-18.863Z-2.1
G1 X186.944Y-18.857Z-2.1
G1 X186.977Y-18.741Z-2.1
G1 X186.979Y-18.735Z-2.1
G1 X187.018Y-18.62Z-2.1
G1 X187.02Y-18.614Z-2.1
G1 X187.065Y-18.502Z-2.1
G1 X187.067Y-18.496Z-2.1
G1 X187.117Y-18.386Z-2.1
G1 X187.12Y-18.381Z-2.1
G1 X187.176Y-18.273Z-2.1
G1 X187.179Y-18.268Z-2.1
G1 X187.24Y-18.164Z-2.1
G1 X187.243Y-18.158Z-2.1
G1 X187.309Y-18.057Z-2.1
G1 X187.313Y-18.052Z-2.1
G1 X187.384Y-17.954Z-2.1
G1 X187.387Y-17.949Z-2.1
G1 X187.463Y-17.855Z-2.1
G1 X187.467Y-17.85Z-2.1
G1 X187.548Y-17.76Z-2.1
G1 X187.552Y-17.755Z-2.1
G1 X187.637Y-17.669Z-2.1
G1 X187.641Y-17.665Z-2.1
G1 X187.73Y-17.583Z-2.1
G1 X187.735Y-17.579Z-2.1
G1 X187.828Y-17.501Z-2.1
G1 X187.833Y-17.498Z-2.1
G1 X187.929Y-17.425Z-2.1
G1 X187.934Y-17.421Z-2.1
G1 X188.035Y-17.354Z-2.1
G1 X188.04Y-17.35Z-2.1
G1 X188.157Y-17.28Z-2.1
G1 X188.262Y-17.203Z-2.1
G1 X188.267Y-17.199Z-2.1
G1 X188.366Y-17.094Z-2.1
G1 X188.443Y-16.972Z-2.1
G1 X188.495Y-16.838Z-2.1
G1 X188.521Y-16.697Z-2.1
G1 X188.519Y-16.553Z-2.1
G1 X188.49Y-16.412Z-2.1
G1 X188.434Y-16.279Z-2.1
G1 X188.432Y-16.275Z-2.1
G1 X188.422Y-16.257Z-2.1
G1 X186.066Y-12.133Z-2.1
G1 X186.027Y-12.072Z-2.1
G1 X186.023Y-12.067Z-2.1
G1 X185.933Y-11.961Z-2.1
G1 X185.824Y-11.874Z-2.1
G1 X185.701Y-11.808Z-2.1
G1 X185.568Y-11.767Z-2.1
G1 X185.43Y-11.75Z-2.1
G1 X185.424Y-11.75Z-2.1
G1 X185.405Y-11.75Z-2.1
G1 X173.429Y-11.75Z-2.1
G1 X173.424Y-11.75Z-2.1
G1 X173.382Y-11.748Z-2.1
G1 X173.377Y-11.748Z-2.1
G1 X173.341Y-11.745Z-2.1
G1 X173.335Y-11.745Z-2.1
G1 X173.305Y-11.741Z-2.1
G1 X173.298Y-11.74Z-2.1
G1 X173.268Y-11.735Z-2.1
G1 X173.262Y-11.734Z-2.1
G1 X173.232Y-11.727Z-2.1
G1 X173.227Y-11.726Z-2.1
G1 X173.197Y-11.717Z-2.1
G1 X173.191Y-11.716Z-2.1
G1 X173.162Y-11.706Z-2.1
G1 X173.156Y-11.704Z-2.1
G1 X173.133Y-11.695Z-2.1
G1 X173.126Y-11.692Z-2.1
G1 X173.074Y-11.668Z-2.1
G1 X173.067Y-11.665Z-2.1
G1 X173.045Y-11.653Z-2.1
G1 X173.04Y-11.65Z-2.1
G1 X173.018Y-11.637Z-2.1
G1 X173.012Y-11.633Z-2.1
G1 X172.965Y-11.601Z-2.1
G1 X172.959Y-11.596Z-2.1
G1 X172.939Y-11.581Z-2.1
G1 X172.934Y-11.577Z-2.1
G1 X172.915Y-11.56Z-2.1
G1 X172.909Y-11.555Z-2.1
G1 X172.869Y-11.516Z-2.1
G1 X172.863Y-11.51Z-2.1
G1 X172.846Y-11.491Z-2.1
G1 X172.842Y-11.487Z-2.1
G1 X172.826Y-11.467Z-2.1
G1 X172.822Y-11.461Z-2.1
G1 X172.789Y-11.416Z-2.1
G1 X172.76Y-11.368Z-2.1
G1 X172.756Y-11.362Z-2.1
G1 X172.744Y-11.339Z-2.1
G1 X172.741Y-11.334Z-2.1
G1 X172.73Y-11.311Z-2.1
G1 X172.727Y-11.304Z-2.1
G1 X172.706Y-11.251Z-2.1
G1 X172.704Y-11.244Z-2.1
G1 X172.696Y-11.22Z-2.1
G1 X172.694Y-11.214Z-2.1
G1 X172.686Y-11.185Z-2.1
G1 X172.684Y-11.179Z-2.1
G1 X172.678Y-11.149Z-2.1
G1 X172.676Y-11.143Z-2.1
G1 X172.672Y-11.118Z-2.1
G1 X172.671Y-11.111Z-2.1
G1 X172.665Y-11.055Z-2.1
G1 X172.662Y-10.988Z-2.1
G1 X172.662Y-10.984Z-2.1
G1 X172.662Y-10.25Z-2.1
G0 Z10
G0 X172.662Y-10.25
G0 Z0
G1 F200 X172.662Y-10.25Z-3
G1 F600 X172.662Y-10.25Z-3
G1 X193.298Y-10.25Z-3
G1 X193.298Y-27.249Z-3
G1 X192.533Y-27.249Z-3
G1 X192.527Y-27.248Z-3
G1 X192.502Y-27.247Z-3
G1 X192.494Y-27.247Z-3
G1 X192.438Y-27.24Z-3
G1 X192.43Y-27.239Z-3
G1 X192.411Y-27.236Z-3
G1 X192.403Y-27.234Z-3
G1 X192.348Y-27.221Z-3
G1 X192.341Y-27.219Z-3
G1 X192.316Y-27.212Z-3
G1 X192.311Y-27.21Z-3
G1 X192.282Y-27.2Z-3
G1 X192.276Y-27.197Z-3
G1 X192.248Y-27.186Z-3
G1 X192.242Y-27.183Z-3
G1 X192.215Y-27.17Z-3
G1 X192.209Y-27.167Z-3
G1 X192.182Y-27.153Z-3
G1 X192.177Y-27.15Z-3
G1 X192.15Y-27.134Z-3
G1 X192.145Y-27.131Z-3
G1 X192.12Y-27.114Z-3
G1 X192.115Y-27.11Z-3
G1 X192.09Y-27.092Z-3
G1 X192.085Y-27.088Z-3
G1 X192.062Y-27.069Z-3
G1 X192.057Y-27.065Z-3
G1 X192.034Y-27.044Z-3
G1 X192.03Y-27.04Z-3
G1 X192.008Y-27.018Z-3
G1 X192.004Y-27.014Z-3
G1 X191.984Y-26.991Z-3
G1 X191.98Y-26.987Z-3
G1 X191.96Y-26.963Z-3
G1 X191.956Y-26.958Z-3
G1 X191.938Y-26.934Z-3
G1 X191.935Y-26.929Z-3
G1 X191.921Y-26.908Z-3
G1 X191.916Y-26.901Z-3
G1 X191.888Y-26.852Z-3
G1 X191.884Y-26.845Z-3
G1 X191.875Y-26.828Z-3
G1 X191.872Y-26.821Z-3
G1 X191.85Y-26.769Z-3
G1 X191.847Y-26.761Z-3
G1 X191.84Y-26.743Z-3
G1 X191.838Y-26.736Z-3
G1 X191.822Y-26.682Z-3
G1 X191.811Y-26.627Z-3
G1 X191.809Y-26.62Z-3
G1 X191.806Y-26.595Z-3
G1 X191.805Y-26.588Z-3
G1 X191.802Y-26.56Z-3
G1 X191.802Y-26.553Z-3
G1 X191.799Y-26.485Z-3
G1 X191.798Y-26.479Z-3
G1 X191.798Y-22.371Z-3
G1 X191.798Y-22.352Z-3
G1 X191.798Y-22.348Z-3
G1 X191.78Y-22.204Z-3
G1 X191.735Y-22.065Z-3
G1 X191.664Y-21.939Z-3
G1 X191.57Y-21.828Z-3
G1 X191.456Y-21.737Z-3
G1 X191.327Y-21.671Z-3
G1 X191.187Y-21.63Z-3
G1 X191.043Y-21.617Z-3
G1 X190.898Y-21.632Z-3
G1 X190.893Y-21.633Z-3
G1 X190.687Y-21.708Z-3
G1 X190.567Y-21.773Z-3
G1 X190.561Y-21.775Z-3
G1 X190.452Y-21.827Z-3
G1 X190.447Y-21.83Z-3
G1 X190.335Y-21.876Z-3
G1 X190.329Y-21.879Z-3
G1 X190.215Y-21.92Z-3
G1 X190.21Y-21.921Z-3
G1 X190.094Y-21.957Z-3
G1 X190.088Y-21.958Z-3
G1 X189.97Y-21.988Z-3
G1 X189.964Y-21.989Z-3
G1 X189.846Y-22.012Z-3
G1 X189.84Y-22.013Z-3
G1 X189.72Y-22.031Z-3
G1 X189.714Y-22.032Z-3
G1 X189.594Y-22.043Z-3
G1 X189.587Y-22.044Z-3
G1 X189.467Y-22.049Z-3
G1 X189.46Y-22.049Z-3
G1 X189.339Y-22.049Z-3
G1 X189.333Y-22.049Z-3
G1 X189.212Y-22.042Z-3
G1 X189.206Y-22.041Z-3
G1 X189.086Y-22.029Z-3
G1 X189.08Y-22.028Z-3
G1 X188.96Y-22.01Z-3
G1 X188.954Y-22.008Z-3
G1 X188.836Y-21.984Z-3
G1 X188.83Y-21.983Z-3
G1 X188.713Y-21.952Z-3
G1 X188.707Y-21.95Z-3
G1 X188.591Y-21.914Z-3
G1 X188.585Y-21.912Z-3
G1 X188.472Y-21.87Z-3
G1 X188.466Y-21.868Z-3
G1 X188.355Y-21.821Z-3
G1 X188.349Y-21.818Z-3
G1 X188.241Y-21.765Z-3
G1 X188.235Y-21.762Z-3
G1 X188.129Y-21.704Z-3
G1 X188.124Y-21.701Z-3
G1 X188.021Y-21.637Z-3
G1 X188.016Y-21.634Z-3
G1 X187.916Y-21.565Z-3
G1 X187.911Y-21.562Z-3
G1 X187.815Y-21.488Z-3
G1 X187.81Y-21.484Z-3
G1 X187.718Y-21.406Z-3
G1 X187.713Y-21.402Z-3
G1 X187.625Y-21.32Z-3
G1 X187.621Y-21.315Z-3
G1 X187.537Y-21.228Z-3
G1 X187.532Y-21.224Z-3
G1 X187.453Y-21.133Z-3
G1 X187.449Y-21.128Z-3
G1 X187.374Y-21.033Z-3
G1 X187.37Y-21.028Z-3
G1 X187.3Y-20.93Z-3
G1 X187.296Y-20.924Z-3
G1 X187.231Y-20.822Z-3
G1 X187.228Y-20.817Z-3
G1 X187.168Y-20.712Z-3
G1 X187.165Y-20.707Z-3
G1 X187.11Y-20.599Z-3
G1 X187.108Y-20.593Z-3
G1 X187.058Y-20.483Z-3
G1 X187.056Y-20.477Z-3
G1 X187.012Y-20.364Z-3
G1 X187.01Y-20.359Z-3
G1 X186.972Y-20.244Z-3
G1 X186.971Y-20.238Z-3
G1 X186.938Y-20.121Z-3
G1 X186.937Y-20.115Z-3
G1 X186.91Y-19.997Z-3
G1 X186.909Y-19.991Z-3
G1 X186.889Y-19.872Z-3
G1 X186.888Y-19.866Z-3
G1 X186.873Y-19.746Z-3
G1 X186.873Y-19.74Z-3
G1 X186.864Y-19.619Z-3
G1 X186.864Y-19.613Z-3
G1 X186.861Y-19.492Z-3
G1 X186.861Y-19.486Z-3
G1 X186.865Y-19.365Z-3
G1 X186.865Y-19.358Z-3
G1 X186.875Y-19.238Z-3
G1 X186.876Y-19.231Z-3
G1 X186.891Y-19.112Z-3
G1 X186.892Y-19.106Z-3
G1 X186.914Y-18.987Z-3
G1 X186.915Y-18.98Z-3
G1 X186.942Y-18.863Z-3
G1 X186.944Y-18.857Z-3
G1 X186.977Y-18.741Z-3
G1 X186.979Y-18.735Z-3
G1 X187.018Y-18.62Z-3
G1 X187.02Y-18.614Z-3
G1 X187.065Y-18.502Z-3
G1 X187.067Y-18.496Z-3
G1 X187.117Y-18.386Z-3
G1 X187.12Y-18.381Z-3
G1 X187.176Y-18.273Z-3
G1 X187.179Y-18.268Z-3
G1 X187.24Y-18.164Z-3
G1 X187.243Y-18.158Z-3
G1 X187.309Y-18.057Z-3
G1 X187.313Y-18.052Z-3
G1 X187.384Y-17.954Z-3
G1 X187.387Y-17.949Z-3
G1 X187.463Y-17.855Z-3
G1 X187.467Y-17.85Z-3
G1 X187.548Y-17.76Z-3
G1 X187.552Y-17.755Z-3
G1 X187.637Y-17.669Z-3
G1 X187.641Y-17.665Z-3
G1 X187.73Y-17.583Z-3
G1 X187.735Y-17.579Z-3
G1 X187.828Y-17.501Z-3
G1 X187.833Y-17.498Z-3
G1 X187.929Y-17.425Z-3
G1 X187.934Y-17.421Z-3
G1 X188.035Y-17.354Z-3
G1 X188.04Y-17.35Z-3
G1 X188.157Y-17.28Z-3
G1 X188.262Y-17.203Z-3
G1 X188.267Y-17.199Z-3
G1 X188.366Y-17.094Z-3
G1 X188.443Y-16.972Z-3
G1 X188.495Y-16.838Z-3
G1 X188.521Y-16.697Z-3
G1 X188.519Y-16.553Z-3
G1 X188.49Y-16.412Z-3
G1 X188.434Y-16.279Z-3
G1 X188.432Y-16.275Z-3
G1 X188.422Y-16.257Z-3
G1 X186.066Y-12.133Z-3
G1 X186.027Y-12.072Z-3
G1 X186.023Y-12.067Z-3
G1 X185.933Y-11.961Z-3
G1 X185.824Y-11.874Z-3
G1 X185.701Y-11.808Z-3
G1 X185.568Y-11.767Z-3
G1 X185.43Y-11.75Z-3
G1 X185.424Y-11.75Z-3
G1 X185.405Y-11.75Z-3
G1 X173.429Y-11.75Z-3
G1 X173.424Y-11.75Z-3
G1 X173.382Y-11.748Z-3
G1 X173.377Y-11.748Z-3
G1 X173.341Y-11.745Z-3
G1 X173.335Y-11.745Z-3
G1 X173.305Y-11.741Z-3
G1 X173.298Y-11.74Z-3
G1 X173.268Y-11.735Z-3
G1 X173.262Y-11.734Z-3
G1 X173.232Y-11.727Z-3
G1 X173.227Y-11.726Z-3
G1 X173.197Y-11.717Z-3
G1 X173.191Y-11.716Z-3
G1 X173.162Y-11.706Z-3
G1 X173.156Y-11.704Z-3
G1 X173.133Y-11.695Z-3
G1 X173.126Y-11.692Z-3
G1 X173.074Y-11.668Z-3
G1 X173.067Y-11.665Z-3
G1 X173.045Y-11.653Z-3
G1 X173.04Y-11.65Z-3
G1 X173.018Y-11.637Z-3
G1 X173.012Y-11.633Z-3
G1 X172.965Y-11.601Z-3
G1 X172.959Y-11.596Z-3
G1 X172.939Y-11.581Z-3
G1 X172.934Y-11.577Z-3
G1 X172.915Y-11.56Z-3
G1 X172.909Y-11.555Z-3
G1 X172.869Y-11.516Z-3
G1 X172.863Y-11.51Z-3
G1 X172.846Y-11.491Z-3
G1 X172.842Y-11.487Z-3
G1 X172.826Y-11.467Z-3
G1 X172.822Y-11.461Z-3
G1 X172.789Y-11.416Z-3
G1 X172.76Y-11.368Z-3
G1 X172.756Y-11.362Z-3
G1 X172.744Y-11.339Z-3
G1 X172.741Y-11.334Z-3
G1 X172.73Y-11.311Z-3
G1 X172.727Y-11.304Z-3
G1 X172.706Y-11.251Z-3
G1 X172.704Y-11.244Z-3
G1 X172.696Y-11.22Z-3
G1 X172.694Y-11.214Z-3
G1 X172.686Y-11.185Z-3
G1 X172.684Y-11.179Z-3
G1 X172.678Y-11.149Z-3
G1 X172.676Y-11.143Z-3
G1 X172.672Y-11.118Z-3
G1 X172.671Y-11.111Z-3
G1 X172.665Y-11.055Z-3
G1 X172.662Y-10.988Z-3
G1 X172.662Y-10.984Z-3
G1 X172.662Y-10.25Z-3
G0 Z10
; Path - Mill - Inside path (2/15)
M3 S10500
G0 Z10
G0 X191.85Y-65.769
G0 Z0
G1 F200 X191.85Y-65.769Z-1.1
G1 F600 X191.85Y-65.769Z-1.1
G1 X191.832Y-65.716Z-1.1
G1 X191.83Y-65.709Z-1.1
G1 X191.824Y-65.69Z-1.1
G1 X191.823Y-65.683Z-1.1
G1 X191.811Y-65.627Z-1.1
G1 X191.809Y-65.62Z-1.1
G1 X191.806Y-65.595Z-1.1
G1 X191.805Y-65.588Z-1.1
G1 X191.802Y-65.56Z-1.1
G1 X191.802Y-65.553Z-1.1
G1 X191.799Y-65.485Z-1.1
G1 X191.798Y-65.479Z-1.1
G1 X191.798Y-61.371Z-1.1
G1 X191.798Y-61.352Z-1.1
G1 X191.798Y-61.348Z-1.1
G1 X191.78Y-61.204Z-1.1
G1 X191.735Y-61.066Z-1.1
G1 X191.664Y-60.939Z-1.1
G1 X191.57Y-60.828Z-1.1
G1 X191.456Y-60.738Z-1.1
G1 X191.327Y-60.671Z-1.1
G1 X191.188Y-60.63Z-1.1
G1 X191.043Y-60.617Z-1.1
G1 X190.899Y-60.632Z-1.1
G1 X190.893Y-60.633Z-1.1
G1 X190.687Y-60.708Z-1.1
G1 X190.567Y-60.773Z-1.1
G1 X190.561Y-60.775Z-1.1
G1 X190.452Y-60.827Z-1.1
G1 X190.447Y-60.83Z-1.1
G1 X190.335Y-60.876Z-1.1
G1 X190.329Y-60.879Z-1.1
G1 X190.215Y-60.919Z-1.1
G1 X190.21Y-60.921Z-1.1
G1 X190.094Y-60.957Z-1.1
G1 X190.088Y-60.958Z-1.1
G1 X189.97Y-60.988Z-1.1
G1 X189.964Y-60.989Z-1.1
G1 X189.846Y-61.012Z-1.1
G1 X189.84Y-61.013Z-1.1
G1 X189.72Y-61.031Z-1.1
G1 X189.714Y-61.032Z-1.1
G1 X189.594Y-61.043Z-1.1
G1 X189.587Y-61.044Z-1.1
G1 X189.466Y-61.049Z-1.1
G1 X189.46Y-61.049Z-1.1
G1 X189.339Y-61.049Z-1.1
G1 X189.333Y-61.049Z-1.1
G1 X189.212Y-61.042Z-1.1
G1 X189.206Y-61.041Z-1.1
G1 X189.086Y-61.029Z-1.1
G1 X189.08Y-61.028Z-1.1
G1 X188.96Y-61.01Z-1.1
G1 X188.954Y-61.008Z-1.1
G1 X188.836Y-60.984Z-1.1
G1 X188.83Y-60.983Z-1.1
G1 X188.713Y-60.952Z-1.1
G1 X188.707Y-60.95Z-1.1
G1 X188.591Y-60.914Z-1.1
G1 X188.586Y-60.912Z-1.1
G1 X188.472Y-60.87Z-1.1
G1 X188.466Y-60.868Z-1.1
G1 X188.355Y-60.821Z-1.1
G1 X188.349Y-60.818Z-1.1
G1 X188.241Y-60.765Z-1.1
G1 X188.235Y-60.762Z-1.1
G1 X188.129Y-60.704Z-1.1
G1 X188.124Y-60.701Z-1.1
G1 X188.021Y-60.637Z-1.1
G1 X188.016Y-60.634Z-1.1
G1 X187.916Y-60.565Z-1.1
G1 X187.911Y-60.562Z-1.1
G1 X187.815Y-60.488Z-1.1
G1 X187.81Y-60.484Z-1.1
G1 X187.718Y-60.406Z-1.1
G1 X187.713Y-60.402Z-1.1
G1 X187.625Y-60.319Z-1.1
G1 X187.621Y-60.315Z-1.1
G1 X187.536Y-60.228Z-1.1
G1 X187.532Y-60.224Z-1.1
G1 X187.453Y-60.133Z-1.1
G1 X187.449Y-60.128Z-1.1
G1 X187.374Y-60.033Z-1.1
G1 X187.37Y-60.028Z-1.1
G1 X187.3Y-59.93Z-1.1
G1 X187.296Y-59.924Z-1.1
G1 X187.231Y-59.822Z-1.1
G1 X187.228Y-59.817Z-1.1
G1 X187.168Y-59.712Z-1.1
G1 X187.165Y-59.707Z-1.1
G1 X187.11Y-59.599Z-1.1
G1 X187.108Y-59.593Z-1.1
G1 X187.058Y-59.483Z-1.1
G1 X187.056Y-59.477Z-1.1
G1 X187.012Y-59.364Z-1.1
G1 X187.01Y-59.359Z-1.1
G1 X186.972Y-59.244Z-1.1
G1 X186.971Y-59.238Z-1.1
G1 X186.938Y-59.121Z-1.1
G1 X186.937Y-59.115Z-1.1
G1 X186.91Y-58.997Z-1.1
G1 X186.909Y-58.991Z-1.1
G1 X186.889Y-58.872Z-1.1
G1 X186.888Y-58.866Z-1.1
G1 X186.873Y-58.746Z-1.1
G1 X186.873Y-58.74Z-1.1
G1 X186.864Y-58.619Z-1.1
G1 X186.864Y-58.613Z-1.1
G1 X186.861Y-58.492Z-1.1
G1 X186.861Y-58.486Z-1.1
G1 X186.865Y-58.365Z-1.1
G1 X186.865Y-58.358Z-1.1
G1 X186.875Y-58.238Z-1.1
G1 X186.876Y-58.231Z-1.1
G1 X186.891Y-58.112Z-1.1
G1 X186.892Y-58.106Z-1.1
G1 X186.914Y-57.987Z-1.1
G1 X186.915Y-57.98Z-1.1
G1 X186.942Y-57.863Z-1.1
G1 X186.944Y-57.857Z-1.1
G1 X186.977Y-57.741Z-1.1
G1 X186.979Y-57.735Z-1.1
G1 X187.018Y-57.62Z-1.1
G1 X187.02Y-57.614Z-1.1
G1 X187.065Y-57.502Z-1.1
G1 X187.067Y-57.496Z-1.1
G1 X187.117Y-57.386Z-1.1
G1 X187.12Y-57.381Z-1.1
G1 X187.176Y-57.273Z-1.1
G1 X187.179Y-57.268Z-1.1
G1 X187.24Y-57.164Z-1.1
G1 X187.243Y-57.158Z-1.1
G1 X187.309Y-57.057Z-1.1
G1 X187.313Y-57.052Z-1.1
G1 X187.384Y-56.954Z-1.1
G1 X187.388Y-56.949Z-1.1
G1 X187.463Y-56.855Z-1.1
G1 X187.467Y-56.85Z-1.1
G1 X187.548Y-56.76Z-1.1
G1 X187.552Y-56.755Z-1.1
G1 X187.637Y-56.669Z-1.1
G1 X187.641Y-56.665Z-1.1
G1 X187.73Y-56.583Z-1.1
G1 X187.735Y-56.579Z-1.1
G1 X187.828Y-56.501Z-1.1
G1 X187.833Y-56.498Z-1.1
G1 X187.929Y-56.425Z-1.1
G1 X187.934Y-56.421Z-1.1
G1 X188.035Y-56.354Z-1.1
G1 X188.04Y-56.35Z-1.1
G1 X188.157Y-56.28Z-1.1
G1 X188.173Y-56.27Z-1.1
G1 X188.177Y-56.267Z-1.1
G1 X188.29Y-56.178Z-1.1
G1 X188.384Y-56.069Z-1.1
G1 X188.456Y-55.945Z-1.1
G1 X188.503Y-55.808Z-1.1
G1 X188.522Y-55.666Z-1.1
G1 X188.514Y-55.522Z-1.1
G1 X188.479Y-55.382Z-1.1
G1 X188.477Y-55.377Z-1.1
G1 X188.422Y-55.257Z-1.1
G1 X186.066Y-51.133Z-1.1
G1 X186.057Y-51.117Z-1.1
G1 X186.054Y-51.113Z-1.1
G1 X185.971Y-51.001Z-1.1
G1 X185.869Y-50.906Z-1.1
G1 X185.751Y-50.832Z-1.1
G1 X185.621Y-50.78Z-1.1
G1 X185.484Y-50.754Z-1.1
G1 X185.478Y-50.753Z-1.1
G1 X185.405Y-50.75Z-1.1
G1 X173.429Y-50.75Z-1.1
G1 X173.424Y-50.75Z-1.1
G1 X173.382Y-50.748Z-1.1
G1 X173.378Y-50.748Z-1.1
G1 X173.342Y-50.745Z-1.1
G1 X173.335Y-50.745Z-1.1
G1 X173.305Y-50.741Z-1.1
G1 X173.299Y-50.74Z-1.1
G1 X173.269Y-50.735Z-1.1
G1 X173.263Y-50.734Z-1.1
G1 X173.234Y-50.727Z-1.1
G1 X173.228Y-50.726Z-1.1
G1 X173.198Y-50.718Z-1.1
G1 X173.193Y-50.716Z-1.1
G1 X173.164Y-50.707Z-1.1
G1 X173.158Y-50.705Z-1.1
G1 X173.135Y-50.696Z-1.1
G1 X173.128Y-50.693Z-1.1
G1 X173.077Y-50.669Z-1.1
G1 X173.07Y-50.666Z-1.1
G1 X173.047Y-50.654Z-1.1
G1 X173.042Y-50.651Z-1.1
G1 X173.016Y-50.636Z-1.1
G1 X173.011Y-50.633Z-1.1
G1 X172.986Y-50.616Z-1.1
G1 X172.981Y-50.612Z-1.1
G1 X172.96Y-50.598Z-1.1
G1 X172.954Y-50.593Z-1.1
G1 X172.911Y-50.557Z-1.1
G1 X172.906Y-50.552Z-1.1
G1 X172.887Y-50.535Z-1.1
G1 X172.883Y-50.53Z-1.1
G1 X172.866Y-50.512Z-1.1
G1 X172.861Y-50.507Z-1.1
G1 X172.824Y-50.464Z-1.1
G1 X172.819Y-50.458Z-1.1
G1 X172.804Y-50.438Z-1.1
G1 X172.801Y-50.433Z-1.1
G1 X172.784Y-50.408Z-1.1
G1 X172.78Y-50.403Z-1.1
G1 X172.764Y-50.377Z-1.1
G1 X172.761Y-50.372Z-1.1
G1 X172.749Y-50.35Z-1.1
G1 X172.746Y-50.343Z-1.1
G1 X172.722Y-50.292Z-1.1
G1 X172.719Y-50.285Z-1.1
G1 X172.71Y-50.262Z-1.1
G1 X172.708Y-50.256Z-1.1
G1 X172.698Y-50.227Z-1.1
G1 X172.696Y-50.222Z-1.1
G1 X172.688Y-50.192Z-1.1
G1 X172.686Y-50.186Z-1.1
G1 X172.68Y-50.162Z-1.1
G1 X172.679Y-50.155Z-1.1
G1 X172.669Y-50.099Z-1.1
G1 X172.668Y-50.092Z-1.1
G1 X172.666Y-50.066Z-1.1
G1 X172.665Y-50.06Z-1.1
G1 X172.663Y-50.026Z-1.1
G1 X172.663Y-50.021Z-1.1
G1 X172.663Y-50.005Z-1.1
G1 X172.663Y-50Z-1.1
G1 X172.663Y-49.967Z-1.1
G1 X172.664Y-49.961Z-1.1
G1 X172.666Y-49.93Z-1.1
G1 X172.667Y-49.924Z-1.1
G1 X172.67Y-49.893Z-1.1
G1 X172.671Y-49.887Z-1.1
G1 X172.676Y-49.857Z-1.1
G1 X172.678Y-49.851Z-1.1
G1 X172.684Y-49.821Z-1.1
G1 X172.686Y-49.815Z-1.1
G1 X172.694Y-49.786Z-1.1
G1 X172.696Y-49.78Z-1.1
G1 X172.704Y-49.756Z-1.1
G1 X172.706Y-49.749Z-1.1
G1 X172.727Y-49.696Z-1.1
G1 X172.73Y-49.689Z-1.1
G1 X172.741Y-49.666Z-1.1
G1 X172.744Y-49.661Z-1.1
G1 X172.758Y-49.634Z-1.1
G1 X172.761Y-49.628Z-1.1
G1 X172.777Y-49.602Z-1.1
G1 X172.78Y-49.597Z-1.1
G1 X172.798Y-49.571Z-1.1
G1 X172.801Y-49.566Z-1.1
G1 X172.819Y-49.542Z-1.1
G1 X172.823Y-49.537Z-1.1
G1 X172.839Y-49.517Z-1.1
G1 X172.844Y-49.512Z-1.1
G1 X172.883Y-49.47Z-1.1
G1 X172.888Y-49.465Z-1.1
G1 X172.906Y-49.447Z-1.1
G1 X172.911Y-49.443Z-1.1
G1 X172.934Y-49.423Z-1.1
G1 X172.939Y-49.419Z-1.1
G1 X172.963Y-49.401Z-1.1
G1 X172.968Y-49.397Z-1.1
G1 X172.993Y-49.379Z-1.1
G1 X172.998Y-49.376Z-1.1
G1 X173.024Y-49.359Z-1.1
G1 X173.029Y-49.356Z-1.1
G1 X173.056Y-49.341Z-1.1
G1 X173.061Y-49.338Z-1.1
G1 X173.088Y-49.325Z-1.1
G1 X173.094Y-49.322Z-1.1
G1 X173.117Y-49.312Z-1.1
G1 X173.124Y-49.309Z-1.1
G1 X173.177Y-49.289Z-1.1
G1 X173.184Y-49.287Z-1.1
G1 X173.209Y-49.279Z-1.1
G1 X173.215Y-49.278Z-1.1
G1 X173.244Y-49.27Z-1.1
G1 X173.25Y-49.269Z-1.1
G1 X173.28Y-49.263Z-1.1
G1 X173.286Y-49.262Z-1.1
G1 X173.317Y-49.257Z-1.1
G1 X173.323Y-49.257Z-1.1
G1 X173.352Y-49.254Z-1.1
G1 X173.358Y-49.253Z-1.1
G1 X173.427Y-49.25Z-1.1
G1 X173.432Y-49.25Z-1.1
G1 X185.405Y-49.25Z-1.1
G1 X185.424Y-49.25Z-1.1
G1 X185.429Y-49.25Z-1.1
G1 X185.567Y-49.233Z-1.1
G1 X185.7Y-49.192Z-1.1
G1 X185.823Y-49.126Z-1.1
G1 X185.932Y-49.039Z-1.1
G1 X186.022Y-48.934Z-1.1
G1 X186.026Y-48.929Z-1.1
G1 X186.065Y-48.867Z-1.1
G1 X188.422Y-44.742Z-1.1
G1 X188.432Y-44.725Z-1.1
G1 X188.434Y-44.72Z-1.1
G1 X188.49Y-44.588Z-1.1
G1 X188.519Y-44.447Z-1.1
G1 X188.521Y-44.303Z-1.1
G1 X188.495Y-44.162Z-1.1
G1 X188.443Y-44.028Z-1.1
G1 X188.366Y-43.906Z-1.1
G1 X188.268Y-43.802Z-1.1
G1 X188.263Y-43.798Z-1.1
G1 X188.157Y-43.72Z-1.1
G1 X188.039Y-43.648Z-1.1
G1 X188.033Y-43.645Z-1.1
G1 X187.932Y-43.576Z-1.1
G1 X187.926Y-43.572Z-1.1
G1 X187.828Y-43.498Z-1.1
G1 X187.823Y-43.494Z-1.1
G1 X187.729Y-43.416Z-1.1
G1 X187.724Y-43.411Z-1.1
G1 X187.634Y-43.328Z-1.1
G1 X187.63Y-43.323Z-1.1
G1 X187.544Y-43.235Z-1.1
G1 X187.54Y-43.231Z-1.1
G1 X187.459Y-43.139Z-1.1
G1 X187.455Y-43.134Z-1.1
G1 X187.378Y-43.038Z-1.1
G1 X187.374Y-43.033Z-1.1
G1 X187.303Y-42.933Z-1.1
G1 X187.299Y-42.927Z-1.1
G1 X187.233Y-42.824Z-1.1
G1 X187.23Y-42.819Z-1.1
G1 X187.169Y-42.712Z-1.1
G1 X187.166Y-42.707Z-1.1
G1 X187.11Y-42.597Z-1.1
G1 X187.107Y-42.591Z-1.1
G1 X187.058Y-42.479Z-1.1
G1 X187.055Y-42.473Z-1.1
G1 X187.011Y-42.359Z-1.1
G1 X187.009Y-42.353Z-1.1
G1 X186.971Y-42.236Z-1.1
G1 X186.969Y-42.23Z-1.1
G1 X186.937Y-42.111Z-1.1
G1 X186.935Y-42.105Z-1.1
G1 X186.909Y-41.985Z-1.1
G1 X186.908Y-41.979Z-1.1
G1 X186.887Y-41.858Z-1.1
G1 X186.887Y-41.852Z-1.1
G1 X186.873Y-41.729Z-1.1
G1 X186.872Y-41.723Z-1.1
G1 X186.864Y-41.601Z-1.1
G1 X186.864Y-41.594Z-1.1
G1 X186.862Y-41.471Z-1.1
G1 X186.862Y-41.465Z-1.1
G1 X186.867Y-41.342Z-1.1
G1 X186.867Y-41.336Z-1.1
G1 X186.878Y-41.214Z-1.1
G1 X186.879Y-41.208Z-1.1
G1 X186.896Y-41.086Z-1.1
G1 X186.897Y-41.08Z-1.1
G1 X186.92Y-40.959Z-1.1
G1 X186.922Y-40.953Z-1.1
G1 X186.951Y-40.833Z-1.1
G1 X186.953Y-40.827Z-1.1
G1 X186.988Y-40.71Z-1.1
G1 X186.99Y-40.704Z-1.1
G1 X187.031Y-40.588Z-1.1
G1 X187.033Y-40.582Z-1.1
G1 X187.08Y-40.468Z-1.1
G1 X187.083Y-40.463Z-1.1
G1 X187.135Y-40.352Z-1.1
G1 X187.138Y-40.346Z-1.1
G1 X187.196Y-40.238Z-1.1
G1 X187.2Y-40.232Z-1.1
G1 X187.263Y-40.127Z-1.1
G1 X187.267Y-40.122Z-1.1
G1 X187.336Y-40.02Z-1.1
G1 X187.339Y-40.015Z-1.1
G1 X187.413Y-39.917Z-1.1
G1 X187.417Y-39.912Z-1.1
G1 X187.496Y-39.818Z-1.1
G1 X187.5Y-39.813Z-1.1
G1 X187.583Y-39.723Z-1.1
G1 X187.588Y-39.719Z-1.1
G1 X187.676Y-39.633Z-1.1
G1 X187.68Y-39.628Z-1.1
G1 X187.773Y-39.547Z-1.1
G1 X187.778Y-39.543Z-1.1
G1 X187.874Y-39.467Z-1.1
G1 X187.879Y-39.463Z-1.1
G1 X187.979Y-39.391Z-1.1
G1 X187.984Y-39.388Z-1.1
G1 X188.087Y-39.322Z-1.1
G1 X188.093Y-39.318Z-1.1
G1 X188.199Y-39.257Z-1.1
G1 X188.205Y-39.254Z-1.1
G1 X188.315Y-39.199Z-1.1
G1 X188.32Y-39.196Z-1.1
G1 X188.432Y-39.146Z-1.1
G1 X188.438Y-39.144Z-1.1
G1 X188.553Y-39.1Z-1.1
G1 X188.559Y-39.097Z-1.1
G1 X188.676Y-39.059Z-1.1
G1 X188.682Y-39.057Z-1.1
G1 X188.8Y-39.025Z-1.1
G1 X188.806Y-39.023Z-1.1
G1 X188.926Y-38.997Z-1.1
G1 X188.932Y-38.996Z-1.1
G1 X189.054Y-38.976Z-1.1
G1 X189.06Y-38.975Z-1.1
G1 X189.182Y-38.961Z-1.1
G1 X189.188Y-38.96Z-1.1
G1 X189.311Y-38.953Z-1.1
G1 X189.317Y-38.952Z-1.1
G1 X189.44Y-38.951Z-1.1
G1 X189.446Y-38.951Z-1.1
G1 X189.569Y-38.955Z-1.1
G1 X189.575Y-38.956Z-1.1
G1 X189.698Y-38.967Z-1.1
G1 X189.704Y-38.967Z-1.1
G1 X189.826Y-38.984Z-1.1
G1 X189.832Y-38.985Z-1.1
G1 X189.952Y-39.009Z-1.1
G1 X189.959Y-39.01Z-1.1
G1 X190.078Y-39.039Z-1.1
G1 X190.084Y-39.041Z-1.1
G1 X190.202Y-39.076Z-1.1
G1 X190.208Y-39.078Z-1.1
G1 X190.323Y-39.119Z-1.1
G1 X190.329Y-39.121Z-1.1
G1 X190.443Y-39.168Z-1.1
G1 X190.449Y-39.171Z-1.1
G1 X190.56Y-39.224Z-1.1
G1 X190.565Y-39.227Z-1.1
G1 X190.688Y-39.292Z-1.1
G1 X190.893Y-39.367Z-1.1
G1 X190.898Y-39.368Z-1.1
G1 X191.042Y-39.383Z-1.1
G1 X191.187Y-39.37Z-1.1
G1 X191.327Y-39.329Z-1.1
G1 X191.456Y-39.263Z-1.1
G1 X191.57Y-39.172Z-1.1
G1 X191.664Y-39.061Z-1.1
G1 X191.735Y-38.935Z-1.1
G1 X191.78Y-38.796Z-1.1
G1 X191.798Y-38.652Z-1.1
G1 X191.798Y-38.648Z-1.1
G1 X191.798Y-38.629Z-1.1
G1 X191.798Y-34.521Z-1.1
G1 X191.799Y-34.515Z-1.1
G1 X191.802Y-34.447Z-1.1
G1 X191.802Y-34.44Z-1.1
G1 X191.805Y-34.411Z-1.1
G1 X191.806Y-34.405Z-1.1
G1 X191.809Y-34.38Z-1.1
G1 X191.811Y-34.373Z-1.1
G1 X191.821Y-34.323Z-1.1
G1 X191.824Y-34.314Z-1.1
G1 X191.838Y-34.265Z-1.1
G1 X191.84Y-34.257Z-1.1
G1 X191.849Y-34.233Z-1.1
G1 X191.851Y-34.228Z-1.1
G1 X191.861Y-34.204Z-1.1
G1 X191.864Y-34.197Z-1.1
G1 X191.886Y-34.151Z-1.1
G1 X191.891Y-34.143Z-1.1
G1 X191.914Y-34.104Z-1.1
G1 X191.919Y-34.096Z-1.1
G1 X191.945Y-34.058Z-1.1
G1 X191.95Y-34.051Z-1.1
G1 X191.979Y-34.015Z-1.1
G1 X191.985Y-34.008Z-1.1
G1 X192.02Y-33.97Z-1.1
G1 X192.025Y-33.965Z-1.1
G1 X192.043Y-33.947Z-1.1
G1 X192.048Y-33.943Z-1.1
G1 X192.067Y-33.927Z-1.1
G1 X192.073Y-33.922Z-1.1
G1 X192.114Y-33.891Z-1.1
G1 X192.121Y-33.886Z-1.1
G1 X192.16Y-33.86Z-1.1
G1 X192.168Y-33.856Z-1.1
G1 X192.213Y-33.831Z-1.1
G1 X192.219Y-33.828Z-1.1
G1 X192.242Y-33.817Z-1.1
G1 X192.248Y-33.814Z-1.1
G1 X192.276Y-33.803Z-1.1
G1 X192.282Y-33.8Z-1.1
G1 X192.311Y-33.79Z-1.1
G1 X192.316Y-33.788Z-1.1
G1 X192.341Y-33.781Z-1.1
G1 X192.348Y-33.779Z-1.1
G1 X192.398Y-33.767Z-1.1
G1 X192.407Y-33.765Z-1.1
G1 X192.452Y-33.758Z-1.1
G1 X192.461Y-33.757Z-1.1
G1 X192.512Y-33.752Z-1.1
G1 X192.52Y-33.752Z-1.1
G1 X192.556Y-33.751Z-1.1
G1 X192.559Y-33.751Z-1.1
G1 X193.298Y-33.751Z-1.1
G1 X193.298Y-66.249Z-1.1
G1 X192.539Y-66.249Z-1.1
G1 X192.531Y-66.248Z-1.1
G1 X192.474Y-66.245Z-1.1
G1 X192.467Y-66.244Z-1.1
G1 X192.442Y-66.241Z-1.1
G1 X192.436Y-66.24Z-1.1
G1 X192.411Y-66.236Z-1.1
G1 X192.403Y-66.234Z-1.1
G1 X192.348Y-66.221Z-1.1
G1 X192.341Y-66.219Z-1.1
G1 X192.316Y-66.212Z-1.1
G1 X192.311Y-66.21Z-1.1
G1 X192.282Y-66.2Z-1.1
G1 X192.276Y-66.197Z-1.1
G1 X192.253Y-66.188Z-1.1
G1 X192.246Y-66.185Z-1.1
G1 X192.195Y-66.16Z-1.1
G1 X192.188Y-66.156Z-1.1
G1 X192.166Y-66.144Z-1.1
G1 X192.161Y-66.141Z-1.1
G1 X192.135Y-66.124Z-1.1
G1 X192.13Y-66.121Z-1.1
G1 X192.105Y-66.103Z-1.1
G1 X192.1Y-66.1Z-1.1
G1 X192.076Y-66.081Z-1.1
G1 X192.071Y-66.077Z-1.1
G1 X192.048Y-66.057Z-1.1
G1 X192.043Y-66.053Z-1.1
G1 X192.021Y-66.031Z-1.1
G1 X192.017Y-66.027Z-1.1
G1 X191.996Y-66.005Z-1.1
G1 X191.992Y-66.001Z-1.1
G1 X191.972Y-65.977Z-1.1
G1 X191.968Y-65.973Z-1.1
G1 X191.949Y-65.948Z-1.1
G1 X191.945Y-65.944Z-1.1
G1 X191.928Y-65.918Z-1.1
G1 X191.924Y-65.913Z-1.1
G1 X191.908Y-65.888Z-1.1
G1 X191.905Y-65.882Z-1.1
G1 X191.89Y-65.856Z-1.1
G1 X191.887Y-65.85Z-1.1
G1 X191.875Y-65.828Z-1.1
G1 X191.872Y-65.821Z-1.1
G1 X191.85Y-65.769Z-1.1
G0 Z10
G0 X191.85Y-65.769
G0 Z0
G1 F200 X191.85Y-65.769Z-2.1
G1 F600 X191.85Y-65.769Z-2.1
G1 X191.832Y-65.716Z-2.1
G1 X191.83Y-65.709Z-2.1
G1 X191.824Y-65.69Z-2.1
G1 X191.823Y-65.683Z-2.1
G1 X191.811Y-65.627Z-2.1
G1 X191.809Y-65.62Z-2.1
G1 X191.806Y-65.595Z-2.1
G1 X191.805Y-65.588Z-2.1
G1 X191.802Y-65.56Z-2.1
G1 X191.802Y-65.553Z-2.1
G1 X191.799Y-65.485Z-2.1
G1 X191.798Y-65.479Z-2.1
G1 X191.798Y-61.371Z-2.1
G1 X191.798Y-61.352Z-2.1
G1 X191.798Y-61.348Z-2.1
G1 X191.78Y-61.204Z-2.1
G1 X191.735Y-61.066Z-2.1
G1 X191.664Y-60.939Z-2.1
G1 X191.57Y-60.828Z-2.1
G1 X191.456Y-60.738Z-2.1
G1 X191.327Y-60.671Z-2.1
G1 X191.188Y-60.63Z-2.1
G1 X191.043Y-60.617Z-2.1
G1 X190.899Y-60.632Z-2.1
G1 X190.893Y-60.633Z-2.1
G1 X190.687Y-60.708Z-2.1
G1 X190.567Y-60.773Z-2.1
G1 X190.561Y-60.775Z-2.1
G1 X190.452Y-60.827Z-2.1
G1 X190.447Y-60.83Z-2.1
G1 X190.335Y-60.876Z-2.1
G1 X190.329Y-60.879Z-2.1
G1 X190.215Y-60.919Z-2.1
G1 X190.21Y-60.921Z-2.1
G1 X190.094Y-60.957Z-2.1
G1 X190.088Y-60.958Z-2.1
G1 X189.97Y-60.988Z-2.1
G1 X189.964Y-60.989Z-2.1
G1 X189.846Y-61.012Z-2.1
G1 X189.84Y-61.013Z-2.1
G1 X189.72Y-61.031Z-2.1
G1 X189.714Y-61.032Z-2.1
G1 X189.594Y-61.043Z-2.1
G1 X189.587Y-61.044Z-2.1
G1 X189.466Y-61.049Z-2.1
G1 X189.46Y-61.049Z-2.1
G1 X189.339Y-61.049Z-2.1
G1 X189.333Y-61.049Z-2.1
G1 X189.212Y-61.042Z-2.1
G1 X189.206Y-61.041Z-2.1
G1 X189.086Y-61.029Z-2.1
G1 X189.08Y-61.028Z-2.1
G1 X188.96Y-61.01Z-2.1
G1 X188.954Y-61.008Z-2.1
G1 X188.836Y-60.984Z-2.1
G1 X188.83Y-60.983Z-2.1
G1 X188.713Y-60.952Z-2.1
G1 X188.707Y-60.95Z-2.1
G1 X188.591Y-60.914Z-2.1
G1 X188.586Y-60.912Z-2.1
G1 X188.472Y-60.87Z-2.1
G1 X188.466Y-60.868Z-2.1
G1 X188.355Y-60.821Z-2.1
G1 X188.349Y-60.818Z-2.1
G1 X188.241Y-60.765Z-2.1
G1 X188.235Y-60.762Z-2.1
G1 X188.129Y-60.704Z-2.1
G1 X188.124Y-60.701Z-2.1
G1 X188.021Y-60.637Z-2.1
G1 X188.016Y-60.634Z-2.1
G1 X187.916Y-60.565Z-2.1
G1 X187.911Y-60.562Z-2.1
G1 X187.815Y-60.488Z-2.1
G1 X187.81Y-60.484Z-2.1
G1 X187.718Y-60.406Z-2.1
G1 X187.713Y-60.402Z-2.1
G1 X187.625Y-60.319Z-2.1
G1 X187.621Y-60.315Z-2.1
G1 X187.536Y-60.228Z-2.1
G1 X187.532Y-60.224Z-2.1
G1 X187.453Y-60.133Z-2.1
G1 X187.449Y-60.128Z-2.1
G1 X187.374Y-60.033Z-2.1
G1 X187.37Y-60.028Z-2.1
G1 X187.3Y-59.93Z-2.1
G1 X187.296Y-59.924Z-2.1
G1 X187.231Y-59.822Z-2.1
G1 X187.228Y-59.817Z-2.1
G1 X187.168Y-59.712Z-2.1
G1 X187.165Y-59.707Z-2.1
G1 X187.11Y-59.599Z-2.1
G1 X187.108Y-59.593Z-2.1
G1 X187.058Y-59.483Z-2.1
G1 X187.056Y-59.477Z-2.1
G1 X187.012Y-59.364Z-2.1
G1 X187.01Y-59.359Z-2.1
G1 X186.972Y-59.244Z-2.1
G1 X186.971Y-59.238Z-2.1
G1 X186.938Y-59.121Z-2.1
G1 X186.937Y-59.115Z-2.1
G1 X186.91Y-58.997Z-2.1
G1 X186.909Y-58.991Z-2.1
G1 X186.889Y-58.872Z-2.1
G1 X186.888Y-58.866Z-2.1
G1 X186.873Y-58.746Z-2.1
G1 X186.873Y-58.74Z-2.1
G1 X186.864Y-58.619Z-2.1
G1 X186.864Y-58.613Z-2.1
G1 X186.861Y-58.492Z-2.1
G1 X186.861Y-58.486Z-2.1
G1 X186.865Y-58.365Z-2.1
G1 X186.865Y-58.358Z-2.1
G1 X186.875Y-58.238Z-2.1
G1 X186.876Y-58.231Z-2.1
G1 X186.891Y-58.112Z-2.1
G1 X186.892Y-58.106Z-2.1
G1 X186.914Y-57.987Z-2.1
G1 X186.915Y-57.98Z-2.1
G1 X186.942Y-57.863Z-2.1
G1 X186.944Y-57.857Z-2.1
G1 X186.977Y-57.741Z-2.1
G1 X186.979Y-57.735Z-2.1
G1 X187.018Y-57.62Z-2.1
G1 X187.02Y-57.614Z-2.1
G1 X187.065Y-57.502Z-2.1
G1 X187.067Y-57.496Z-2.1
G1 X187.117Y-57.386Z-2.1
G1 X187.12Y-57.381Z-2.1
G1 X187.176Y-57.273Z-2.1
G1 X187.179Y-57.268Z-2.1
G1 X187.24Y-57.164Z-2.1
G1 X187.243Y-57.158Z-2.1
G1 X187.309Y-57.057Z-2.1
G1 X187.313Y-57.052Z-2.1
G1 X187.384Y-56.954Z-2.1
G1 X187.388Y-56.949Z-2.1
G1 X187.463Y-56.855Z-2.1
G1 X187.467Y-56.85Z-2.1
G1 X187.548Y-56.76Z-2.1
G1 X187.552Y-56.755Z-2.1
G1 X187.637Y-56.669Z-2.1
G1 X187.641Y-56.665Z-2.1
G1 X187.73Y-56.583Z-2.1
G1 X187.735Y-56.579Z-2.1
G1 X187.828Y-56.501Z-2.1
G1 X187.833Y-56.498Z-2.1
G1 X187.929Y-56.425Z-2.1
G1 X187.934Y-56.421Z-2.1
G1 X188.035Y-56.354Z-2.1
G1 X188.04Y-56.35Z-2.1
G1 X188.157Y-56.28Z-2.1
G1 X188.173Y-56.27Z-2.1
G1 X188.177Y-56.267Z-2.1
G1 X188.29Y-56.178Z-2.1
G1 X188.384Y-56.069Z-2.1
G1 X188.456Y-55.945Z-2.1
G1 X188.503Y-55.808Z-2.1
G1 X188.522Y-55.666Z-2.1
G1 X188.514Y-55.522Z-2.1
G1 X188.479Y-55.382Z-2.1
G1 X188.477Y-55.377Z-2.1
G1 X188.422Y-55.257Z-2.1
G1 X186.066Y-51.133Z-2.1
G1 X186.057Y-51.117Z-2.1
G1 X186.054Y-51.113Z-2.1
G1 X185.971Y-51.001Z-2.1
G1 X185.869Y-50.906Z-2.1
G1 X185.751Y-50.832Z-2.1
G1 X185.621Y-50.78Z-2.1
G1 X185.484Y-50.754Z-2.1
G1 X185.478Y-50.753Z-2.1
G1 X185.405Y-50.75Z-2.1
G1 X173.429Y-50.75Z-2.1
G1 X173.424Y-50.75Z-2.1
G1 X173.382Y-50.748Z-2.1
G1 X173.378Y-50.748Z-2.1
G1 X173.342Y-50.745Z-2.1
G1 X173.335Y-50.745Z-2.1
G1 X173.305Y-50.741Z-2.1
G1 X173.299Y-50.74Z-2.1
G1 X173.269Y-50.735Z-2.1
G1 X173.263Y-50.734Z-2.1
G1 X173.234Y-50.727Z-2.1
G1 X173.228Y-50.726Z-2.1
G1 X173.198Y-50.718Z-2.1
G1 X173.193Y-50.716Z-2.1
G1 X173.164Y-50.707Z-2.1
G1 X173.158Y-50.705Z-2.1
G1 X173.135Y-50.696Z-2.1
G1 X173.128Y-50.693Z-2.1
G1 X173.077Y-50.669Z-2.1
G1 X173.07Y-50.666Z-2.1
G1 X173.047Y-50.654Z-2.1
G1 X173.042Y-50.651Z-2.1
G1 X173.016Y-50.636Z-2.1
G1 X173.011Y-50.633Z-2.1
G1 X172.986Y-50.616Z-2.1
G1 X172.981Y-50.612Z-2.1
G1 X172.96Y-50.598Z-2.1
G1 X172.954Y-50.593Z-2.1
G1 X172.911Y-50.557Z-2.1
G1 X172.906Y-50.552Z-2.1
G1 X172.887Y-50.535Z-2.1
G1 X172.883Y-50.53Z-2.1
G1 X172.866Y-50.512Z-2.1
G1 X172.861Y-50.507Z-2.1
G1 X172.824Y-50.464Z-2.1
G1 X172.819Y-50.458Z-2.1
G1 X172.804Y-50.438Z-2.1
G1 X172.801Y-50.433Z-2.1
G1 X172.784Y-50.408Z-2.1
G1 X172.78Y-50.403Z-2.1
G1 X172.764Y-50.377Z-2.1
G1 X172.761Y-50.372Z-2.1
G1 X172.749Y-50.35Z-2.1
G1 X172.746Y-50.343Z-2.1
G1 X172.722Y-50.292Z-2.1
G1 X172.719Y-50.285Z-2.1
G1 X172.71Y-50.262Z-2.1
G1 X172.708Y-50.256Z-2.1
G1 X172.698Y-50.227Z-2.1
G1 X172.696Y-50.222Z-2.1
G1 X172.688Y-50.192Z-2.1
G1 X172.686Y-50.186Z-2.1
G1 X172.68Y-50.162Z-2.1
G1 X172.679Y-50.155Z-2.1
G1 X172.669Y-50.099Z-2.1
G1 X172.668Y-50.092Z-2.1
G1 X172.666Y-50.066Z-2.1
G1 X172.665Y-50.06Z-2.1
G1 X172.663Y-50.026Z-2.1
G1 X172.663Y-50.021Z-2.1
G1 X172.663Y-50.005Z-2.1
G1 X172.663Y-50Z-2.1
G1 X172.663Y-49.967Z-2.1
G1 X172.664Y-49.961Z-2.1
G1 X172.666Y-49.93Z-2.1
G1 X172.667Y-49.924Z-2.1
G1 X172.67Y-49.893Z-2.1
G1 X172.671Y-49.887Z-2.1
G1 X172.676Y-49.857Z-2.1
G1 X172.678Y-49.851Z-2.1
G1 X172.684Y-49.821Z-2.1
G1 X172.686Y-49.815Z-2.1
G1 X172.694Y-49.786Z-2.1
G1 X172.696Y-49.78Z-2.1
G1 X172.704Y-49.756Z-2.1
G1 X172.706Y-49.749Z-2.1
G1 X172.727Y-49.696Z-2.1
G1 X172.73Y-49.689Z-2.1
G1 X172.741Y-49.666Z-2.1
G1 X172.744Y-49.661Z-2.1
G1 X172.758Y-49.634Z-2.1
G1 X172.761Y-49.628Z-2.1
G1 X172.777Y-49.602Z-2.1
G1 X172.78Y-49.597Z-2.1
G1 X172.798Y-49.571Z-2.1
G1 X172.801Y-49.566Z-2.1
G1 X172.819Y-49.542Z-2.1
G1 X172.823Y-49.537Z-2.1
G1 X172.839Y-49.517Z-2.1
G1 X172.844Y-49.512Z-2.1
G1 X172.883Y-49.47Z-2.1
G1 X172.888Y-49.465Z-2.1
G1 X172.906Y-49.447Z-2.1
G1 X172.911Y-49.443Z-2.1
G1 X172.934Y-49.423Z-2.1
G1 X172.939Y-49.419Z-2.1
G1 X172.963Y-49.401Z-2.1
G1 X172.968Y-49.397Z-2.1
G1 X172.993Y-49.379Z-2.1
G1 X172.998Y-49.376Z-2.1
G1 X173.024Y-49.359Z-2.1
G1 X173.029Y-49.356Z-2.1
G1 X173.056Y-49.341Z-2.1
G1 X173.061Y-49.338Z-2.1
G1 X173.088Y-49.325Z-2.1
G1 X173.094Y-49.322Z-2.1
G1 X173.117Y-49.312Z-2.1
G1 X173.124Y-49.309Z-2.1
G1 X173.177Y-49.289Z-2.1
G1 X173.184Y-49.287Z-2.1
G1 X173.209Y-49.279Z-2.1
G1 X173.215Y-49.278Z-2.1
G1 X173.244Y-49.27Z-2.1
G1 X173.25Y-49.269Z-2.1
G1 X173.28Y-49.263Z-2.1
G1 X173.286Y-49.262Z-2.1
G1 X173.317Y-49.257Z-2.1
G1 X173.323Y-49.257Z-2.1
G1 X173.352Y-49.254Z-2.1
G1 X173.358Y-49.253Z-2.1
G1 X173.427Y-49.25Z-2.1
G1 X173.432Y-49.25Z-2.1
G1 X185.405Y-49.25Z-2.1
G1 X185.424Y-49.25Z-2.1
G1 X185.429Y-49.25Z-2.1
G1 X185.567Y-49.233Z-2.1
G1 X185.7Y-49.192Z-2.1
G1 X185.823Y-49.126Z-2.1
G1 X185.932Y-49.039Z-2.1
G1 X186.022Y-48.934Z-2.1
G1 X186.026Y-48.929Z-2.1
G1 X186.065Y-48.867Z-2.1
G1 X188.422Y-44.742Z-2.1
G1 X188.432Y-44.725Z-2.1
G1 X188.434Y-44.72Z-2.1
G1 X188.49Y-44.588Z-2.1
G1 X188.519Y-44.447Z-2.1
G1 X188.521Y-44.303Z-2.1
G1 X188.495Y-44.162Z-2.1
G1 X188.443Y-44.028Z-2.1
G1 X188.366Y-43.906Z-2.1
G1 X188.268Y-43.802Z-2.1
G1 X188.263Y-43.798Z-2.1
G1 X188.157Y-43.72Z-2.1
G1 X188.039Y-43.648Z-2.1
G1 X188.033Y-43.645Z-2.1
G1 X187.932Y-43.576Z-2.1
G1 X187.926Y-43.572Z-2.1
G1 X187.828Y-43.498Z-2.1
G1 X187.823Y-43.494Z-2.1
G1 X187.729Y-43.416Z-2.1
G1 X187.724Y-43.411Z-2.1
G1 X187.634Y-43.328Z-2.1
G1 X187.63Y-43.323Z-2.1
G1 X187.544Y-43.235Z-2.1
G1 X187.54Y-43.231Z-2.1
G1 X187.459Y-43.139Z-2.1
G1 X187.455Y-43.134Z-2.1
G1 X187.378Y-43.038Z-2.1
G1 X187.374Y-43.033Z-2.1
G1 X187.303Y-42.933Z-2.1
G1 X187.299Y-42.927Z-2.1
G1 X187.233Y-42.824Z-2.1
G1 X187.23Y-42.819Z-2.1
G1 X187.169Y-42.712Z-2.1
G1 X187.166Y-42.707Z-2.1
G1 X187.11Y-42.597Z-2.1
G1 X187.107Y-42.591Z-2.1
G1 X187.058Y-42.479Z-2.1
G1 X187.055Y-42.473Z-2.1
G1 X187.011Y-42.359Z-2.1
G1 X187.009Y-42.353Z-2.1
G1 X186.971Y-42.236Z-2.1
G1 X186.969Y-42.23Z-2.1
G1 X186.937Y-42.111Z-2.1
G1 X186.935Y-42.105Z-2.1
G1 X186.909Y-41.985Z-2.1
G1 X186.908Y-41.979Z-2.1
G1 X186.887Y-41.858Z-2.1
G1 X186.887Y-41.852Z-2.1
G1 X186.873Y-41.729Z-2.1
G1 X186.872Y-41.723Z-2.1
G1 X186.864Y-41.601Z-2.1
G1 X186.864Y-41.594Z-2.1
G1 X186.862Y-41.471Z-2.1
G1 X186.862Y-41.465Z-2.1
G1 X186.867Y-41.342Z-2.1
G1 X186.867Y-41.336Z-2.1
G1 X186.878Y-41.214Z-2.1
G1 X186.879Y-41.208Z-2.1
G1 X186.896Y-41.086Z-2.1
G1 X186.897Y-41.08Z-2.1
G1 X186.92Y-40.959Z-2.1
G1 X186.922Y-40.953Z-2.1
G1 X186.951Y-40.833Z-2.1
G1 X186.953Y-40.827Z-2.1
G1 X186.988Y-40.71Z-2.1
G1 X186.99Y-40.704Z-2.1
G1 X187.031Y-40.588Z-2.1
G1 X187.033Y-40.582Z-2.1
G1 X187.08Y-40.468Z-2.1
G1 X187.083Y-40.463Z-2.1
G1 X187.135Y-40.352Z-2.1
G1 X187.138Y-40.346Z-2.1
G1 X187.196Y-40.238Z-2.1
G1 X187.2Y-40.232Z-2.1
G1 X187.263Y-40.127Z-2.1
G1 X187.267Y-40.122Z-2.1
G1 X187.336Y-40.02Z-2.1
G1 X187.339Y-40.015Z-2.1
G1 X187.413Y-39.917Z-2.1
G1 X187.417Y-39.912Z-2.1
G1 X187.496Y-39.818Z-2.1
G1 X187.5Y-39.813Z-2.1
G1 X187.583Y-39.723Z-2.1
G1 X187.588Y-39.719Z-2.1
G1 X187.676Y-39.633Z-2.1
G1 X187.68Y-39.628Z-2.1
G1 X187.773Y-39.547Z-2.1
G1 X187.778Y-39.543Z-2.1
G1 X187.874Y-39.467Z-2.1
G1 X187.879Y-39.463Z-2.1
G1 X187.979Y-39.391Z-2.1
G1 X187.984Y-39.388Z-2.1
G1 X188.087Y-39.322Z-2.1
G1 X188.093Y-39.318Z-2.1
G1 X188.199Y-39.257Z-2.1
G1 X188.205Y-39.254Z-2.1
G1 X188.315Y-39.199Z-2.1
G1 X188.32Y-39.196Z-2.1
G1 X188.432Y-39.146Z-2.1
G1 X188.438Y-39.144Z-2.1
G1 X188.553Y-39.1Z-2.1
G1 X188.559Y-39.097Z-2.1
G1 X188.676Y-39.059Z-2.1
G1 X188.682Y-39.057Z-2.1
G1 X188.8Y-39.025Z-2.1
G1 X188.806Y-39.023Z-2.1
G1 X188.926Y-38.997Z-2.1
G1 X188.932Y-38.996Z-2.1
G1 X189.054Y-38.976Z-2.1
G1 X189.06Y-38.975Z-2.1
G1 X189.182Y-38.961Z-2.1
G1 X189.188Y-38.96Z-2.1
G1 X189.311Y-38.953Z-2.1
G1 X189.317Y-38.952Z-2.1
G1 X189.44Y-38.951Z-2.1
G1 X189.446Y-38.951Z-2.1
G1 X189.569Y-38.955Z-2.1
G1 X189.575Y-38.956Z-2.1
G1 X189.698Y-38.967Z-2.1
G1 X189.704Y-38.967Z-2.1
G1 X189.826Y-38.984Z-2.1
G1 X189.832Y-38.985Z-2.1
G1 X189.952Y-39.009Z-2.1
G1 X189.959Y-39.01Z-2.1
G1 X190.078Y-39.039Z-2.1
G1 X190.084Y-39.041Z-2.1
G1 X190.202Y-39.076Z-2.1
G1 X190.208Y-39.078Z-2.1
G1 X190.323Y-39.119Z-2.1
G1 X190.329Y-39.121Z-2.1
G1 X190.443Y-39.168Z-2.1
G1 X190.449Y-39.171Z-2.1
G1 X190.56Y-39.224Z-2.1
G1 X190.565Y-39.227Z-2.1
G1 X190.688Y-39.292Z-2.1
G1 X190.893Y-39.367Z-2.1
G1 X190.898Y-39.368Z-2.1
G1 X191.042Y-39.383Z-2.1
G1 X191.187Y-39.37Z-2.1
G1 X191.327Y-39.329Z-2.1
G1 X191.456Y-39.263Z-2.1
G1 X191.57Y-39.172Z-2.1
G1 X191.664Y-39.061Z-2.1
G1 X191.735Y-38.935Z-2.1
G1 X191.78Y-38.796Z-2.1
G1 X191.798Y-38.652Z-2.1
G1 X191.798Y-38.648Z-2.1
G1 X191.798Y-38.629Z-2.1
G1 X191.798Y-34.521Z-2.1
G1 X191.799Y-34.515Z-2.1
G1 X191.802Y-34.447Z-2.1
G1 X191.802Y-34.44Z-2.1
G1 X191.805Y-34.411Z-2.1
G1 X191.806Y-34.405Z-2.1
G1 X191.809Y-34.38Z-2.1
G1 X191.811Y-34.373Z-2.1
G1 X191.821Y-34.323Z-2.1
G1 X191.824Y-34.314Z-2.1
G1 X191.838Y-34.265Z-2.1
G1 X191.84Y-34.257Z-2.1
G1 X191.849Y-34.233Z-2.1
G1 X191.851Y-34.228Z-2.1
G1 X191.861Y-34.204Z-2.1
G1 X191.864Y-34.197Z-2.1
G1 X191.886Y-34.151Z-2.1
G1 X191.891Y-34.143Z-2.1
G1 X191.914Y-34.104Z-2.1
G1 X191.919Y-34.096Z-2.1
G1 X191.945Y-34.058Z-2.1
G1 X191.95Y-34.051Z-2.1
G1 X191.979Y-34.015Z-2.1
G1 X191.985Y-34.008Z-2.1
G1 X192.02Y-33.97Z-2.1
G1 X192.025Y-33.965Z-2.1
G1 X192.043Y-33.947Z-2.1
G1 X192.048Y-33.943Z-2.1
G1 X192.067Y-33.927Z-2.1
G1 X192.073Y-33.922Z-2.1
G1 X192.114Y-33.891Z-2.1
G1 X192.121Y-33.886Z-2.1
G1 X192.16Y-33.86Z-2.1
G1 X192.168Y-33.856Z-2.1
G1 X192.213Y-33.831Z-2.1
G1 X192.219Y-33.828Z-2.1
G1 X192.242Y-33.817Z-2.1
G1 X192.248Y-33.814Z-2.1
G1 X192.276Y-33.803Z-2.1
G1 X192.282Y-33.8Z-2.1
G1 X192.311Y-33.79Z-2.1
G1 X192.316Y-33.788Z-2.1
G1 X192.341Y-33.781Z-2.1
G1 X192.348Y-33.779Z-2.1
G1 X192.398Y-33.767Z-2.1
G1 X192.407Y-33.765Z-2.1
G1 X192.452Y-33.758Z-2.1
G1 X192.461Y-33.757Z-2.1
G1 X192.512Y-33.752Z-2.1
G1 X192.52Y-33.752Z-2.1
G1 X192.556Y-33.751Z-2.1
G1 X192.559Y-33.751Z-2.1
G1 X193.298Y-33.751Z-2.1
G1 X193.298Y-66.249Z-2.1
G1 X192.539Y-66.249Z-2.1
G1 X192.531Y-66.248Z-2.1
G1 X192.474Y-66.245Z-2.1
G1 X192.467Y-66.244Z-2.1
G1 X192.442Y-66.241Z-2.1
G1 X192.436Y-66.24Z-2.1
G1 X192.411Y-66.236Z-2.1
G1 X192.403Y-66.234Z-2.1
G1 X192.348Y-66.221Z-2.1
G1 X192.341Y-66.219Z-2.1
G1 X192.316Y-66.212Z-2.1
G1 X192.311Y-66.21Z-2.1
G1 X192.282Y-66.2Z-2.1
G1 X192.276Y-66.197Z-2.1
G1 X192.253Y-66.188Z-2.1
G1 X192.246Y-66.185Z-2.1
G1 X192.195Y-66.16Z-2.1
G1 X192.188Y-66.156Z-2.1
G1 X192.166Y-66.144Z-2.1
G1 X192.161Y-66.141Z-2.1
G1 X192.135Y-66.124Z-2.1
G1 X192.13Y-66.121Z-2.1
G1 X192.105Y-66.103Z-2.1
G1 X192.1Y-66.1Z-2.1
G1 X192.076Y-66.081Z-2.1
G1 X192.071Y-66.077Z-2.1
G1 X192.048Y-66.057Z-2.1
G1 X192.043Y-66.053Z-2.1
G1 X192.021Y-66.031Z-2.1
G1 X192.017Y-66.027Z-2.1
G1 X191.996Y-66.005Z-2.1
G1 X191.992Y-66.001Z-2.1
G1 X191.972Y-65.977Z-2.1
G1 X191.968Y-65.973Z-2.1
G1 X191.949Y-65.948Z-2.1
G1 X191.945Y-65.944Z-2.1
G1 X191.928Y-65.918Z-2.1
G1 X191.924Y-65.913Z-2.1
G1 X191.908Y-65.888Z-2.1
G1 X191.905Y-65.882Z-2.1
G1 X191.89Y-65.856Z-2.1
G1 X191.887Y-65.85Z-2.1
G1 X191.875Y-65.828Z-2.1
G1 X191.872Y-65.821Z-2.1
G1 X191.85Y-65.769Z-2.1
G0 Z10
G0 X191.85Y-65.769
G0 Z0
G1 F200 X191.85Y-65.769Z-3
G1 F600 X191.85Y-65.769Z-3
G1 X191.832Y-65.716Z-3
G1 X191.83Y-65.709Z-3
G1 X191.824Y-65.69Z-3
G1 X191.823Y-65.683Z-3
G1 X191.811Y-65.627Z-3
G1 X191.809Y-65.62Z-3
G1 X191.806Y-65.595Z-3
G1 X191.805Y-65.588Z-3
G1 X191.802Y-65.56Z-3
G1 X191.802Y-65.553Z-3
G1 X191.799Y-65.485Z-3
G1 X191.798Y-65.479Z-3
G1 X191.798Y-61.371Z-3
G1 X191.798Y-61.352Z-3
G1 X191.798Y-61.348Z-3
G1 X191.78Y-61.204Z-3
G1 X191.735Y-61.066Z-3
G1 X191.664Y-60.939Z-3
G1 X191.57Y-60.828Z-3
G1 X191.456Y-60.738Z-3
G1 X191.327Y-60.671Z-3
G1 X191.188Y-60.63Z-3
G1 X191.043Y-60.617Z-3
G1 X190.899Y-60.632Z-3
G1 X190.893Y-60.633Z-3
G1 X190.687Y-60.708Z-3
G1 X190.567Y-60.773Z-3
G1 X190.561Y-60.775Z-3
G1 X190.452Y-60.827Z-3
G1 X190.447Y-60.83Z-3
G1 X190.335Y-60.876Z-3
G1 X190.329Y-60.879Z-3
G1 X190.215Y-60.919Z-3
G1 X190.21Y-60.921Z-3
G1 X190.094Y-60.957Z-3
G1 X190.088Y-60.958Z-3
G1 X189.97Y-60.988Z-3
G1 X189.964Y-60.989Z-3
G1 X189.846Y-61.012Z-3
G1 X189.84Y-61.013Z-3
G1 X189.72Y-61.031Z-3
G1 X189.714Y-61.032Z-3
G1 X189.594Y-61.043Z-3
G1 X189.587Y-61.044Z-3
G1 X189.466Y-61.049Z-3
G1 X189.46Y-61.049Z-3
G1 X189.339Y-61.049Z-3
G1 X189.333Y-61.049Z-3
G1 X189.212Y-61.042Z-3
G1 X189.206Y-61.041Z-3
G1 X189.086Y-61.029Z-3
G1 X189.08Y-61.028Z-3
G1 X188.96Y-61.01Z-3
G1 X188.954Y-61.008Z-3
G1 X188.836Y-60.984Z-3
G1 X188.83Y-60.983Z-3
G1 X188.713Y-60.952Z-3
G1 X188.707Y-60.95Z-3
G1 X188.591Y-60.914Z-3
G1 X188.586Y-60.912Z-3
G1 X188.472Y-60.87Z-3
G1 X188.466Y-60.868Z-3
G1 X188.355Y-60.821Z-3
G1 X188.349Y-60.818Z-3
G1 X188.241Y-60.765Z-3
G1 X188.235Y-60.762Z-3
G1 X188.129Y-60.704Z-3
G1 X188.124Y-60.701Z-3
G1 X188.021Y-60.637Z-3
G1 X188.016Y-60.634Z-3
G1 X187.916Y-60.565Z-3
G1 X187.911Y-60.562Z-3
G1 X187.815Y-60.488Z-3
G1 X187.81Y-60.484Z-3
G1 X187.718Y-60.406Z-3
G1 X187.713Y-60.402Z-3
G1 X187.625Y-60.319Z-3
G1 X187.621Y-60.315Z-3
G1 X187.536Y-60.228Z-3
G1 X187.532Y-60.224Z-3
G1 X187.453Y-60.133Z-3
G1 X187.449Y-60.128Z-3
G1 X187.374Y-60.033Z-3
G1 X187.37Y-60.028Z-3
G1 X187.3Y-59.93Z-3
G1 X187.296Y-59.924Z-3
G1 X187.231Y-59.822Z-3
G1 X187.228Y-59.817Z-3
G1 X187.168Y-59.712Z-3
G1 X187.165Y-59.707Z-3
G1 X187.11Y-59.599Z-3
G1 X187.108Y-59.593Z-3
G1 X187.058Y-59.483Z-3
G1 X187.056Y-59.477Z-3
G1 X187.012Y-59.364Z-3
G1 X187.01Y-59.359Z-3
G1 X186.972Y-59.244Z-3
G1 X186.971Y-59.238Z-3
G1 X186.938Y-59.121Z-3
G1 X186.937Y-59.115Z-3
G1 X186.91Y-58.997Z-3
G1 X186.909Y-58.991Z-3
G1 X186.889Y-58.872Z-3
G1 X186.888Y-58.866Z-3
G1 X186.873Y-58.746Z-3
G1 X186.873Y-58.74Z-3
G1 X186.864Y-58.619Z-3
G1 X186.864Y-58.613Z-3
G1 X186.861Y-58.492Z-3
G1 X186.861Y-58.486Z-3
G1 X186.865Y-58.365Z-3
G1 X186.865Y-58.358Z-3
G1 X186.875Y-58.238Z-3
G1 X186.876Y-58.231Z-3
G1 X186.891Y-58.112Z-3
G1 X186.892Y-58.106Z-3
G1 X186.914Y-57.987Z-3
G1 X186.915Y-57.98Z-3
G1 X186.942Y-57.863Z-3
G1 X186.944Y-57.857Z-3
G1 X186.977Y-57.741Z-3
G1 X186.979Y-57.735Z-3
G1 X187.018Y-57.62Z-3
G1 X187.02Y-57.614Z-3
G1 X187.065Y-57.502Z-3
G1 X187.067Y-57.496Z-3
G1 X187.117Y-57.386Z-3
G1 X187.12Y-57.381Z-3
G1 X187.176Y-57.273Z-3
G1 X187.179Y-57.268Z-3
G1 X187.24Y-57.164Z-3
G1 X187.243Y-57.158Z-3
G1 X187.309Y-57.057Z-3
G1 X187.313Y-57.052Z-3
G1 X187.384Y-56.954Z-3
G1 X187.388Y-56.949Z-3
G1 X187.463Y-56.855Z-3
G1 X187.467Y-56.85Z-3
G1 X187.548Y-56.76Z-3
G1 X187.552Y-56.755Z-3
G1 X187.637Y-56.669Z-3
G1 X187.641Y-56.665Z-3
G1 X187.73Y-56.583Z-3
G1 X187.735Y-56.579Z-3
G1 X187.828Y-56.501Z-3
G1 X187.833Y-56.498Z-3
G1 X187.929Y-56.425Z-3
G1 X187.934Y-56.421Z-3
G1 X188.035Y-56.354Z-3
G1 X188.04Y-56.35Z-3
G1 X188.157Y-56.28Z-3
G1 X188.173Y-56.27Z-3
G1 X188.177Y-56.267Z-3
G1 X188.29Y-56.178Z-3
G1 X188.384Y-56.069Z-3
G1 X188.456Y-55.945Z-3
G1 X188.503Y-55.808Z-3
G1 X188.522Y-55.666Z-3
G1 X188.514Y-55.522Z-3
G1 X188.479Y-55.382Z-3
G1 X188.477Y-55.377Z-3
G1 X188.422Y-55.257Z-3
G1 X186.066Y-51.133Z-3
G1 X186.057Y-51.117Z-3
G1 X186.054Y-51.113Z-3
G1 X185.971Y-51.001Z-3
G1 X185.869Y-50.906Z-3
G1 X185.751Y-50.832Z-3
G1 X185.621Y-50.78Z-3
G1 X185.484Y-50.754Z-3
G1 X185.478Y-50.753Z-3
G1 X185.405Y-50.75Z-3
G1 X173.429Y-50.75Z-3
G1 X173.424Y-50.75Z-3
G1 X173.382Y-50.748Z-3
G1 X173.378Y-50.748Z-3
G1 X173.342Y-50.745Z-3
G1 X173.335Y-50.745Z-3
G1 X173.305Y-50.741Z-3
G1 X173.299Y-50.74Z-3
G1 X173.269Y-50.735Z-3
G1 X173.263Y-50.734Z-3
G1 X173.234Y-50.727Z-3
G1 X173.228Y-50.726Z-3
G1 X173.198Y-50.718Z-3
G1 X173.193Y-50.716Z-3
G1 X173.164Y-50.707Z-3
G1 X173.158Y-50.705Z-3
G1 X173.135Y-50.696Z-3
G1 X173.128Y-50.693Z-3
G1 X173.077Y-50.669Z-3
G1 X173.07Y-50.666Z-3
G1 X173.047Y-50.654Z-3
G1 X173.042Y-50.651Z-3
G1 X173.016Y-50.636Z-3
G1 X173.011Y-50.633Z-3
G1 X172.986Y-50.616Z-3
G1 X172.981Y-50.612Z-3
G1 X172.96Y-50.598Z-3
G1 X172.954Y-50.593Z-3
G1 X172.911Y-50.557Z-3
G1 X172.906Y-50.552Z-3
G1 X172.887Y-50.535Z-3
G1 X172.883Y-50.53Z-3
G1 X172.866Y-50.512Z-3
G1 X172.861Y-50.507Z-3
G1 X172.824Y-50.464Z-3
G1 X172.819Y-50.458Z-3
G1 X172.804Y-50.438Z-3
G1 X172.801Y-50.433Z-3
G1 X172.784Y-50.408Z-3
G1 X172.78Y-50.403Z-3
G1 X172.764Y-50.377Z-3
G1 X172.761Y-50.372Z-3
G1 X172.749Y-50.35Z-3
G1 X172.746Y-50.343Z-3
G1 X172.722Y-50.292Z-3
G1 X172.719Y-50.285Z-3
G1 X172.71Y-50.262Z-3
G1 X172.708Y-50.256Z-3
G1 X172.698Y-50.227Z-3
G1 X172.696Y-50.222Z-3
G1 X172.688Y-50.192Z-3
G1 X172.686Y-50.186Z-3
G1 X172.68Y-50.162Z-3
G1 X172.679Y-50.155Z-3
G1 X172.669Y-50.099Z-3
G1 X172.668Y-50.092Z-3
G1 X172.666Y-50.066Z-3
G1 X172.665Y-50.06Z-3
G1 X172.663Y-50.026Z-3
G1 X172.663Y-50.021Z-3
G1 X172.663Y-50.005Z-3
G1 X172.663Y-50Z-3
G1 X172.663Y-49.967Z-3
G1 X172.664Y-49.961Z-3
G1 X172.666Y-49.93Z-3
G1 X172.667Y-49.924Z-3
G1 X172.67Y-49.893Z-3
G1 X172.671Y-49.887Z-3
G1 X172.676Y-49.857Z-3
G1 X172.678Y-49.851Z-3
G1 X172.684Y-49.821Z-3
G1 X172.686Y-49.815Z-3
G1 X172.694Y-49.786Z-3
G1 X172.696Y-49.78Z-3
G1 X172.704Y-49.756Z-3
G1 X172.706Y-49.749Z-3
G1 X172.727Y-49.696Z-3
G1 X172.73Y-49.689Z-3
G1 X172.741Y-49.666Z-3
G1 X172.744Y-49.661Z-3
G1 X172.758Y-49.634Z-3
G1 X172.761Y-49.628Z-3
G1 X172.777Y-49.602Z-3
G1 X172.78Y-49.597Z-3
G1 X172.798Y-49.571Z-3
G1 X172.801Y-49.566Z-3
G1 X172.819Y-49.542Z-3
G1 X172.823Y-49.537Z-3
G1 X172.839Y-49.517Z-3
G1 X172.844Y-49.512Z-3
G1 X172.883Y-49.47Z-3
G1 X172.888Y-49.465Z-3
G1 X172.906Y-49.447Z-3
G1 X172.911Y-49.443Z-3
G1 X172.934Y-49.423Z-3
G1 X172.939Y-49.419Z-3
G1 X172.963Y-49.401Z-3
G1 X172.968Y-49.397Z-3
G1 X172.993Y-49.379Z-3
G1 X172.998Y-49.376Z-3
G1 X173.024Y-49.359Z-3
G1 X173.029Y-49.356Z-3
G1 X173.056Y-49.341Z-3
G1 X173.061Y-49.338Z-3
G1 X173.088Y-49.325Z-3
G1 X173.094Y-49.322Z-3
G1 X173.117Y-49.312Z-3
G1 X173.124Y-49.309Z-3
G1 X173.177Y-49.289Z-3
G1 X173.184Y-49.287Z-3
G1 X173.209Y-49.279Z-3
G1 X173.215Y-49.278Z-3
G1 X173.244Y-49.27Z-3
G1 X173.25Y-49.269Z-3
G1 X173.28Y-49.263Z-3
G1 X173.286Y-49.262Z-3
G1 X173.317Y-49.257Z-3
G1 X173.323Y-49.257Z-3
G1 X173.352Y-49.254Z-3
G1 X173.358Y-49.253Z-3
G1 X173.427Y-49.25Z-3
G1 X173.432Y-49.25Z-3
G1 X185.405Y-49.25Z-3
G1 X185.424Y-49.25Z-3
G1 X185.429Y-49.25Z-3
G1 X185.567Y-49.233Z-3
G1 X185.7Y-49.192Z-3
G1 X185.823Y-49.126Z-3
G1 X185.932Y-49.039Z-3
G1 X186.022Y-48.934Z-3
G1 X186.026Y-48.929Z-3
G1 X186.065Y-48.867Z-3
G1 X188.422Y-44.742Z-3
G1 X188.432Y-44.725Z-3
G1 X188.434Y-44.72Z-3
G1 X188.49Y-44.588Z-3
G1 X188.519Y-44.447Z-3
G1 X188.521Y-44.303Z-3
G1 X188.495Y-44.162Z-3
G1 X188.443Y-44.028Z-3
G1 X188.366Y-43.906Z-3
G1 X188.268Y-43.802Z-3
G1 X188.263Y-43.798Z-3
G1 X188.157Y-43.72Z-3
G1 X188.039Y-43.648Z-3
G1 X188.033Y-43.645Z-3
G1 X187.932Y-43.576Z-3
G1 X187.926Y-43.572Z-3
G1 X187.828Y-43.498Z-3
G1 X187.823Y-43.494Z-3
G1 X187.729Y-43.416Z-3
G1 X187.724Y-43.411Z-3
G1 X187.634Y-43.328Z-3
G1 X187.63Y-43.323Z-3
G1 X187.544Y-43.235Z-3
G1 X187.54Y-43.231Z-3
G1 X187.459Y-43.139Z-3
G1 X187.455Y-43.134Z-3
G1 X187.378Y-43.038Z-3
G1 X187.374Y-43.033Z-3
G1 X187.303Y-42.933Z-3
G1 X187.299Y-42.927Z-3
G1 X187.233Y-42.824Z-3
G1 X187.23Y-42.819Z-3
G1 X187.169Y-42.712Z-3
G1 X187.166Y-42.707Z-3
G1 X187.11Y-42.597Z-3
G1 X187.107Y-42.591Z-3
G1 X187.058Y-42.479Z-3
G1 X187.055Y-42.473Z-3
G1 X187.011Y-42.359Z-3
G1 X187.009Y-42.353Z-3
G1 X186.971Y-42.236Z-3
G1 X186.969Y-42.23Z-3
G1 X186.937Y-42.111Z-3
G1 X186.935Y-42.105Z-3
G1 X186.909Y-41.985Z-3
G1 X186.908Y-41.979Z-3
G1 X186.887Y-41.858Z-3
G1 X186.887Y-41.852Z-3
G1 X186.873Y-41.729Z-3
G1 X186.872Y-41.723Z-3
G1 X186.864Y-41.601Z-3
G1 X186.864Y-41.594Z-3
G1 X186.862Y-41.471Z-3
G1 X186.862Y-41.465Z-3
G1 X186.867Y-41.342Z-3
G1 X186.867Y-41.336Z-3
G1 X186.878Y-41.214Z-3
G1 X186.879Y-41.208Z-3
G1 X186.896Y-41.086Z-3
G1 X186.897Y-41.08Z-3
G1 X186.92Y-40.959Z-3
G1 X186.922Y-40.953Z-3
G1 X186.951Y-40.833Z-3
G1 X186.953Y-40.827Z-3
G1 X186.988Y-40.71Z-3
G1 X186.99Y-40.704Z-3
G1 X187.031Y-40.588Z-3
G1 X187.033Y-40.582Z-3
G1 X187.08Y-40.468Z-3
G1 X187.083Y-40.463Z-3
G1 X187.135Y-40.352Z-3
G1 X187.138Y-40.346Z-3
G1 X187.196Y-40.238Z-3
G1 X187.2Y-40.232Z-3
G1 X187.263Y-40.127Z-3
G1 X187.267Y-40.122Z-3
G1 X187.336Y-40.02Z-3
G1 X187.339Y-40.015Z-3
G1 X187.413Y-39.917Z-3
G1 X187.417Y-39.912Z-3
G1 X187.496Y-39.818Z-3
G1 X187.5Y-39.813Z-3
G1 X187.583Y-39.723Z-3
G1 X187.588Y-39.719Z-3
G1 X187.676Y-39.633Z-3
G1 X187.68Y-39.628Z-3
G1 X187.773Y-39.547Z-3
G1 X187.778Y-39.543Z-3
G1 X187.874Y-39.467Z-3
G1 X187.879Y-39.463Z-3
G1 X187.979Y-39.391Z-3
G1 X187.984Y-39.388Z-3
G1 X188.087Y-39.322Z-3
G1 X188.093Y-39.318Z-3
G1 X188.199Y-39.257Z-3
G1 X188.205Y-39.254Z-3
G1 X188.315Y-39.199Z-3
G1 X188.32Y-39.196Z-3
G1 X188.432Y-39.146Z-3
G1 X188.438Y-39.144Z-3
G1 X188.553Y-39.1Z-3
G1 X188.559Y-39.097Z-3
G1 X188.676Y-39.059Z-3
G1 X188.682Y-39.057Z-3
G1 X188.8Y-39.025Z-3
G1 X188.806Y-39.023Z-3
G1 X188.926Y-38.997Z-3
G1 X188.932Y-38.996Z-3
G1 X189.054Y-38.976Z-3
G1 X189.06Y-38.975Z-3
G1 X189.182Y-38.961Z-3
G1 X189.188Y-38.96Z-3
G1 X189.311Y-38.953Z-3
G1 X189.317Y-38.952Z-3
G1 X189.44Y-38.951Z-3
G1 X189.446Y-38.951Z-3
G1 X189.569Y-38.955Z-3
G1 X189.575Y-38.956Z-3
G1 X189.698Y-38.967Z-3
G1 X189.704Y-38.967Z-3
G1 X189.826Y-38.984Z-3
G1 X189.832Y-38.985Z-3
G1 X189.952Y-39.009Z-3
G1 X189.959Y-39.01Z-3
G1 X190.078Y-39.039Z-3
G1 X190.084Y-39.041Z-3
G1 X190.202Y-39.076Z-3
G1 X190.208Y-39.078Z-3
G1 X190.323Y-39.119Z-3
G1 X190.329Y-39.121Z-3
G1 X190.443Y-39.168Z-3
G1 X190.449Y-39.171Z-3
G1 X190.56Y-39.224Z-3
G1 X190.565Y-39.227Z-3
G1 X190.688Y-39.292Z-3
G1 X190.893Y-39.367Z-3
G1 X190.898Y-39.368Z-3
G1 X191.042Y-39.383Z-3
G1 X191.187Y-39.37Z-3
G1 X191.327Y-39.329Z-3
G1 X191.456Y-39.263Z-3
G1 X191.57Y-39.172Z-3
G1 X191.664Y-39.061Z-3
G1 X191.735Y-38.935Z-3
G1 X191.78Y-38.796Z-3
G1 X191.798Y-38.652Z-3
G1 X191.798Y-38.648Z-3
G1 X191.798Y-38.629Z-3
G1 X191.798Y-34.521Z-3
G1 X191.799Y-34.515Z-3
G1 X191.802Y-34.447Z-3
G1 X191.802Y-34.44Z-3
G1 X191.805Y-34.411Z-3
G1 X191.806Y-34.405Z-3
G1 X191.809Y-34.38Z-3
G1 X191.811Y-34.373Z-3
G1 X191.821Y-34.323Z-3
G1 X191.824Y-34.314Z-3
G1 X191.838Y-34.265Z-3
G1 X191.84Y-34.257Z-3
G1 X191.849Y-34.233Z-3
G1 X191.851Y-34.228Z-3
G1 X191.861Y-34.204Z-3
G1 X191.864Y-34.197Z-3
G1 X191.886Y-34.151Z-3
G1 X191.891Y-34.143Z-3
G1 X191.914Y-34.104Z-3
G1 X191.919Y-34.096Z-3
G1 X191.945Y-34.058Z-3
G1 X191.95Y-34.051Z-3
G1 X191.979Y-34.015Z-3
G1 X191.985Y-34.008Z-3
G1 X192.02Y-33.97Z-3
G1 X192.025Y-33.965Z-3
G1 X192.043Y-33.947Z-3
G1 X192.048Y-33.943Z-3
G1 X192.067Y-33.927Z-3
G1 X192.073Y-33.922Z-3
G1 X192.114Y-33.891Z-3
G1 X192.121Y-33.886Z-3
G1 X192.16Y-33.86Z-3
G1 X192.168Y-33.856Z-3
G1 X192.213Y-33.831Z-3
G1 X192.219Y-33.828Z-3
G1 X192.242Y-33.817Z-3
G1 X192.248Y-33.814Z-3
G1 X192.276Y-33.803Z-3
G1 X192.282Y-33.8Z-3
G1 X192.311Y-33.79Z-3
G1 X192.316Y-33.788Z-3
G1 X192.341Y-33.781Z-3
G1 X192.348Y-33.779Z-3
G1 X192.398Y-33.767Z-3
G1 X192.407Y-33.765Z-3
G1 X192.452Y-33.758Z-3
G1 X192.461Y-33.757Z-3
G1 X192.512Y-33.752Z-3
G1 X192.52Y-33.752Z-3
G1 X192.556Y-33.751Z-3
G1 X192.559Y-33.751Z-3
G1 X193.298Y-33.751Z-3
G1 X193.298Y-66.249Z-3
G1 X192.539Y-66.249Z-3
G1 X192.531Y-66.248Z-3
G1 X192.474Y-66.245Z-3
G1 X192.467Y-66.244Z-3
G1 X192.442Y-66.241Z-3
G1 X192.436Y-66.24Z-3
G1 X192.411Y-66.236Z-3
G1 X192.403Y-66.234Z-3
G1 X192.348Y-66.221Z-3
G1 X192.341Y-66.219Z-3
G1 X192.316Y-66.212Z-3
G1 X192.311Y-66.21Z-3
G1 X192.282Y-66.2Z-3
G1 X192.276Y-66.197Z-3
G1 X192.253Y-66.188Z-3
G1 X192.246Y-66.185Z-3
G1 X192.195Y-66.16Z-3
G1 X192.188Y-66.156Z-3
G1 X192.166Y-66.144Z-3
G1 X192.161Y-66.141Z-3
G1 X192.135Y-66.124Z-3
G1 X192.13Y-66.121Z-3
G1 X192.105Y-66.103Z-3
G1 X192.1Y-66.1Z-3
G1 X192.076Y-66.081Z-3
G1 X192.071Y-66.077Z-3
G1 X192.048Y-66.057Z-3
G1 X192.043Y-66.053Z-3
G1 X192.021Y-66.031Z-3
G1 X192.017Y-66.027Z-3
G1 X191.996Y-66.005Z-3
G1 X191.992Y-66.001Z-3
G1 X191.972Y-65.977Z-3
G1 X191.968Y-65.973Z-3
G1 X191.949Y-65.948Z-3
G1 X191.945Y-65.944Z-3
G1 X191.928Y-65.918Z-3
G1 X191.924Y-65.913Z-3
G1 X191.908Y-65.888Z-3
G1 X191.905Y-65.882Z-3
G1 X191.89Y-65.856Z-3
G1 X191.887Y-65.85Z-3
G1 X191.875Y-65.828Z-3
G1 X191.872Y-65.821Z-3
G1 X191.85Y-65.769Z-3
G0 Z10
; Path - Mill - Inside path (3/15)
M3 S10500
G0 Z10
G0 X172.662Y-89.75
G0 Z0
G1 F200 X172.662Y-89.75Z-1.1
G1 F600 X172.662Y-89.75Z-1.1
G1 X172.662Y-89.016Z-1.1
G1 X172.662Y-89.012Z-1.1
G1 X172.665Y-88.945Z-1.1
G1 X172.671Y-88.889Z-1.1
G1 X172.672Y-88.882Z-1.1
G1 X172.676Y-88.857Z-1.1
G1 X172.678Y-88.851Z-1.1
G1 X172.684Y-88.821Z-1.1
G1 X172.686Y-88.815Z-1.1
G1 X172.694Y-88.786Z-1.1
G1 X172.696Y-88.78Z-1.1
G1 X172.704Y-88.756Z-1.1
G1 X172.706Y-88.749Z-1.1
G1 X172.727Y-88.696Z-1.1
G1 X172.73Y-88.689Z-1.1
G1 X172.741Y-88.666Z-1.1
G1 X172.744Y-88.661Z-1.1
G1 X172.756Y-88.638Z-1.1
G1 X172.76Y-88.632Z-1.1
G1 X172.789Y-88.583Z-1.1
G1 X172.794Y-88.577Z-1.1
G1 X172.808Y-88.556Z-1.1
G1 X172.812Y-88.551Z-1.1
G1 X172.831Y-88.527Z-1.1
G1 X172.835Y-88.523Z-1.1
G1 X172.855Y-88.499Z-1.1
G1 X172.859Y-88.495Z-1.1
G1 X172.876Y-88.477Z-1.1
G1 X172.881Y-88.471Z-1.1
G1 X172.923Y-88.433Z-1.1
G1 X172.929Y-88.428Z-1.1
G1 X172.948Y-88.412Z-1.1
G1 X172.953Y-88.408Z-1.1
G1 X172.978Y-88.39Z-1.1
G1 X172.983Y-88.386Z-1.1
G1 X173.008Y-88.369Z-1.1
G1 X173.013Y-88.366Z-1.1
G1 X173.035Y-88.353Z-1.1
G1 X173.042Y-88.349Z-1.1
G1 X173.092Y-88.323Z-1.1
G1 X173.099Y-88.32Z-1.1
G1 X173.122Y-88.309Z-1.1
G1 X173.128Y-88.307Z-1.1
G1 X173.151Y-88.298Z-1.1
G1 X173.158Y-88.296Z-1.1
G1 X173.212Y-88.278Z-1.1
G1 X173.22Y-88.276Z-1.1
G1 X173.244Y-88.27Z-1.1
G1 X173.25Y-88.269Z-1.1
G1 X173.275Y-88.264Z-1.1
G1 X173.283Y-88.263Z-1.1
G1 X173.339Y-88.255Z-1.1
G1 X173.346Y-88.254Z-1.1
G1 X173.377Y-88.252Z-1.1
G1 X173.382Y-88.252Z-1.1
G1 X173.424Y-88.25Z-1.1
G1 X173.429Y-88.25Z-1.1
G1 X185.405Y-88.25Z-1.1
G1 X185.423Y-88.25Z-1.1
G1 X185.429Y-88.25Z-1.1
G1 X185.567Y-88.233Z-1.1
G1 X185.7Y-88.192Z-1.1
G1 X185.823Y-88.126Z-1.1
G1 X185.932Y-88.039Z-1.1
G1 X186.022Y-87.933Z-1.1
G1 X186.026Y-87.928Z-1.1
G1 X186.065Y-87.867Z-1.1
G1 X188.422Y-83.742Z-1.1
G1 X188.432Y-83.725Z-1.1
G1 X188.434Y-83.721Z-1.1
G1 X188.49Y-83.588Z-1.1
G1 X188.519Y-83.447Z-1.1
G1 X188.521Y-83.303Z-1.1
G1 X188.495Y-83.162Z-1.1
G1 X188.443Y-83.028Z-1.1
G1 X188.366Y-82.906Z-1.1
G1 X188.268Y-82.801Z-1.1
G1 X188.263Y-82.797Z-1.1
G1 X188.157Y-82.72Z-1.1
G1 X188.039Y-82.648Z-1.1
G1 X188.033Y-82.645Z-1.1
G1 X187.932Y-82.576Z-1.1
G1 X187.926Y-82.572Z-1.1
G1 X187.828Y-82.498Z-1.1
G1 X187.823Y-82.494Z-1.1
G1 X187.729Y-82.416Z-1.1
G1 X187.724Y-82.411Z-1.1
G1 X187.634Y-82.328Z-1.1
G1 X187.63Y-82.323Z-1.1
G1 X187.544Y-82.235Z-1.1
G1 X187.54Y-82.231Z-1.1
G1 X187.459Y-82.139Z-1.1
G1 X187.454Y-82.134Z-1.1
G1 X187.378Y-82.038Z-1.1
G1 X187.374Y-82.033Z-1.1
G1 X187.303Y-81.933Z-1.1
G1 X187.299Y-81.927Z-1.1
G1 X187.233Y-81.824Z-1.1
G1 X187.23Y-81.819Z-1.1
G1 X187.169Y-81.712Z-1.1
G1 X187.166Y-81.707Z-1.1
G1 X187.11Y-81.597Z-1.1
G1 X187.107Y-81.591Z-1.1
G1 X187.058Y-81.479Z-1.1
G1 X187.055Y-81.473Z-1.1
G1 X187.011Y-81.359Z-1.1
G1 X187.009Y-81.353Z-1.1
G1 X186.971Y-81.236Z-1.1
G1 X186.969Y-81.23Z-1.1
G1 X186.937Y-81.111Z-1.1
G1 X186.935Y-81.105Z-1.1
G1 X186.909Y-80.985Z-1.1
G1 X186.908Y-80.979Z-1.1
G1 X186.887Y-80.858Z-1.1
G1 X186.887Y-80.852Z-1.1
G1 X186.873Y-80.729Z-1.1
G1 X186.872Y-80.723Z-1.1
G1 X186.864Y-80.601Z-1.1
G1 X186.864Y-80.594Z-1.1
G1 X186.862Y-80.471Z-1.1
G1 X186.862Y-80.465Z-1.1
G1 X186.867Y-80.342Z-1.1
G1 X186.867Y-80.336Z-1.1
G1 X186.878Y-80.214Z-1.1
G1 X186.879Y-80.208Z-1.1
G1 X186.896Y-80.086Z-1.1
G1 X186.897Y-80.08Z-1.1
G1 X186.92Y-79.959Z-1.1
G1 X186.922Y-79.953Z-1.1
G1 X186.951Y-79.833Z-1.1
G1 X186.953Y-79.827Z-1.1
G1 X186.988Y-79.71Z-1.1
G1 X186.99Y-79.704Z-1.1
G1 X187.031Y-79.588Z-1.1
G1 X187.033Y-79.582Z-1.1
G1 X187.08Y-79.468Z-1.1
G1 X187.083Y-79.463Z-1.1
G1 X187.135Y-79.352Z-1.1
G1 X187.138Y-79.346Z-1.1
G1 X187.196Y-79.238Z-1.1
G1 X187.2Y-79.232Z-1.1
G1 X187.263Y-79.127Z-1.1
G1 X187.267Y-79.122Z-1.1
G1 X187.336Y-79.02Z-1.1
G1 X187.339Y-79.015Z-1.1
G1 X187.413Y-78.917Z-1.1
G1 X187.417Y-78.912Z-1.1
G1 X187.496Y-78.818Z-1.1
G1 X187.5Y-78.813Z-1.1
G1 X187.584Y-78.723Z-1.1
G1 X187.588Y-78.718Z-1.1
G1 X187.676Y-78.633Z-1.1
G1 X187.68Y-78.628Z-1.1
G1 X187.773Y-78.547Z-1.1
G1 X187.778Y-78.543Z-1.1
G1 X187.874Y-78.467Z-1.1
G1 X187.879Y-78.463Z-1.1
G1 X187.979Y-78.391Z-1.1
G1 X187.984Y-78.388Z-1.1
G1 X188.087Y-78.321Z-1.1
G1 X188.093Y-78.318Z-1.1
G1 X188.199Y-78.257Z-1.1
G1 X188.205Y-78.254Z-1.1
G1 X188.315Y-78.199Z-1.1
G1 X188.32Y-78.196Z-1.1
G1 X188.432Y-78.146Z-1.1
G1 X188.438Y-78.144Z-1.1
G1 X188.553Y-78.1Z-1.1
G1 X188.559Y-78.097Z-1.1
G1 X188.676Y-78.059Z-1.1
G1 X188.682Y-78.057Z-1.1
G1 X188.8Y-78.025Z-1.1
G1 X188.806Y-78.023Z-1.1
G1 X188.926Y-77.997Z-1.1
G1 X188.932Y-77.996Z-1.1
G1 X189.054Y-77.976Z-1.1
G1 X189.06Y-77.975Z-1.1
G1 X189.182Y-77.961Z-1.1
G1 X189.188Y-77.96Z-1.1
G1 X189.311Y-77.953Z-1.1
G1 X189.317Y-77.952Z-1.1
G1 X189.44Y-77.951Z-1.1
G1 X189.446Y-77.951Z-1.1
G1 X189.569Y-77.955Z-1.1
G1 X189.575Y-77.956Z-1.1
G1 X189.698Y-77.967Z-1.1
G1 X189.704Y-77.967Z-1.1
G1 X189.826Y-77.984Z-1.1
G1 X189.832Y-77.985Z-1.1
G1 X189.952Y-78.009Z-1.1
G1 X189.959Y-78.01Z-1.1
G1 X190.078Y-78.039Z-1.1
G1 X190.084Y-78.041Z-1.1
G1 X190.202Y-78.076Z-1.1
G1 X190.208Y-78.078Z-1.1
G1 X190.323Y-78.119Z-1.1
G1 X190.329Y-78.121Z-1.1
G1 X190.443Y-78.168Z-1.1
G1 X190.449Y-78.171Z-1.1
G1 X190.56Y-78.224Z-1.1
G1 X190.565Y-78.227Z-1.1
G1 X190.688Y-78.292Z-1.1
G1 X190.893Y-78.367Z-1.1
G1 X190.898Y-78.368Z-1.1
G1 X191.043Y-78.383Z-1.1
G1 X191.188Y-78.37Z-1.1
G1 X191.327Y-78.329Z-1.1
G1 X191.456Y-78.262Z-1.1
G1 X191.57Y-78.172Z-1.1
G1 X191.664Y-78.061Z-1.1
G1 X191.735Y-77.934Z-1.1
G1 X191.78Y-77.796Z-1.1
G1 X191.798Y-77.652Z-1.1
G1 X191.798Y-77.648Z-1.1
G1 X191.798Y-77.629Z-1.1
G1 X191.798Y-73.521Z-1.1
G1 X191.799Y-73.515Z-1.1
G1 X191.802Y-73.447Z-1.1
G1 X191.802Y-73.44Z-1.1
G1 X191.804Y-73.417Z-1.1
G1 X191.805Y-73.409Z-1.1
G1 X191.814Y-73.353Z-1.1
G1 X191.816Y-73.346Z-1.1
G1 X191.82Y-73.326Z-1.1
G1 X191.822Y-73.319Z-1.1
G1 X191.838Y-73.265Z-1.1
G1 X191.84Y-73.257Z-1.1
G1 X191.849Y-73.233Z-1.1
G1 X191.851Y-73.228Z-1.1
G1 X191.861Y-73.204Z-1.1
G1 X191.864Y-73.197Z-1.1
G1 X191.889Y-73.146Z-1.1
G1 X191.892Y-73.14Z-1.1
G1 X191.905Y-73.118Z-1.1
G1 X191.908Y-73.112Z-1.1
G1 X191.924Y-73.086Z-1.1
G1 X191.928Y-73.082Z-1.1
G1 X191.945Y-73.056Z-1.1
G1 X191.949Y-73.052Z-1.1
G1 X191.968Y-73.027Z-1.1
G1 X191.972Y-73.023Z-1.1
G1 X191.988Y-73.003Z-1.1
G1 X191.993Y-72.998Z-1.1
G1 X192.033Y-72.957Z-1.1
G1 X192.038Y-72.952Z-1.1
G1 X192.057Y-72.935Z-1.1
G1 X192.062Y-72.931Z-1.1
G1 X192.085Y-72.912Z-1.1
G1 X192.09Y-72.908Z-1.1
G1 X192.115Y-72.89Z-1.1
G1 X192.12Y-72.886Z-1.1
G1 X192.145Y-72.869Z-1.1
G1 X192.15Y-72.866Z-1.1
G1 X192.177Y-72.85Z-1.1
G1 X192.182Y-72.847Z-1.1
G1 X192.209Y-72.833Z-1.1
G1 X192.214Y-72.83Z-1.1
G1 X192.242Y-72.817Z-1.1
G1 X192.248Y-72.814Z-1.1
G1 X192.276Y-72.803Z-1.1
G1 X192.282Y-72.8Z-1.1
G1 X192.311Y-72.79Z-1.1
G1 X192.316Y-72.788Z-1.1
G1 X192.341Y-72.781Z-1.1
G1 X192.348Y-72.779Z-1.1
G1 X192.403Y-72.766Z-1.1
G1 X192.411Y-72.764Z-1.1
G1 X192.43Y-72.761Z-1.1
G1 X192.438Y-72.76Z-1.1
G1 X192.494Y-72.753Z-1.1
G1 X192.502Y-72.753Z-1.1
G1 X192.527Y-72.752Z-1.1
G1 X192.533Y-72.751Z-1.1
G1 X193.298Y-72.751Z-1.1
G1 X193.298Y-89.75Z-1.1
G1 X172.662Y-89.75Z-1.1
G0 Z10
G0 X172.662Y-89.75
G0 Z0
G1 F200 X172.662Y-89.75Z-2.1
G1 F600 X172.662Y-89.75Z-2.1
G1 X172.662Y-89.016Z-2.1
G1 X172.662Y-89.012Z-2.1
G1 X172.665Y-88.945Z-2.1
G1 X172.671Y-88.889Z-2.1
G1 X172.672Y-88.882Z-2.1
G1 X172.676Y-88.857Z-2.1
G1 X172.678Y-88.851Z-2.1
G1 X172.684Y-88.821Z-2.1
G1 X172.686Y-88.815Z-2.1
G1 X172.694Y-88.786Z-2.1
G1 X172.696Y-88.78Z-2.1
G1 X172.704Y-88.756Z-2.1
G1 X172.706Y-88.749Z-2.1
G1 X172.727Y-88.696Z-2.1
G1 X172.73Y-88.689Z-2.1
G1 X172.741Y-88.666Z-2.1
G1 X172.744Y-88.661Z-2.1
G1 X172.756Y-88.638Z-2.1
G1 X172.76Y-88.632Z-2.1
G1 X172.789Y-88.583Z-2.1
G1 X172.794Y-88.577Z-2.1
G1 X172.808Y-88.556Z-2.1
G1 X172.812Y-88.551Z-2.1
G1 X172.831Y-88.527Z-2.1
G1 X172.835Y-88.523Z-2.1
G1 X172.855Y-88.499Z-2.1
G1 X172.859Y-88.495Z-2.1
G1 X172.876Y-88.477Z-2.1
G1 X172.881Y-88.471Z-2.1
G1 X172.923Y-88.433Z-2.1
G1 X172.929Y-88.428Z-2.1
G1 X172.948Y-88.412Z-2.1
G1 X172.953Y-88.408Z-2.1
G1 X172.978Y-88.39Z-2.1
G1 X172.983Y-88.386Z-2.1
G1 X173.008Y-88.369Z-2.1
G1 X173.013Y-88.366Z-2.1
G1 X173.035Y-88.353Z-2.1
G1 X173.042Y-88.349Z-2.1
G1 X173.092Y-88.323Z-2.1
G1 X173.099Y-88.32Z-2.1
G1 X173.122Y-88.309Z-2.1
G1 X173.128Y-88.307Z-2.1
G1 X173.151Y-88.298Z-2.1
G1 X173.158Y-88.296Z-2.1
G1 X173.212Y-88.278Z-2.1
G1 X173.22Y-88.276Z-2.1
G1 X173.244Y-88.27Z-2.1
G1 X173.25Y-88.269Z-2.1
G1 X173.275Y-88.264Z-2.1
G1 X173.283Y-88.263Z-2.1
G1 X173.339Y-88.255Z-2.1
G1 X173.346Y-88.254Z-2.1
G1 X173.377Y-88.252Z-2.1
G1 X173.382Y-88.252Z-2.1
G1 X173.424Y-88.25Z-2.1
G1 X173.429Y-88.25Z-2.1
G1 X185.405Y-88.25Z-2.1
G1 X185.423Y-88.25Z-2.1
G1 X185.429Y-88.25Z-2.1
G1 X185.567Y-88.233Z-2.1
G1 X185.7Y-88.192Z-2.1
G1 X185.823Y-88.126Z-2.1
G1 X185.932Y-88.039Z-2.1
G1 X186.022Y-87.933Z-2.1
G1 X186.026Y-87.928Z-2.1
G1 X186.065Y-87.867Z-2.1
G1 X188.422Y-83.742Z-2.1
G1 X188.432Y-83.725Z-2.1
G1 X188.434Y-83.721Z-2.1
G1 X188.49Y-83.588Z-2.1
G1 X188.519Y-83.447Z-2.1
G1 X188.521Y-83.303Z-2.1
G1 X188.495Y-83.162Z-2.1
G1 X188.443Y-83.028Z-2.1
G1 X188.366Y-82.906Z-2.1
G1 X188.268Y-82.801Z-2.1
G1 X188.263Y-82.797Z-2.1
G1 X188.157Y-82.72Z-2.1
G1 X188.039Y-82.648Z-2.1
G1 X188.033Y-82.645Z-2.1
G1 X187.932Y-82.576Z-2.1
G1 X187.926Y-82.572Z-2.1
G1 X187.828Y-82.498Z-2.1
G1 X187.823Y-82.494Z-2.1
G1 X187.729Y-82.416Z-2.1
G1 X187.724Y-82.411Z-2.1
G1 X187.634Y-82.328Z-2.1
G1 X187.63Y-82.323Z-2.1
G1 X187.544Y-82.235Z-2.1
G1 X187.54Y-82.231Z-2.1
G1 X187.459Y-82.139Z-2.1
G1 X187.454Y-82.134Z-2.1
G1 X187.378Y-82.038Z-2.1
G1 X187.374Y-82.033Z-2.1
G1 X187.303Y-81.933Z-2.1
G1 X187.299Y-81.927Z-2.1
G1 X187.233Y-81.824Z-2.1
G1 X187.23Y-81.819Z-2.1
G1 X187.169Y-81.712Z-2.1
G1 X187.166Y-81.707Z-2.1
G1 X187.11Y-81.597Z-2.1
G1 X187.107Y-81.591Z-2.1
G1 X187.058Y-81.479Z-2.1
G1 X187.055Y-81.473Z-2.1
G1 X187.011Y-81.359Z-2.1
G1 X187.009Y-81.353Z-2.1
G1 X186.971Y-81.236Z-2.1
G1 X186.969Y-81.23Z-2.1
G1 X186.937Y-81.111Z-2.1
G1 X186.935Y-81.105Z-2.1
G1 X186.909Y-80.985Z-2.1
G1 X186.908Y-80.979Z-2.1
G1 X186.887Y-80.858Z-2.1
G1 X186.887Y-80.852Z-2.1
G1 X186.873Y-80.729Z-2.1
G1 X186.872Y-80.723Z-2.1
G1 X186.864Y-80.601Z-2.1
G1 X186.864Y-80.594Z-2.1
G1 X186.862Y-80.471Z-2.1
G1 X186.862Y-80.465Z-2.1
G1 X186.867Y-80.342Z-2.1
G1 X186.867Y-80.336Z-2.1
G1 X186.878Y-80.214Z-2.1
G1 X186.879Y-80.208Z-2.1
G1 X186.896Y-80.086Z-2.1
G1 X186.897Y-80.08Z-2.1
G1 X186.92Y-79.959Z-2.1
G1 X186.922Y-79.953Z-2.1
G1 X186.951Y-79.833Z-2.1
G1 X186.953Y-79.827Z-2.1
G1 X186.988Y-79.71Z-2.1
G1 X186.99Y-79.704Z-2.1
G1 X187.031Y-79.588Z-2.1
G1 X187.033Y-79.582Z-2.1
G1 X187.08Y-79.468Z-2.1
G1 X187.083Y-79.463Z-2.1
G1 X187.135Y-79.352Z-2.1
G1 X187.138Y-79.346Z-2.1
G1 X187.196Y-79.238Z-2.1
G1 X187.2Y-79.232Z-2.1
G1 X187.263Y-79.127Z-2.1
G1 X187.267Y-79.122Z-2.1
G1 X187.336Y-79.02Z-2.1
G1 X187.339Y-79.015Z-2.1
G1 X187.413Y-78.917Z-2.1
G1 X187.417Y-78.912Z-2.1
G1 X187.496Y-78.818Z-2.1
G1 X187.5Y-78.813Z-2.1
G1 X187.584Y-78.723Z-2.1
G1 X187.588Y-78.718Z-2.1
G1 X187.676Y-78.633Z-2.1
G1 X187.68Y-78.628Z-2.1
G1 X187.773Y-78.547Z-2.1
G1 X187.778Y-78.543Z-2.1
G1 X187.874Y-78.467Z-2.1
G1 X187.879Y-78.463Z-2.1
G1 X187.979Y-78.391Z-2.1
G1 X187.984Y-78.388Z-2.1
G1 X188.087Y-78.321Z-2.1
G1 X188.093Y-78.318Z-2.1
G1 X188.199Y-78.257Z-2.1
G1 X188.205Y-78.254Z-2.1
G1 X188.315Y-78.199Z-2.1
G1 X188.32Y-78.196Z-2.1
G1 X188.432Y-78.146Z-2.1
G1 X188.438Y-78.144Z-2.1
G1 X188.553Y-78.1Z-2.1
G1 X188.559Y-78.097Z-2.1
G1 X188.676Y-78.059Z-2.1
G1 X188.682Y-78.057Z-2.1
G1 X188.8Y-78.025Z-2.1
G1 X188.806Y-78.023Z-2.1
G1 X188.926Y-77.997Z-2.1
G1 X188.932Y-77.996Z-2.1
G1 X189.054Y-77.976Z-2.1
G1 X189.06Y-77.975Z-2.1
G1 X189.182Y-77.961Z-2.1
G1 X189.188Y-77.96Z-2.1
G1 X189.311Y-77.953Z-2.1
G1 X189.317Y-77.952Z-2.1
G1 X189.44Y-77.951Z-2.1
G1 X189.446Y-77.951Z-2.1
G1 X189.569Y-77.955Z-2.1
G1 X189.575Y-77.956Z-2.1
G1 X189.698Y-77.967Z-2.1
G1 X189.704Y-77.967Z-2.1
G1 X189.826Y-77.984Z-2.1
G1 X189.832Y-77.985Z-2.1
G1 X189.952Y-78.009Z-2.1
G1 X189.959Y-78.01Z-2.1
G1 X190.078Y-78.039Z-2.1
G1 X190.084Y-78.041Z-2.1
G1 X190.202Y-78.076Z-2.1
G1 X190.208Y-78.078Z-2.1
G1 X190.323Y-78.119Z-2.1
G1 X190.329Y-78.121Z-2.1
G1 X190.443Y-78.168Z-2.1
G1 X190.449Y-78.171Z-2.1
G1 X190.56Y-78.224Z-2.1
G1 X190.565Y-78.227Z-2.1
G1 X190.688Y-78.292Z-2.1
G1 X190.893Y-78.367Z-2.1
G1 X190.898Y-78.368Z-2.1
G1 X191.043Y-78.383Z-2.1
G1 X191.188Y-78.37Z-2.1
G1 X191.327Y-78.329Z-2.1
G1 X191.456Y-78.262Z-2.1
G1 X191.57Y-78.172Z-2.1
G1 X191.664Y-78.061Z-2.1
G1 X191.735Y-77.934Z-2.1
G1 X191.78Y-77.796Z-2.1
G1 X191.798Y-77.652Z-2.1
G1 X191.798Y-77.648Z-2.1
G1 X191.798Y-77.629Z-2.1
G1 X191.798Y-73.521Z-2.1
G1 X191.799Y-73.515Z-2.1
G1 X191.802Y-73.447Z-2.1
G1 X191.802Y-73.44Z-2.1
G1 X191.804Y-73.417Z-2.1
G1 X191.805Y-73.409Z-2.1
G1 X191.814Y-73.353Z-2.1
G1 X191.816Y-73.346Z-2.1
G1 X191.82Y-73.326Z-2.1
G1 X191.822Y-73.319Z-2.1
G1 X191.838Y-73.265Z-2.1
G1 X191.84Y-73.257Z-2.1
G1 X191.849Y-73.233Z-2.1
G1 X191.851Y-73.228Z-2.1
G1 X191.861Y-73.204Z-2.1
G1 X191.864Y-73.197Z-2.1
G1 X191.889Y-73.146Z-2.1
G1 X191.892Y-73.14Z-2.1
G1 X191.905Y-73.118Z-2.1
G1 X191.908Y-73.112Z-2.1
G1 X191.924Y-73.086Z-2.1
G1 X191.928Y-73.082Z-2.1
G1 X191.945Y-73.056Z-2.1
G1 X191.949Y-73.052Z-2.1
G1 X191.968Y-73.027Z-2.1
G1 X191.972Y-73.023Z-2.1
G1 X191.988Y-73.003Z-2.1
G1 X191.993Y-72.998Z-2.1
G1 X192.033Y-72.957Z-2.1
G1 X192.038Y-72.952Z-2.1
G1 X192.057Y-72.935Z-2.1
G1 X192.062Y-72.931Z-2.1
G1 X192.085Y-72.912Z-2.1
G1 X192.09Y-72.908Z-2.1
G1 X192.115Y-72.89Z-2.1
G1 X192.12Y-72.886Z-2.1
G1 X192.145Y-72.869Z-2.1
G1 X192.15Y-72.866Z-2.1
G1 X192.177Y-72.85Z-2.1
G1 X192.182Y-72.847Z-2.1
G1 X192.209Y-72.833Z-2.1
G1 X192.214Y-72.83Z-2.1
G1 X192.242Y-72.817Z-2.1
G1 X192.248Y-72.814Z-2.1
G1 X192.276Y-72.803Z-2.1
G1 X192.282Y-72.8Z-2.1
G1 X192.311Y-72.79Z-2.1
G1 X192.316Y-72.788Z-2.1
G1 X192.341Y-72.781Z-2.1
G1 X192.348Y-72.779Z-2.1
G1 X192.403Y-72.766Z-2.1
G1 X192.411Y-72.764Z-2.1
G1 X192.43Y-72.761Z-2.1
G1 X192.438Y-72.76Z-2.1
G1 X192.494Y-72.753Z-2.1
G1 X192.502Y-72.753Z-2.1
G1 X192.527Y-72.752Z-2.1
G1 X192.533Y-72.751Z-2.1
G1 X193.298Y-72.751Z-2.1
G1 X193.298Y-89.75Z-2.1
G1 X172.662Y-89.75Z-2.1
G0 Z10
G0 X172.662Y-89.75
G0 Z0
G1 F200 X172.662Y-89.75Z-3
G1 F600 X172.662Y-89.75Z-3
G1 X172.662Y-89.016Z-3
G1 X172.662Y-89.012Z-3
G1 X172.665Y-88.945Z-3
G1 X172.671Y-88.889Z-3
G1 X172.672Y-88.882Z-3
G1 X172.676Y-88.857Z-3
G1 X172.678Y-88.851Z-3
G1 X172.684Y-88.821Z-3
G1 X172.686Y-88.815Z-3
G1 X172.694Y-88.786Z-3
G1 X172.696Y-88.78Z-3
G1 X172.704Y-88.756Z-3
G1 X172.706Y-88.749Z-3
G1 X172.727Y-88.696Z-3
G1 X172.73Y-88.689Z-3
G1 X172.741Y-88.666Z-3
G1 X172.744Y-88.661Z-3
G1 X172.756Y-88.638Z-3
G1 X172.76Y-88.632Z-3
G1 X172.789Y-88.583Z-3
G1 X172.794Y-88.577Z-3
G1 X172.808Y-88.556Z-3
G1 X172.812Y-88.551Z-3
G1 X172.831Y-88.527Z-3
G1 X172.835Y-88.523Z-3
G1 X172.855Y-88.499Z-3
G1 X172.859Y-88.495Z-3
G1 X172.876Y-88.477Z-3
G1 X172.881Y-88.471Z-3
G1 X172.923Y-88.433Z-3
G1 X172.929Y-88.428Z-3
G1 X172.948Y-88.412Z-3
G1 X172.953Y-88.408Z-3
G1 X172.978Y-88.39Z-3
G1 X172.983Y-88.386Z-3
G1 X173.008Y-88.369Z-3
G1 X173.013Y-88.366Z-3
G1 X173.035Y-88.353Z-3
G1 X173.042Y-88.349Z-3
G1 X173.092Y-88.323Z-3
G1 X173.099Y-88.32Z-3
G1 X173.122Y-88.309Z-3
G1 X173.128Y-88.307Z-3
G1 X173.151Y-88.298Z-3
G1 X173.158Y-88.296Z-3
G1 X173.212Y-88.278Z-3
G1 X173.22Y-88.276Z-3
G1 X173.244Y-88.27Z-3
G1 X173.25Y-88.269Z-3
G1 X173.275Y-88.264Z-3
G1 X173.283Y-88.263Z-3
G1 X173.339Y-88.255Z-3
G1 X173.346Y-88.254Z-3
G1 X173.377Y-88.252Z-3
G1 X173.382Y-88.252Z-3
G1 X173.424Y-88.25Z-3
G1 X173.429Y-88.25Z-3
G1 X185.405Y-88.25Z-3
G1 X185.423Y-88.25Z-3
G1 X185.429Y-88.25Z-3
G1 X185.567Y-88.233Z-3
G1 X185.7Y-88.192Z-3
G1 X185.823Y-88.126Z-3
G1 X185.932Y-88.039Z-3
G1 X186.022Y-87.933Z-3
G1 X186.026Y-87.928Z-3
G1 X186.065Y-87.867Z-3
G1 X188.422Y-83.742Z-3
G1 X188.432Y-83.725Z-3
G1 X188.434Y-83.721Z-3
G1 X188.49Y-83.588Z-3
G1 X188.519Y-83.447Z-3
G1 X188.521Y-83.303Z-3
G1 X188.495Y-83.162Z-3
G1 X188.443Y-83.028Z-3
G1 X188.366Y-82.906Z-3
G1 X188.268Y-82.801Z-3
G1 X188.263Y-82.797Z-3
G1 X188.157Y-82.72Z-3
G1 X188.039Y-82.648Z-3
G1 X188.033Y-82.645Z-3
G1 X187.932Y-82.576Z-3
G1 X187.926Y-82.572Z-3
G1 X187.828Y-82.498Z-3
G1 X187.823Y-82.494Z-3
G1 X187.729Y-82.416Z-3
G1 X187.724Y-82.411Z-3
G1 X187.634Y-82.328Z-3
G1 X187.63Y-82.323Z-3
G1 X187.544Y-82.235Z-3
G1 X187.54Y-82.231Z-3
G1 X187.459Y-82.139Z-3
G1 X187.454Y-82.134Z-3
G1 X187.378Y-82.038Z-3
G1 X187.374Y-82.033Z-3
G1 X187.303Y-81.933Z-3
G1 X187.299Y-81.927Z-3
G1 X187.233Y-81.824Z-3
G1 X187.23Y-81.819Z-3
G1 X187.169Y-81.712Z-3
G1 X187.166Y-81.707Z-3
G1 X187.11Y-81.597Z-3
G1 X187.107Y-81.591Z-3
G1 X187.058Y-81.479Z-3
G1 X187.055Y-81.473Z-3
G1 X187.011Y-81.359Z-3
G1 X187.009Y-81.353Z-3
G1 X186.971Y-81.236Z-3
G1 X186.969Y-81.23Z-3
G1 X186.937Y-81.111Z-3
G1 X186.935Y-81.105Z-3
G1 X186.909Y-80.985Z-3
G1 X186.908Y-80.979Z-3
G1 X186.887Y-80.858Z-3
G1 X186.887Y-80.852Z-3
G1 X186.873Y-80.729Z-3
G1 X186.872Y-80.723Z-3
G1 X186.864Y-80.601Z-3
G1 X186.864Y-80.594Z-3
G1 X186.862Y-80.471Z-3
G1 X186.862Y-80.465Z-3
G1 X186.867Y-80.342Z-3
G1 X186.867Y-80.336Z-3
G1 X186.878Y-80.214Z-3
G1 X186.879Y-80.208Z-3
G1 X186.896Y-80.086Z-3
G1 X186.897Y-80.08Z-3
G1 X186.92Y-79.959Z-3
G1 X186.922Y-79.953Z-3
G1 X186.951Y-79.833Z-3
G1 X186.953Y-79.827Z-3
G1 X186.988Y-79.71Z-3
G1 X186.99Y-79.704Z-3
G1 X187.031Y-79.588Z-3
G1 X187.033Y-79.582Z-3
G1 X187.08Y-79.468Z-3
G1 X187.083Y-79.463Z-3
G1 X187.135Y-79.352Z-3
G1 X187.138Y-79.346Z-3
G1 X187.196Y-79.238Z-3
G1 X187.2Y-79.232Z-3
G1 X187.263Y-79.127Z-3
G1 X187.267Y-79.122Z-3
G1 X187.336Y-79.02Z-3
G1 X187.339Y-79.015Z-3
G1 X187.413Y-78.917Z-3
G1 X187.417Y-78.912Z-3
G1 X187.496Y-78.818Z-3
G1 X187.5Y-78.813Z-3
G1 X187.584Y-78.723Z-3
G1 X187.588Y-78.718Z-3
G1 X187.676Y-78.633Z-3
G1 X187.68Y-78.628Z-3
G1 X187.773Y-78.547Z-3
G1 X187.778Y-78.543Z-3
G1 X187.874Y-78.467Z-3
G1 X187.879Y-78.463Z-3
G1 X187.979Y-78.391Z-3
G1 X187.984Y-78.388Z-3
G1 X188.087Y-78.321Z-3
G1 X188.093Y-78.318Z-3
G1 X188.199Y-78.257Z-3
G1 X188.205Y-78.254Z-3
G1 X188.315Y-78.199Z-3
G1 X188.32Y-78.196Z-3
G1 X188.432Y-78.146Z-3
G1 X188.438Y-78.144Z-3
G1 X188.553Y-78.1Z-3
G1 X188.559Y-78.097Z-3
G1 X188.676Y-78.059Z-3
G1 X188.682Y-78.057Z-3
G1 X188.8Y-78.025Z-3
G1 X188.806Y-78.023Z-3
G1 X188.926Y-77.997Z-3
G1 X188.932Y-77.996Z-3
G1 X189.054Y-77.976Z-3
G1 X189.06Y-77.975Z-3
G1 X189.182Y-77.961Z-3
G1 X189.188Y-77.96Z-3
G1 X189.311Y-77.953Z-3
G1 X189.317Y-77.952Z-3
G1 X189.44Y-77.951Z-3
G1 X189.446Y-77.951Z-3
G1 X189.569Y-77.955Z-3
G1 X189.575Y-77.956Z-3
G1 X189.698Y-77.967Z-3
G1 X189.704Y-77.967Z-3
G1 X189.826Y-77.984Z-3
G1 X189.832Y-77.985Z-3
G1 X189.952Y-78.009Z-3
G1 X189.959Y-78.01Z-3
G1 X190.078Y-78.039Z-3
G1 X190.084Y-78.041Z-3
G1 X190.202Y-78.076Z-3
G1 X190.208Y-78.078Z-3
G1 X190.323Y-78.119Z-3
G1 X190.329Y-78.121Z-3
G1 X190.443Y-78.168Z-3
G1 X190.449Y-78.171Z-3
G1 X190.56Y-78.224Z-3
G1 X190.565Y-78.227Z-3
G1 X190.688Y-78.292Z-3
G1 X190.893Y-78.367Z-3
G1 X190.898Y-78.368Z-3
G1 X191.043Y-78.383Z-3
G1 X191.188Y-78.37Z-3
G1 X191.327Y-78.329Z-3
G1 X191.456Y-78.262Z-3
G1 X191.57Y-78.172Z-3
G1 X191.664Y-78.061Z-3
G1 X191.735Y-77.934Z-3
G1 X191.78Y-77.796Z-3
G1 X191.798Y-77.652Z-3
G1 X191.798Y-77.648Z-3
G1 X191.798Y-77.629Z-3
G1 X191.798Y-73.521Z-3
G1 X191.799Y-73.515Z-3
G1 X191.802Y-73.447Z-3
G1 X191.802Y-73.44Z-3
G1 X191.804Y-73.417Z-3
G1 X191.805Y-73.409Z-3
G1 X191.814Y-73.353Z-3
G1 X191.816Y-73.346Z-3
G1 X191.82Y-73.326Z-3
G1 X191.822Y-73.319Z-3
G1 X191.838Y-73.265Z-3
G1 X191.84Y-73.257Z-3
G1 X191.849Y-73.233Z-3
G1 X191.851Y-73.228Z-3
G1 X191.861Y-73.204Z-3
G1 X191.864Y-73.197Z-3
G1 X191.889Y-73.146Z-3
G1 X191.892Y-73.14Z-3
G1 X191.905Y-73.118Z-3
G1 X191.908Y-73.112Z-3
G1 X191.924Y-73.086Z-3
G1 X191.928Y-73.082Z-3
G1 X191.945Y-73.056Z-3
G1 X191.949Y-73.052Z-3
G1 X191.968Y-73.027Z-3
G1 X191.972Y-73.023Z-3
G1 X191.988Y-73.003Z-3
G1 X191.993Y-72.998Z-3
G1 X192.033Y-72.957Z-3
G1 X192.038Y-72.952Z-3
G1 X192.057Y-72.935Z-3
G1 X192.062Y-72.931Z-3
G1 X192.085Y-72.912Z-3
G1 X192.09Y-72.908Z-3
G1 X192.115Y-72.89Z-3
G1 X192.12Y-72.886Z-3
G1 X192.145Y-72.869Z-3
G1 X192.15Y-72.866Z-3
G1 X192.177Y-72.85Z-3
G1 X192.182Y-72.847Z-3
G1 X192.209Y-72.833Z-3
G1 X192.214Y-72.83Z-3
G1 X192.242Y-72.817Z-3
G1 X192.248Y-72.814Z-3
G1 X192.276Y-72.803Z-3
G1 X192.282Y-72.8Z-3
G1 X192.311Y-72.79Z-3
G1 X192.316Y-72.788Z-3
G1 X192.341Y-72.781Z-3
G1 X192.348Y-72.779Z-3
G1 X192.403Y-72.766Z-3
G1 X192.411Y-72.764Z-3
G1 X192.43Y-72.761Z-3
G1 X192.438Y-72.76Z-3
G1 X192.494Y-72.753Z-3
G1 X192.502Y-72.753Z-3
G1 X192.527Y-72.752Z-3
G1 X192.533Y-72.751Z-3
G1 X193.298Y-72.751Z-3
G1 X193.298Y-89.75Z-3
G1 X172.662Y-89.75Z-3
G0 Z10
; Path - Mill - Inside path (4/15)
M3 S10500
G0 Z10
G0 X126.388Y-10.25
G0 Z0
G1 F200 X126.388Y-10.25Z-1.1
G1 F600 X126.388Y-10.25Z-1.1
G1 X166.16Y-10.25Z-1.1
G1 X166.16Y-10.989Z-1.1
G1 X166.16Y-10.992Z-1.1
G1 X166.159Y-11.028Z-1.1
G1 X166.159Y-11.036Z-1.1
G1 X166.155Y-11.087Z-1.1
G1 X166.153Y-11.096Z-1.1
G1 X166.146Y-11.146Z-1.1
G1 X166.133Y-11.201Z-1.1
G1 X166.131Y-11.208Z-1.1
G1 X166.123Y-11.232Z-1.1
G1 X166.121Y-11.238Z-1.1
G1 X166.113Y-11.261Z-1.1
G1 X166.11Y-11.269Z-1.1
G1 X166.088Y-11.321Z-1.1
G1 X166.085Y-11.328Z-1.1
G1 X166.073Y-11.35Z-1.1
G1 X166.07Y-11.356Z-1.1
G1 X166.058Y-11.378Z-1.1
G1 X166.054Y-11.384Z-1.1
G1 X166.023Y-11.432Z-1.1
G1 X166.018Y-11.438Z-1.1
G1 X166.007Y-11.454Z-1.1
G1 X166.002Y-11.46Z-1.1
G1 X165.966Y-11.503Z-1.1
G1 X165.927Y-11.543Z-1.1
G1 X165.921Y-11.548Z-1.1
G1 X165.907Y-11.561Z-1.1
G1 X165.901Y-11.566Z-1.1
G1 X165.857Y-11.602Z-1.1
G1 X165.851Y-11.606Z-1.1
G1 X165.834Y-11.618Z-1.1
G1 X165.828Y-11.622Z-1.1
G1 X165.78Y-11.652Z-1.1
G1 X165.773Y-11.655Z-1.1
G1 X165.755Y-11.665Z-1.1
G1 X165.749Y-11.668Z-1.1
G1 X165.697Y-11.692Z-1.1
G1 X165.69Y-11.695Z-1.1
G1 X165.666Y-11.704Z-1.1
G1 X165.661Y-11.706Z-1.1
G1 X165.637Y-11.714Z-1.1
G1 X165.629Y-11.716Z-1.1
G1 X165.575Y-11.731Z-1.1
G1 X165.567Y-11.732Z-1.1
G1 X165.542Y-11.737Z-1.1
G1 X165.536Y-11.738Z-1.1
G1 X165.506Y-11.743Z-1.1
G1 X165.5Y-11.743Z-1.1
G1 X165.471Y-11.746Z-1.1
G1 X165.465Y-11.747Z-1.1
G1 X165.396Y-11.75Z-1.1
G1 X165.391Y-11.75Z-1.1
G1 X153.418Y-11.75Z-1.1
G1 X153.399Y-11.75Z-1.1
G1 X153.393Y-11.75Z-1.1
G1 X153.255Y-11.767Z-1.1
G1 X153.122Y-11.809Z-1.1
G1 X152.999Y-11.874Z-1.1
G1 X152.89Y-11.962Z-1.1
G1 X152.799Y-12.068Z-1.1
G1 X152.796Y-12.073Z-1.1
G1 X152.757Y-12.133Z-1.1
G1 X150.401Y-16.257Z-1.1
G1 X150.391Y-16.274Z-1.1
G1 X150.389Y-16.279Z-1.1
G1 X150.333Y-16.412Z-1.1
G1 X150.304Y-16.553Z-1.1
G1 X150.302Y-16.696Z-1.1
G1 X150.328Y-16.838Z-1.1
G1 X150.38Y-16.972Z-1.1
G1 X150.457Y-17.094Z-1.1
G1 X150.556Y-17.198Z-1.1
G1 X150.56Y-17.202Z-1.1
G1 X150.666Y-17.28Z-1.1
G1 X150.784Y-17.351Z-1.1
G1 X150.79Y-17.355Z-1.1
G1 X150.892Y-17.424Z-1.1
G1 X150.897Y-17.427Z-1.1
G1 X150.995Y-17.501Z-1.1
G1 X151Y-17.505Z-1.1
G1 X151.094Y-17.584Z-1.1
G1 X151.099Y-17.588Z-1.1
G1 X151.189Y-17.672Z-1.1
G1 X151.193Y-17.676Z-1.1
G1 X151.279Y-17.764Z-1.1
G1 X151.283Y-17.769Z-1.1
G1 X151.365Y-17.861Z-1.1
G1 X151.369Y-17.866Z-1.1
G1 X151.445Y-17.962Z-1.1
G1 X151.449Y-17.967Z-1.1
G1 X151.52Y-18.067Z-1.1
G1 X151.524Y-18.072Z-1.1
G1 X151.59Y-18.176Z-1.1
G1 X151.594Y-18.181Z-1.1
G1 X151.655Y-18.288Z-1.1
G1 X151.658Y-18.293Z-1.1
G1 X151.713Y-18.403Z-1.1
G1 X151.716Y-18.409Z-1.1
G1 X151.766Y-18.521Z-1.1
G1 X151.768Y-18.527Z-1.1
G1 X151.812Y-18.641Z-1.1
G1 X151.814Y-18.647Z-1.1
G1 X151.853Y-18.764Z-1.1
G1 X151.855Y-18.77Z-1.1
G1 X151.887Y-18.889Z-1.1
G1 X151.888Y-18.895Z-1.1
G1 X151.915Y-19.015Z-1.1
G1 X151.916Y-19.021Z-1.1
G1 X151.936Y-19.142Z-1.1
G1 X151.937Y-19.148Z-1.1
G1 X151.951Y-19.271Z-1.1
G1 X151.952Y-19.277Z-1.1
G1 X151.959Y-19.4Z-1.1
G1 X151.96Y-19.406Z-1.1
G1 X151.961Y-19.528Z-1.1
G1 X151.961Y-19.535Z-1.1
G1 X151.956Y-19.657Z-1.1
G1 X151.956Y-19.664Z-1.1
G1 X151.945Y-19.786Z-1.1
G1 X151.944Y-19.793Z-1.1
G1 X151.927Y-19.914Z-1.1
G1 X151.926Y-19.921Z-1.1
G1 X151.903Y-20.041Z-1.1
G1 X151.902Y-20.047Z-1.1
G1 X151.873Y-20.167Z-1.1
G1 X151.871Y-20.173Z-1.1
G1 X151.836Y-20.291Z-1.1
G1 X151.834Y-20.297Z-1.1
G1 X151.793Y-20.412Z-1.1
G1 X151.79Y-20.418Z-1.1
G1 X151.743Y-20.532Z-1.1
G1 X151.741Y-20.537Z-1.1
G1 X151.688Y-20.648Z-1.1
G1 X151.685Y-20.654Z-1.1
G1 X151.627Y-20.762Z-1.1
G1 X151.624Y-20.768Z-1.1
G1 X151.56Y-20.873Z-1.1
G1 X151.557Y-20.878Z-1.1
G1 X151.488Y-20.98Z-1.1
G1 X151.484Y-20.985Z-1.1
G1 X151.41Y-21.083Z-1.1
G1 X151.406Y-21.088Z-1.1
G1 X151.328Y-21.182Z-1.1
G1 X151.323Y-21.187Z-1.1
G1 X151.24Y-21.277Z-1.1
G1 X151.235Y-21.282Z-1.1
G1 X151.147Y-21.368Z-1.1
G1 X151.143Y-21.372Z-1.1
G1 X151.051Y-21.453Z-1.1
G1 X151.046Y-21.457Z-1.1
G1 X150.95Y-21.534Z-1.1
G1 X150.945Y-21.537Z-1.1
G1 X150.845Y-21.609Z-1.1
G1 X150.839Y-21.612Z-1.1
G1 X150.736Y-21.679Z-1.1
G1 X150.731Y-21.682Z-1.1
G1 X150.624Y-21.743Z-1.1
G1 X150.618Y-21.746Z-1.1
G1 X150.509Y-21.802Z-1.1
G1 X150.503Y-21.804Z-1.1
G1 X150.391Y-21.854Z-1.1
G1 X150.385Y-21.857Z-1.1
G1 X150.27Y-21.901Z-1.1
G1 X150.264Y-21.903Z-1.1
G1 X150.148Y-21.941Z-1.1
G1 X150.142Y-21.943Z-1.1
G1 X150.023Y-21.975Z-1.1
G1 X150.017Y-21.977Z-1.1
G1 X149.897Y-22.003Z-1.1
G1 X149.891Y-22.004Z-1.1
G1 X149.769Y-22.024Z-1.1
G1 X149.763Y-22.025Z-1.1
G1 X149.641Y-22.039Z-1.1
G1 X149.635Y-22.04Z-1.1
G1 X149.512Y-22.048Z-1.1
G1 X149.506Y-22.048Z-1.1
G1 X149.383Y-22.05Z-1.1
G1 X149.377Y-22.049Z-1.1
G1 X149.254Y-22.045Z-1.1
G1 X149.248Y-22.044Z-1.1
G1 X149.125Y-22.034Z-1.1
G1 X149.119Y-22.033Z-1.1
G1 X148.997Y-22.016Z-1.1
G1 X148.991Y-22.015Z-1.1
G1 X148.87Y-21.992Z-1.1
G1 X148.864Y-21.99Z-1.1
G1 X148.745Y-21.961Z-1.1
G1 X148.739Y-21.959Z-1.1
G1 X148.621Y-21.924Z-1.1
G1 X148.615Y-21.922Z-1.1
G1 X148.499Y-21.881Z-1.1
G1 X148.493Y-21.879Z-1.1
G1 X148.38Y-21.832Z-1.1
G1 X148.374Y-21.829Z-1.1
G1 X148.263Y-21.776Z-1.1
G1 X148.258Y-21.774Z-1.1
G1 X148.135Y-21.708Z-1.1
G1 X148.118Y-21.699Z-1.1
G1 X148.115Y-21.697Z-1.1
G1 X147.979Y-21.644Z-1.1
G1 X147.836Y-21.619Z-1.1
G1 X147.691Y-21.621Z-1.1
G1 X147.548Y-21.652Z-1.1
G1 X147.415Y-21.709Z-1.1
G1 X147.295Y-21.791Z-1.1
G1 X147.193Y-21.895Z-1.1
G1 X147.113Y-22.016Z-1.1
G1 X147.058Y-22.15Z-1.1
G1 X147.056Y-22.156Z-1.1
G1 X147.024Y-22.371Z-1.1
G1 X147.024Y-26.479Z-1.1
G1 X147.024Y-26.485Z-1.1
G1 X147.021Y-26.553Z-1.1
G1 X147.021Y-26.559Z-1.1
G1 X147.018Y-26.588Z-1.1
G1 X147.017Y-26.594Z-1.1
G1 X147.013Y-26.619Z-1.1
G1 X147.012Y-26.626Z-1.1
G1 X147.002Y-26.676Z-1.1
G1 X146.999Y-26.685Z-1.1
G1 X146.987Y-26.729Z-1.1
G1 X146.984Y-26.737Z-1.1
G1 X146.968Y-26.78Z-1.1
G1 X146.965Y-26.789Z-1.1
G1 X146.944Y-26.835Z-1.1
G1 X146.94Y-26.842Z-1.1
G1 X146.929Y-26.864Z-1.1
G1 X146.926Y-26.869Z-1.1
G1 X146.913Y-26.891Z-1.1
G1 X146.909Y-26.897Z-1.1
G1 X146.877Y-26.944Z-1.1
G1 X146.873Y-26.95Z-1.1
G1 X146.857Y-26.97Z-1.1
G1 X146.854Y-26.974Z-1.1
G1 X146.837Y-26.993Z-1.1
G1 X146.832Y-26.999Z-1.1
G1 X146.797Y-27.036Z-1.1
G1 X146.79Y-27.042Z-1.1
G1 X146.752Y-27.076Z-1.1
G1 X146.747Y-27.081Z-1.1
G1 X146.727Y-27.096Z-1.1
G1 X146.722Y-27.1Z-1.1
G1 X146.702Y-27.115Z-1.1
G1 X146.695Y-27.119Z-1.1
G1 X146.648Y-27.149Z-1.1
G1 X146.641Y-27.153Z-1.1
G1 X146.619Y-27.165Z-1.1
G1 X146.614Y-27.167Z-1.1
G1 X146.591Y-27.178Z-1.1
G1 X146.584Y-27.181Z-1.1
G1 X146.532Y-27.203Z-1.1
G1 X146.525Y-27.205Z-1.1
G1 X146.502Y-27.213Z-1.1
G1 X146.496Y-27.215Z-1.1
G1 X146.472Y-27.222Z-1.1
G1 X146.464Y-27.224Z-1.1
G1 X146.415Y-27.235Z-1.1
G1 X146.406Y-27.237Z-1.1
G1 X146.361Y-27.243Z-1.1
G1 X146.351Y-27.244Z-1.1
G1 X146.297Y-27.248Z-1.1
G1 X146.291Y-27.249Z-1.1
G1 X146.279Y-27.249Z-1.1
G1 X146.274Y-27.249Z-1.1
G1 X146.246Y-27.248Z-1.1
G1 X146.239Y-27.248Z-1.1
G1 X146.182Y-27.243Z-1.1
G1 X146.174Y-27.242Z-1.1
G1 X146.149Y-27.238Z-1.1
G1 X146.143Y-27.237Z-1.1
G1 X146.118Y-27.232Z-1.1
G1 X146.111Y-27.231Z-1.1
G1 X146.057Y-27.216Z-1.1
G1 X146.004Y-27.198Z-1.1
G1 X145.997Y-27.195Z-1.1
G1 X145.974Y-27.186Z-1.1
G1 X145.968Y-27.183Z-1.1
G1 X145.94Y-27.17Z-1.1
G1 X145.935Y-27.167Z-1.1
G1 X145.908Y-27.153Z-1.1
G1 X145.903Y-27.15Z-1.1
G1 X145.881Y-27.137Z-1.1
G1 X145.874Y-27.133Z-1.1
G1 X145.828Y-27.101Z-1.1
G1 X145.785Y-27.067Z-1.1
G1 X145.745Y-27.029Z-1.1
G1 X145.707Y-26.988Z-1.1
G1 X145.702Y-26.983Z-1.1
G1 X145.686Y-26.963Z-1.1
G1 X145.682Y-26.958Z-1.1
G1 X145.667Y-26.938Z-1.1
G1 X145.663Y-26.932Z-1.1
G1 X145.632Y-26.884Z-1.1
G1 X145.628Y-26.878Z-1.1
G1 X145.615Y-26.856Z-1.1
G1 X145.613Y-26.85Z-1.1
G1 X145.601Y-26.828Z-1.1
G1 X145.598Y-26.821Z-1.1
G1 X145.576Y-26.769Z-1.1
G1 X145.573Y-26.762Z-1.1
G1 X145.564Y-26.738Z-1.1
G1 X145.562Y-26.732Z-1.1
G1 X145.553Y-26.703Z-1.1
G1 X145.552Y-26.697Z-1.1
G1 X145.546Y-26.672Z-1.1
G1 X145.544Y-26.665Z-1.1
G1 X145.534Y-26.61Z-1.1
G1 X145.528Y-26.556Z-1.1
G1 X145.527Y-26.548Z-1.1
G1 X145.524Y-26.485Z-1.1
G1 X145.524Y-26.479Z-1.1
G1 X145.524Y-22.371Z-1.1
G1 X145.492Y-22.155Z-1.1
G1 X145.491Y-22.15Z-1.1
G1 X145.436Y-22.016Z-1.1
G1 X145.356Y-21.894Z-1.1
G1 X145.254Y-21.791Z-1.1
G1 X145.134Y-21.709Z-1.1
G1 X145Y-21.651Z-1.1
G1 X144.858Y-21.621Z-1.1
G1 X144.712Y-21.619Z-1.1
G1 X144.569Y-21.644Z-1.1
G1 X144.434Y-21.697Z-1.1
G1 X144.43Y-21.699Z-1.1
G1 X144.413Y-21.708Z-1.1
G1 X144.293Y-21.773Z-1.1
G1 X144.287Y-21.775Z-1.1
G1 X144.178Y-21.827Z-1.1
G1 X144.172Y-21.83Z-1.1
G1 X144.061Y-21.876Z-1.1
G1 X144.055Y-21.879Z-1.1
G1 X143.941Y-21.92Z-1.1
G1 X143.935Y-21.921Z-1.1
G1 X143.82Y-21.957Z-1.1
G1 X143.814Y-21.958Z-1.1
G1 X143.696Y-21.988Z-1.1
G1 X143.69Y-21.989Z-1.1
G1 X143.572Y-22.012Z-1.1
G1 X143.565Y-22.013Z-1.1
G1 X143.446Y-22.031Z-1.1
G1 X143.44Y-22.032Z-1.1
G1 X143.319Y-22.043Z-1.1
G1 X143.313Y-22.044Z-1.1
G1 X143.192Y-22.049Z-1.1
G1 X143.186Y-22.049Z-1.1
G1 X143.065Y-22.049Z-1.1
G1 X143.059Y-22.049Z-1.1
G1 X142.938Y-22.042Z-1.1
G1 X142.932Y-22.041Z-1.1
G1 X142.812Y-22.029Z-1.1
G1 X142.806Y-22.028Z-1.1
G1 X142.686Y-22.01Z-1.1
G1 X142.68Y-22.008Z-1.1
G1 X142.562Y-21.984Z-1.1
G1 X142.556Y-21.983Z-1.1
G1 X142.438Y-21.952Z-1.1
G1 X142.432Y-21.95Z-1.1
G1 X142.317Y-21.914Z-1.1
G1 X142.311Y-21.912Z-1.1
G1 X142.198Y-21.87Z-1.1
G1 X142.192Y-21.868Z-1.1
G1 X142.081Y-21.821Z-1.1
G1 X142.075Y-21.818Z-1.1
G1 X141.966Y-21.765Z-1.1
G1 X141.961Y-21.762Z-1.1
G1 X141.855Y-21.704Z-1.1
G1 X141.85Y-21.701Z-1.1
G1 X141.747Y-21.637Z-1.1
G1 X141.741Y-21.634Z-1.1
G1 X141.642Y-21.565Z-1.1
G1 X141.637Y-21.562Z-1.1
G1 X141.541Y-21.488Z-1.1
G1 X141.536Y-21.485Z-1.1
G1 X141.444Y-21.406Z-1.1
G1 X141.439Y-21.402Z-1.1
G1 X141.351Y-21.319Z-1.1
G1 X141.346Y-21.315Z-1.1
G1 X141.262Y-21.228Z-1.1
G1 X141.258Y-21.224Z-1.1
G1 X141.178Y-21.133Z-1.1
G1 X141.174Y-21.128Z-1.1
G1 X141.099Y-21.033Z-1.1
G1 X141.096Y-21.028Z-1.1
G1 X141.026Y-20.93Z-1.1
G1 X141.022Y-20.924Z-1.1
G1 X140.957Y-20.823Z-1.1
G1 X140.954Y-20.817Z-1.1
G1 X140.894Y-20.712Z-1.1
G1 X140.891Y-20.707Z-1.1
G1 X140.836Y-20.599Z-1.1
G1 X140.834Y-20.593Z-1.1
G1 X140.784Y-20.483Z-1.1
G1 X140.782Y-20.477Z-1.1
G1 X140.738Y-20.364Z-1.1
G1 X140.736Y-20.359Z-1.1
G1 X140.698Y-20.244Z-1.1
G1 X140.696Y-20.238Z-1.1
G1 X140.664Y-20.121Z-1.1
G1 X140.663Y-20.115Z-1.1
G1 X140.636Y-19.997Z-1.1
G1 X140.635Y-19.991Z-1.1
G1 X140.614Y-19.872Z-1.1
G1 X140.614Y-19.866Z-1.1
G1 X140.599Y-19.746Z-1.1
G1 X140.598Y-19.74Z-1.1
G1 X140.59Y-19.619Z-1.1
G1 X140.59Y-19.613Z-1.1
G1 X140.587Y-19.492Z-1.1
G1 X140.587Y-19.486Z-1.1
G1 X140.591Y-19.365Z-1.1
G1 X140.591Y-19.358Z-1.1
G1 X140.601Y-19.238Z-1.1
G1 X140.601Y-19.232Z-1.1
G1 X140.617Y-19.112Z-1.1
G1 X140.618Y-19.106Z-1.1
G1 X140.639Y-18.987Z-1.1
G1 X140.641Y-18.981Z-1.1
G1 X140.668Y-18.863Z-1.1
G1 X140.67Y-18.857Z-1.1
G1 X140.703Y-18.741Z-1.1
G1 X140.705Y-18.735Z-1.1
G1 X140.744Y-18.62Z-1.1
G1 X140.746Y-18.614Z-1.1
G1 X140.791Y-18.502Z-1.1
G1 X140.793Y-18.496Z-1.1
G1 X140.843Y-18.386Z-1.1
G1 X140.846Y-18.381Z-1.1
G1 X140.902Y-18.273Z-1.1
G1 X140.905Y-18.268Z-1.1
G1 X140.965Y-18.164Z-1.1
G1 X140.969Y-18.158Z-1.1
G1 X141.035Y-18.057Z-1.1
G1 X141.038Y-18.052Z-1.1
G1 X141.109Y-17.954Z-1.1
G1 X141.113Y-17.949Z-1.1
G1 X141.189Y-17.855Z-1.1
G1 X141.193Y-17.85Z-1.1
G1 X141.273Y-17.76Z-1.1
G1 X141.278Y-17.755Z-1.1
G1 X141.363Y-17.669Z-1.1
G1 X141.367Y-17.665Z-1.1
G1 X141.456Y-17.583Z-1.1
G1 X141.461Y-17.579Z-1.1
G1 X141.554Y-17.501Z-1.1
G1 X141.559Y-17.498Z-1.1
G1 X141.655Y-17.425Z-1.1
G1 X141.66Y-17.421Z-1.1
G1 X141.76Y-17.354Z-1.1
G1 X141.766Y-17.35Z-1.1
G1 X141.883Y-17.28Z-1.1
G1 X141.988Y-17.203Z-1.1
G1 X141.993Y-17.199Z-1.1
G1 X142.091Y-17.094Z-1.1
G1 X142.168Y-16.972Z-1.1
G1 X142.221Y-16.838Z-1.1
G1 X142.246Y-16.697Z-1.1
G1 X142.245Y-16.553Z-1.1
G1 X142.215Y-16.412Z-1.1
G1 X142.16Y-16.279Z-1.1
G1 X142.157Y-16.275Z-1.1
G1 X142.148Y-16.257Z-1.1
G1 X139.792Y-12.133Z-1.1
G1 X139.753Y-12.073Z-1.1
G1 X139.75Y-12.068Z-1.1
G1 X139.659Y-11.962Z-1.1
G1 X139.55Y-11.874Z-1.1
G1 X139.427Y-11.809Z-1.1
G1 X139.294Y-11.767Z-1.1
G1 X139.156Y-11.75Z-1.1
G1 X139.15Y-11.75Z-1.1
G1 X139.131Y-11.75Z-1.1
G1 X127.155Y-11.75Z-1.1
G1 X127.15Y-11.75Z-1.1
G1 X127.107Y-11.748Z-1.1
G1 X127.103Y-11.748Z-1.1
G1 X127.067Y-11.745Z-1.1
G1 X127.061Y-11.745Z-1.1
G1 X127.03Y-11.741Z-1.1
G1 X127.024Y-11.74Z-1.1
G1 X126.999Y-11.736Z-1.1
G1 X126.992Y-11.734Z-1.1
G1 X126.937Y-11.721Z-1.1
G1 X126.929Y-11.719Z-1.1
G1 X126.905Y-11.712Z-1.1
G1 X126.899Y-11.71Z-1.1
G1 X126.871Y-11.7Z-1.1
G1 X126.865Y-11.697Z-1.1
G1 X126.836Y-11.686Z-1.1
G1 X126.831Y-11.683Z-1.1
G1 X126.808Y-11.672Z-1.1
G1 X126.801Y-11.669Z-1.1
G1 X126.752Y-11.642Z-1.1
G1 X126.745Y-11.638Z-1.1
G1 X126.724Y-11.624Z-1.1
G1 X126.719Y-11.621Z-1.1
G1 X126.694Y-11.603Z-1.1
G1 X126.689Y-11.6Z-1.1
G1 X126.664Y-11.581Z-1.1
G1 X126.66Y-11.577Z-1.1
G1 X126.641Y-11.56Z-1.1
G1 X126.635Y-11.555Z-1.1
G1 X126.594Y-11.516Z-1.1
G1 X126.589Y-11.51Z-1.1
G1 X126.572Y-11.491Z-1.1
G1 X126.568Y-11.487Z-1.1
G1 X126.549Y-11.463Z-1.1
G1 X126.545Y-11.458Z-1.1
G1 X126.527Y-11.434Z-1.1
G1 X126.523Y-11.429Z-1.1
G1 X126.506Y-11.403Z-1.1
G1 X126.503Y-11.398Z-1.1
G1 X126.487Y-11.372Z-1.1
G1 X126.484Y-11.366Z-1.1
G1 X126.472Y-11.344Z-1.1
G1 X126.469Y-11.337Z-1.1
G1 X126.445Y-11.286Z-1.1
G1 X126.442Y-11.279Z-1.1
G1 X126.433Y-11.255Z-1.1
G1 X126.431Y-11.249Z-1.1
G1 X126.423Y-11.225Z-1.1
G1 X126.421Y-11.218Z-1.1
G1 X126.408Y-11.169Z-1.1
G1 X126.406Y-11.16Z-1.1
G1 X126.397Y-11.109Z-1.1
G1 X126.395Y-11.102Z-1.1
G1 X126.392Y-11.076Z-1.1
G1 X126.392Y-11.07Z-1.1
G1 X126.389Y-11.04Z-1.1
G1 X126.389Y-11.034Z-1.1
G1 X126.388Y-10.993Z-1.1
G1 X126.388Y-10.99Z-1.1
G1 X126.388Y-10.25Z-1.1
G0 Z10
G0 X126.388Y-10.25
G0 Z0
G1 F200 X126.388Y-10.25Z-2.1
G1 F600 X126.388Y-10.25Z-2.1
G1 X166.16Y-10.25Z-2.1
G1 X166.16Y-10.989Z-2.1
G1 X166.16Y-10.992Z-2.1
G1 X166.159Y-11.028Z-2.1
G1 X166.159Y-11.036Z-2.1
G1 X166.155Y-11.087Z-2.1
G1 X166.153Y-11.096Z-2.1
G1 X166.146Y-11.146Z-2.1
G1 X166.133Y-11.201Z-2.1
G1 X166.131Y-11.208Z-2.1
G1 X166.123Y-11.232Z-2.1
G1 X166.121Y-11.238Z-2.1
G1 X166.113Y-11.261Z-2.1
G1 X166.11Y-11.269Z-2.1
G1 X166.088Y-11.321Z-2.1
G1 X166.085Y-11.328Z-2.1
G1 X166.073Y-11.35Z-2.1
G1 X166.07Y-11.356Z-2.1
G1 X166.058Y-11.378Z-2.1
G1 X166.054Y-11.384Z-2.1
G1 X166.023Y-11.432Z-2.1
G1 X166.018Y-11.438Z-2.1
G1 X166.007Y-11.454Z-2.1
G1 X166.002Y-11.46Z-2.1
G1 X165.966Y-11.503Z-2.1
G1 X165.927Y-11.543Z-2.1
G1 X165.921Y-11.548Z-2.1
G1 X165.907Y-11.561Z-2.1
G1 X165.901Y-11.566Z-2.1
G1 X165.857Y-11.602Z-2.1
G1 X165.851Y-11.606Z-2.1
G1 X165.834Y-11.618Z-2.1
G1 X165.828Y-11.622Z-2.1
G1 X165.78Y-11.652Z-2.1
G1 X165.773Y-11.655Z-2.1
G1 X165.755Y-11.665Z-2.1
G1 X165.749Y-11.668Z-2.1
G1 X165.697Y-11.692Z-2.1
G1 X165.69Y-11.695Z-2.1
G1 X165.666Y-11.704Z-2.1
G1 X165.661Y-11.706Z-2.1
G1 X165.637Y-11.714Z-2.1
G1 X165.629Y-11.716Z-2.1
G1 X165.575Y-11.731Z-2.1
G1 X165.567Y-11.732Z-2.1
G1 X165.542Y-11.737Z-2.1
G1 X165.536Y-11.738Z-2.1
G1 X165.506Y-11.743Z-2.1
G1 X165.5Y-11.743Z-2.1
G1 X165.471Y-11.746Z-2.1
G1 X165.465Y-11.747Z-2.1
G1 X165.396Y-11.75Z-2.1
G1 X165.391Y-11.75Z-2.1
G1 X153.418Y-11.75Z-2.1
G1 X153.399Y-11.75Z-2.1
G1 X153.393Y-11.75Z-2.1
G1 X153.255Y-11.767Z-2.1
G1 X153.122Y-11.809Z-2.1
G1 X152.999Y-11.874Z-2.1
G1 X152.89Y-11.962Z-2.1
G1 X152.799Y-12.068Z-2.1
G1 X152.796Y-12.073Z-2.1
G1 X152.757Y-12.133Z-2.1
G1 X150.401Y-16.257Z-2.1
G1 X150.391Y-16.274Z-2.1
G1 X150.389Y-16.279Z-2.1
G1 X150.333Y-16.412Z-2.1
G1 X150.304Y-16.553Z-2.1
G1 X150.302Y-16.696Z-2.1
G1 X150.328Y-16.838Z-2.1
G1 X150.38Y-16.972Z-2.1
G1 X150.457Y-17.094Z-2.1
G1 X150.556Y-17.198Z-2.1
G1 X150.56Y-17.202Z-2.1
G1 X150.666Y-17.28Z-2.1
G1 X150.784Y-17.351Z-2.1
G1 X150.79Y-17.355Z-2.1
G1 X150.892Y-17.424Z-2.1
G1 X150.897Y-17.427Z-2.1
G1 X150.995Y-17.501Z-2.1
G1 X151Y-17.505Z-2.1
G1 X151.094Y-17.584Z-2.1
G1 X151.099Y-17.588Z-2.1
G1 X151.189Y-17.672Z-2.1
G1 X151.193Y-17.676Z-2.1
G1 X151.279Y-17.764Z-2.1
G1 X151.283Y-17.769Z-2.1
G1 X151.365Y-17.861Z-2.1
G1 X151.369Y-17.866Z-2.1
G1 X151.445Y-17.962Z-2.1
G1 X151.449Y-17.967Z-2.1
G1 X151.52Y-18.067Z-2.1
G1 X151.524Y-18.072Z-2.1
G1 X151.59Y-18.176Z-2.1
G1 X151.594Y-18.181Z-2.1
G1 X151.655Y-18.288Z-2.1
G1 X151.658Y-18.293Z-2.1
G1 X151.713Y-18.403Z-2.1
G1 X151.716Y-18.409Z-2.1
G1 X151.766Y-18.521Z-2.1
G1 X151.768Y-18.527Z-2.1
G1 X151.812Y-18.641Z-2.1
G1 X151.814Y-18.647Z-2.1
G1 X151.853Y-18.764Z-2.1
G1 X151.855Y-18.77Z-2.1
G1 X151.887Y-18.889Z-2.1
G1 X151.888Y-18.895Z-2.1
G1 X151.915Y-19.015Z-2.1
G1 X151.916Y-19.021Z-2.1
G1 X151.936Y-19.142Z-2.1
G1 X151.937Y-19.148Z-2.1
G1 X151.951Y-19.271Z-2.1
G1 X151.952Y-19.277Z-2.1
G1 X151.959Y-19.4Z-2.1
G1 X151.96Y-19.406Z-2.1
G1 X151.961Y-19.528Z-2.1
G1 X151.961Y-19.535Z-2.1
G1 X151.956Y-19.657Z-2.1
G1 X151.956Y-19.664Z-2.1
G1 X151.945Y-19.786Z-2.1
G1 X151.944Y-19.793Z-2.1
G1 X151.927Y-19.914Z-2.1
G1 X151.926Y-19.921Z-2.1
G1 X151.903Y-20.041Z-2.1
G1 X151.902Y-20.047Z-2.1
G1 X151.873Y-20.167Z-2.1
G1 X151.871Y-20.173Z-2.1
G1 X151.836Y-20.291Z-2.1
G1 X151.834Y-20.297Z-2.1
G1 X151.793Y-20.412Z-2.1
G1 X151.79Y-20.418Z-2.1
G1 X151.743Y-20.532Z-2.1
G1 X151.741Y-20.537Z-2.1
G1 X151.688Y-20.648Z-2.1
G1 X151.685Y-20.654Z-2.1
G1 X151.627Y-20.762Z-2.1
G1 X151.624Y-20.768Z-2.1
G1 X151.56Y-20.873Z-2.1
G1 X151.557Y-20.878Z-2.1
G1 X151.488Y-20.98Z-2.1
G1 X151.484Y-20.985Z-2.1
G1 X151.41Y-21.083Z-2.1
G1 X151.406Y-21.088Z-2.1
G1 X151.328Y-21.182Z-2.1
G1 X151.323Y-21.187Z-2.1
G1 X151.24Y-21.277Z-2.1
G1 X151.235Y-21.282Z-2.1
G1 X151.147Y-21.368Z-2.1
G1 X151.143Y-21.372Z-2.1
G1 X151.051Y-21.453Z-2.1
G1 X151.046Y-21.457Z-2.1
G1 X150.95Y-21.534Z-2.1
G1 X150.945Y-21.537Z-2.1
G1 X150.845Y-21.609Z-2.1
G1 X150.839Y-21.612Z-2.1
G1 X150.736Y-21.679Z-2.1
G1 X150.731Y-21.682Z-2.1
G1 X150.624Y-21.743Z-2.1
G1 X150.618Y-21.746Z-2.1
G1 X150.509Y-21.802Z-2.1
G1 X150.503Y-21.804Z-2.1
G1 X150.391Y-21.854Z-2.1
G1 X150.385Y-21.857Z-2.1
G1 X150.27Y-21.901Z-2.1
G1 X150.264Y-21.903Z-2.1
G1 X150.148Y-21.941Z-2.1
G1 X150.142Y-21.943Z-2.1
G1 X150.023Y-21.975Z-2.1
G1 X150.017Y-21.977Z-2.1
G1 X149.897Y-22.003Z-2.1
G1 X149.891Y-22.004Z-2.1
G1 X149.769Y-22.024Z-2.1
G1 X149.763Y-22.025Z-2.1
G1 X149.641Y-22.039Z-2.1
G1 X149.635Y-22.04Z-2.1
G1 X149.512Y-22.048Z-2.1
G1 X149.506Y-22.048Z-2.1
G1 X149.383Y-22.05Z-2.1
G1 X149.377Y-22.049Z-2.1
G1 X149.254Y-22.045Z-2.1
G1 X149.248Y-22.044Z-2.1
G1 X149.125Y-22.034Z-2.1
G1 X149.119Y-22.033Z-2.1
G1 X148.997Y-22.016Z-2.1
G1 X148.991Y-22.015Z-2.1
G1 X148.87Y-21.992Z-2.1
G1 X148.864Y-21.99Z-2.1
G1 X148.745Y-21.961Z-2.1
G1 X148.739Y-21.959Z-2.1
G1 X148.621Y-21.924Z-2.1
G1 X148.615Y-21.922Z-2.1
G1 X148.499Y-21.881Z-2.1
G1 X148.493Y-21.879Z-2.1
G1 X148.38Y-21.832Z-2.1
G1 X148.374Y-21.829Z-2.1
G1 X148.263Y-21.776Z-2.1
G1 X148.258Y-21.774Z-2.1
G1 X148.135Y-21.708Z-2.1
G1 X148.118Y-21.699Z-2.1
G1 X148.115Y-21.697Z-2.1
G1 X147.979Y-21.644Z-2.1
G1 X147.836Y-21.619Z-2.1
G1 X147.691Y-21.621Z-2.1
G1 X147.548Y-21.652Z-2.1
G1 X147.415Y-21.709Z-2.1
G1 X147.295Y-21.791Z-2.1
G1 X147.193Y-21.895Z-2.1
G1 X147.113Y-22.016Z-2.1
G1 X147.058Y-22.15Z-2.1
G1 X147.056Y-22.156Z-2.1
G1 X147.024Y-22.371Z-2.1
G1 X147.024Y-26.479Z-2.1
G1 X147.024Y-26.485Z-2.1
G1 X147.021Y-26.553Z-2.1
G1 X147.021Y-26.559Z-2.1
G1 X147.018Y-26.588Z-2.1
G1 X147.017Y-26.594Z-2.1
G1 X147.013Y-26.619Z-2.1
G1 X147.012Y-26.626Z-2.1
G1 X147.002Y-26.676Z-2.1
G1 X146.999Y-26.685Z-2.1
G1 X146.987Y-26.729Z-2.1
G1 X146.984Y-26.737Z-2.1
G1 X146.968Y-26.78Z-2.1
G1 X146.965Y-26.789Z-2.1
G1 X146.944Y-26.835Z-2.1
