; This file was generated with "Universal Gcode Sender 2.1.13"
;
; Tool: 2.99mm
; Depth per pass: 2.0mm
; Plunge speed: 100mm/min
; Safe height: 10.0mm
; Tool step over: 0.9mm

G21 ; millimeters
G90 ; absolute coordinate
G17 ; XY plane
G94 ; units per minute feed rate mode


; Ellipse - Center drill (1/320)
G0 Z10
G0 X184.211Y-31.6
G0 Z0
M3 S10800
G1 F100 Z0
G1 F100 Z-2
G0 Z0
G1 F100 Z-4
G0 Z0
G0 Z10
; Ellipse - Center drill (2/320)
G0 Z10
G0 X184.211Y-70.6
G0 Z0
M3 S10800
G1 F100 Z0
G1 F100 Z-2
G0 Z0
G1 F100 Z-4
G0 Z0
G0 Z10
; Ellipse - Center drill (3/320)
G0 Z10
G0 X183.611Y-34.1
G0 Z0
M3 S10800
G1 F100 Z0
G1 F100 Z-2
G0 Z0
G1 F100 Z-4
G0 Z0
G0 Z10
; Ellipse - Center drill (4/320)
G0 Z10
G0 X183.611Y-73.1
G0 Z0
M3 S10800
G1 F100 Z0
G1 F100 Z-2
G0 Z0
G1 F100 Z-4
G0 Z0
G0 Z10
; Ellipse - Center drill (5/320)
G0 Z10
G0 X174.946Y-28.51
G0 Z0
M3 S10800
G1 F100 Z0
G1 F100 Z-2
G0 Z0
G1 F100 Z-4
G0 Z0
G0 Z10
; Ellipse - Center drill (6/320)
G0 Z10
G0 X174.946Y-67.51
G0 Z0
M3 S10800
G1 F100 Z0
G1 F100 Z-2
G0 Z0
G1 F100 Z-4
G0 Z0
G0 Z10
; Ellipse - Center drill (7/320)
G0 Z10
G0 X174.911Y-26.7
G0 Z0
M3 S10800
G1 F100 Z0
G1 F100 Z-2
G0 Z0
G1 F100 Z-4
G0 Z0
G0 Z10
; Ellipse - Center drill (8/320)
G0 Z10
G0 X174.911Y-65.7
G0 Z0
M3 S10800
G1 F100 Z0
G1 F100 Z-2
G0 Z0
G1 F100 Z-4
G0 Z0
G0 Z10
; Ellipse - Center drill (9/320)
G0 Z10
G0 X174.706Y-38.805
G0 Z0
M3 S10800
G1 F100 Z0
G1 F100 Z-2
G0 Z0
G1 F100 Z-4
G0 Z0
G0 Z10
; Ellipse - Center drill (10/320)
G0 Z10
G0 X174.706Y-77.805
G0 Z0
M3 S10800
G1 F100 Z0
G1 F100 Z-2
G0 Z0
G1 F100 Z-4
G0 Z0
G0 Z10
; Ellipse - Center drill (11/320)
G0 Z10
G0 X168.011Y-46.7
G0 Z0
M3 S10800
G1 F100 Z0
G1 F100 Z-2
G0 Z0
G1 F100 Z-4
G0 Z0
G0 Z10
; Ellipse - Center drill (12/320)
G0 Z10
G0 X168.011Y-85.7
G0 Z0
M3 S10800
G1 F100 Z0
G1 F100 Z-2
G0 Z0
G1 F100 Z-4
G0 Z0
G0 Z10
; Ellipse - Center drill (13/320)
G0 Z10
G0 X137.937Y-31.6
G0 Z0
M3 S10800
G1 F100 Z0
G1 F100 Z-2
G0 Z0
G1 F100 Z-4
G0 Z0
G0 Z10
; Ellipse - Center drill (14/320)
G0 Z10
G0 X137.937Y-70.6
G0 Z0
M3 S10800
G1 F100 Z0
G1 F100 Z-2
G0 Z0
G1 F100 Z-4
G0 Z0
G0 Z10
; Ellipse - Center drill (15/320)
G0 Z10
G0 X137.337Y-34.1
G0 Z0
M3 S10800
G1 F100 Z0
G1 F100 Z-2
G0 Z0
G1 F100 Z-4
G0 Z0
G0 Z10
; Ellipse - Center drill (16/320)
G0 Z10
G0 X137.337Y-73.1
G0 Z0
M3 S10800
G1 F100 Z0
G1 F100 Z-2
G0 Z0
G1 F100 Z-4
G0 Z0
G0 Z10
; Ellipse - Center drill (17/320)
G0 Z10
G0 X128.672Y-28.51
G0 Z0
M3 S10800
G1 F100 Z0
G1 F100 Z-2
G0 Z0
G1 F100 Z-4
G0 Z0
G0 Z10
; Ellipse - Center drill (18/320)
G0 Z10
G0 X128.672Y-67.51
G0 Z0
M3 S10800
G1 F100 Z0
G1 F100 Z-2
G0 Z0
G1 F100 Z-4
G0 Z0
G0 Z10
; Ellipse - Center drill (19/320)
G0 Z10
G0 X128.637Y-26.7
G0 Z0
M3 S10800
G1 F100 Z0
G1 F100 Z-2
G0 Z0
G1 F100 Z-4
G0 Z0
G0 Z10
; Ellipse - Center drill (20/320)
G0 Z10
G0 X128.637Y-65.7
G0 Z0
M3 S10800
G1 F100 Z0
G1 F100 Z-2
G0 Z0
G1 F100 Z-4
G0 Z0
G0 Z10
; Ellipse - Center drill (21/320)
G0 Z10
G0 X128.431Y-38.805
G0 Z0
M3 S10800
G1 F100 Z0
G1 F100 Z-2
G0 Z0
G1 F100 Z-4
G0 Z0
G0 Z10
; Ellipse - Center drill (22/320)
G0 Z10
G0 X128.431Y-77.805
G0 Z0
M3 S10800
G1 F100 Z0
G1 F100 Z-2
G0 Z0
G1 F100 Z-4
G0 Z0
G0 Z10
; Ellipse - Center drill (23/320)
G0 Z10
G0 X121.737Y-46.7
G0 Z0
M3 S10800
G1 F100 Z0
G1 F100 Z-2
G0 Z0
G1 F100 Z-4
G0 Z0
G0 Z10
; Ellipse - Center drill (24/320)
G0 Z10
G0 X121.737Y-85.7
G0 Z0
M3 S10800
G1 F100 Z0
G1 F100 Z-2
G0 Z0
G1 F100 Z-4
G0 Z0
G0 Z10
; Ellipse - Center drill (25/320)
G0 Z10
G0 X91.663Y-31.6
G0 Z0
M3 S10800
G1 F100 Z0
G1 F100 Z-2
G0 Z0
G1 F100 Z-4
G0 Z0
G0 Z10
; Ellipse - Center drill (26/320)
G0 Z10
G0 X91.663Y-70.6
G0 Z0
M3 S10800
G1 F100 Z0
G1 F100 Z-2
G0 Z0
G1 F100 Z-4
G0 Z0
G0 Z10
; Ellipse - Center drill (27/320)
G0 Z10
G0 X91.063Y-34.1
G0 Z0
M3 S10800
G1 F100 Z0
G1 F100 Z-2
G0 Z0
G1 F100 Z-4
G0 Z0
G0 Z10
; Ellipse - Center drill (28/320)
G0 Z10
G0 X91.063Y-73.1
G0 Z0
M3 S10800
G1 F100 Z0
G1 F100 Z-2
G0 Z0
G1 F100 Z-4
G0 Z0
G0 Z10
; Ellipse - Center drill (29/320)
G0 Z10
G0 X82.398Y-28.51
G0 Z0
M3 S10800
G1 F100 Z0
G1 F100 Z-2
G0 Z0
G1 F100 Z-4
G0 Z0
G0 Z10
; Ellipse - Center drill (30/320)
G0 Z10
G0 X82.398Y-67.51
G0 Z0
M3 S10800
G1 F100 Z0
G1 F100 Z-2
G0 Z0
G1 F100 Z-4
G0 Z0
G0 Z10
; Ellipse - Center drill (31/320)
G0 Z10
G0 X82.363Y-26.7
G0 Z0
M3 S10800
G1 F100 Z0
G1 F100 Z-2
G0 Z0
G1 F100 Z-4
G0 Z0
G0 Z10
; Ellipse - Center drill (32/320)
G0 Z10
G0 X82.363Y-65.7
G0 Z0
M3 S10800
G1 F100 Z0
G1 F100 Z-2
G0 Z0
G1 F100 Z-4
G0 Z0
G0 Z10
; Ellipse - Center drill (33/320)
G0 Z10
G0 X82.157Y-38.805
G0 Z0
M3 S10800
G1 F100 Z0
G1 F100 Z-2
G0 Z0
G1 F100 Z-4
G0 Z0
G0 Z10
; Ellipse - Center drill (34/320)
G0 Z10
G0 X82.157Y-77.805
G0 Z0
M3 S10800
G1 F100 Z0
G1 F100 Z-2
G0 Z0
G1 F100 Z-4
G0 Z0
G0 Z10
; Ellipse - Center drill (35/320)
G0 Z10
G0 X75.463Y-46.7
G0 Z0
M3 S10800
G1 F100 Z0
G1 F100 Z-2
G0 Z0
G1 F100 Z-4
G0 Z0
G0 Z10
; Ellipse - Center drill (36/320)
G0 Z10
G0 X75.463Y-85.7
G0 Z0
M3 S10800
G1 F100 Z0
G1 F100 Z-2
G0 Z0
G1 F100 Z-4
G0 Z0
G0 Z10
; Ellipse - Center drill (37/320)
G0 Z10
G0 X45.388Y-31.6
G0 Z0
M3 S10800
G1 F100 Z0
G1 F100 Z-2
G0 Z0
G1 F100 Z-4
G0 Z0
G0 Z10
; Ellipse - Center drill (38/320)
G0 Z10
G0 X45.388Y-70.6
G0 Z0
M3 S10800
G1 F100 Z0
G1 F100 Z-2
G0 Z0
G1 F100 Z-4
G0 Z0
G0 Z10
; Ellipse - Center drill (39/320)
G0 Z10
G0 X44.788Y-34.1
G0 Z0
M3 S10800
G1 F100 Z0
G1 F100 Z-2
G0 Z0
G1 F100 Z-4
G0 Z0
G0 Z10
; Ellipse - Center drill (40/320)
G0 Z10
G0 X44.788Y-73.1
G0 Z0
M3 S10800
G1 F100 Z0
G1 F100 Z-2
G0 Z0
G1 F100 Z-4
G0 Z0
G0 Z10
; Ellipse - Center drill (41/320)
G0 Z10
G0 X36.123Y-28.51
G0 Z0
M3 S10800
G1 F100 Z0
G1 F100 Z-2
G0 Z0
G1 F100 Z-4
G0 Z0
G0 Z10
; Ellipse - Center drill (42/320)
G0 Z10
G0 X36.123Y-67.51
G0 Z0
M3 S10800
G1 F100 Z0
G1 F100 Z-2
G0 Z0
G1 F100 Z-4
G0 Z0
G0 Z10
; Ellipse - Center drill (43/320)
G0 Z10
G0 X36.088Y-26.7
G0 Z0
M3 S10800
G1 F100 Z0
G1 F100 Z-2
G0 Z0
G1 F100 Z-4
G0 Z0
G0 Z10
; Ellipse - Center drill (44/320)
G0 Z10
G0 X36.088Y-65.7
G0 Z0
M3 S10800
G1 F100 Z0
G1 F100 Z-2
G0 Z0
G1 F100 Z-4
G0 Z0
G0 Z10
; Ellipse - Center drill (45/320)
G0 Z10
G0 X35.883Y-38.805
G0 Z0
M3 S10800
G1 F100 Z0
G1 F100 Z-2
G0 Z0
G1 F100 Z-4
G0 Z0
G0 Z10
; Ellipse - Center drill (46/320)
G0 Z10
G0 X35.883Y-77.805
G0 Z0
M3 S10800
G1 F100 Z0
G1 F100 Z-2
G0 Z0
G1 F100 Z-4
G0 Z0
G0 Z10
; Ellipse - Center drill (47/320)
G0 Z10
G0 X29.188Y-46.7
G0 Z0
M3 S10800
G1 F100 Z0
G1 F100 Z-2
G0 Z0
G1 F100 Z-4
G0 Z0
G0 Z10
; Ellipse - Center drill (48/320)
G0 Z10
G0 X29.188Y-85.7
G0 Z0
M3 S10800
G1 F100 Z0
G1 F100 Z-2
G0 Z0
G1 F100 Z-4
G0 Z0
G0 Z10
; Ellipse - Center drill (49/320)
G0 Z10
G0 X189.411Y-26.7
G0 Z0
M3 S10800
G1 F100 Z0
G1 F100 Z-2
G0 Z0
G1 F100 Z-4
G0 Z0
G0 Z10
; Ellipse - Center drill (50/320)
G0 Z10
G0 X189.411Y-34.32
G0 Z0
M3 S10800
G1 F100 Z0
G1 F100 Z-2
G0 Z0
G1 F100 Z-4
G0 Z0
G0 Z10
; Ellipse - Center drill (51/320)
G0 Z10
G0 X189.411Y-65.7
G0 Z0
M3 S10800
G1 F100 Z0
G1 F100 Z-2
G0 Z0
G1 F100 Z-4
G0 Z0
G0 Z10
; Ellipse - Center drill (52/320)
G0 Z10
G0 X189.411Y-73.32
G0 Z0
M3 S10800
G1 F100 Z0
G1 F100 Z-2
G0 Z0
G1 F100 Z-4
G0 Z0
G0 Z10
; Ellipse - Center drill (53/320)
G0 Z10
G0 X186.871Y-26.7
G0 Z0
M3 S10800
G1 F100 Z0
G1 F100 Z-2
G0 Z0
G1 F100 Z-4
G0 Z0
G0 Z10
; Ellipse - Center drill (54/320)
G0 Z10
G0 X186.871Y-34.32
G0 Z0
M3 S10800
G1 F100 Z0
G1 F100 Z-2
G0 Z0
G1 F100 Z-4
G0 Z0
G0 Z10
; Ellipse - Center drill (55/320)
G0 Z10
G0 X186.871Y-65.7
G0 Z0
M3 S10800
G1 F100 Z0
G1 F100 Z-2
G0 Z0
G1 F100 Z-4
G0 Z0
G0 Z10
; Ellipse - Center drill (56/320)
G0 Z10
G0 X186.871Y-73.32
G0 Z0
M3 S10800
G1 F100 Z0
G1 F100 Z-2
G0 Z0
G1 F100 Z-4
G0 Z0
G0 Z10
; Ellipse - Center drill (57/320)
G0 Z10
G0 X182.211Y-26.7
G0 Z0
M3 S10800
G1 F100 Z0
G1 F100 Z-2
G0 Z0
G1 F100 Z-4
G0 Z0
G0 Z10
; Ellipse - Center drill (58/320)
G0 Z10
G0 X182.211Y-65.7
G0 Z0
M3 S10800
G1 F100 Z0
G1 F100 Z-2
G0 Z0
G1 F100 Z-4
G0 Z0
G0 Z10
; Ellipse - Center drill (59/320)
G0 Z10
G0 X182.011Y-39.48
G0 Z0
M3 S10800
G1 F100 Z0
G1 F100 Z-2
G0 Z0
G1 F100 Z-4
G0 Z0
G0 Z10
; Ellipse - Center drill (60/320)
G0 Z10
G0 X182.011Y-47.1
G0 Z0
M3 S10800
G1 F100 Z0
G1 F100 Z-2
G0 Z0
G1 F100 Z-4
G0 Z0
G0 Z10
; Ellipse - Center drill (61/320)
G0 Z10
G0 X182.011Y-78.48
G0 Z0
M3 S10800
G1 F100 Z0
G1 F100 Z-2
G0 Z0
G1 F100 Z-4
G0 Z0
G0 Z10
; Ellipse - Center drill (62/320)
G0 Z10
G0 X182.011Y-86.1
G0 Z0
M3 S10800
G1 F100 Z0
G1 F100 Z-2
G0 Z0
G1 F100 Z-4
G0 Z0
G0 Z10
; Ellipse - Center drill (63/320)
G0 Z10
G0 X179.711Y-26.7
G0 Z0
M3 S10800
G1 F100 Z0
G1 F100 Z-2
G0 Z0
G1 F100 Z-4
G0 Z0
G0 Z10
; Ellipse - Center drill (64/320)
G0 Z10
G0 X179.711Y-65.7
G0 Z0
M3 S10800
G1 F100 Z0
G1 F100 Z-2
G0 Z0
G1 F100 Z-4
G0 Z0
G0 Z10
; Ellipse - Center drill (65/320)
G0 Z10
G0 X179.471Y-39.48
G0 Z0
M3 S10800
G1 F100 Z0
G1 F100 Z-2
G0 Z0
G1 F100 Z-4
G0 Z0
G0 Z10
; Ellipse - Center drill (66/320)
G0 Z10
G0 X179.471Y-47.1
G0 Z0
M3 S10800
G1 F100 Z0
G1 F100 Z-2
G0 Z0
G1 F100 Z-4
G0 Z0
G0 Z10
; Ellipse - Center drill (67/320)
G0 Z10
G0 X179.471Y-78.48
G0 Z0
M3 S10800
G1 F100 Z0
G1 F100 Z-2
G0 Z0
G1 F100 Z-4
G0 Z0
G0 Z10
; Ellipse - Center drill (68/320)
G0 Z10
G0 X179.471Y-86.1
G0 Z0
M3 S10800
G1 F100 Z0
G1 F100 Z-2
G0 Z0
G1 F100 Z-4
G0 Z0
G0 Z10
; Ellipse - Center drill (69/320)
G0 Z10
G0 X166.611Y-23.9
G0 Z0
M3 S10800
G1 F100 Z0
G1 F100 Z-2
G0 Z0
G1 F100 Z-4
G0 Z0
G0 Z10
; Ellipse - Center drill (70/320)
G0 Z10
G0 X166.611Y-39.14
G0 Z0
M3 S10800
G1 F100 Z0
G1 F100 Z-2
G0 Z0
G1 F100 Z-4
G0 Z0
G0 Z10
; Ellipse - Center drill (71/320)
G0 Z10
G0 X166.611Y-62.9
G0 Z0
M3 S10800
G1 F100 Z0
G1 F100 Z-2
G0 Z0
G1 F100 Z-4
G0 Z0
G0 Z10
; Ellipse - Center drill (72/320)
G0 Z10
G0 X166.611Y-78.14
G0 Z0
M3 S10800
G1 F100 Z0
G1 F100 Z-2
G0 Z0
G1 F100 Z-4
G0 Z0
G0 Z10
; Ellipse - Center drill (73/320)
G0 Z10
G0 X163.211Y-40.4
G0 Z0
M3 S10800
G1 F100 Z0
G1 F100 Z-2
G0 Z0
G1 F100 Z-4
G0 Z0
G0 Z10
; Ellipse - Center drill (74/320)
G0 Z10
G0 X163.211Y-79.4
G0 Z0
M3 S10800
G1 F100 Z0
G1 F100 Z-2
G0 Z0
G1 F100 Z-4
G0 Z0
G0 Z10
; Ellipse - Center drill (75/320)
G0 Z10
G0 X160.671Y-40.4
G0 Z0
M3 S10800
G1 F100 Z0
G1 F100 Z-2
G0 Z0
G1 F100 Z-4
G0 Z0
G0 Z10
; Ellipse - Center drill (76/320)
G0 Z10
G0 X160.671Y-79.4
G0 Z0
M3 S10800
G1 F100 Z0
G1 F100 Z-2
G0 Z0
G1 F100 Z-4
G0 Z0
G0 Z10
; Ellipse - Center drill (77/320)
G0 Z10
G0 X143.137Y-26.7
G0 Z0
M3 S10800
G1 F100 Z0
G1 F100 Z-2
G0 Z0
G1 F100 Z-4
G0 Z0
G0 Z10
; Ellipse - Center drill (78/320)
G0 Z10
G0 X143.137Y-34.32
G0 Z0
M3 S10800
G1 F100 Z0
G1 F100 Z-2
G0 Z0
G1 F100 Z-4
G0 Z0
G0 Z10
; Ellipse - Center drill (79/320)
G0 Z10
G0 X143.137Y-65.7
G0 Z0
M3 S10800
G1 F100 Z0
G1 F100 Z-2
G0 Z0
G1 F100 Z-4
G0 Z0
G0 Z10
; Ellipse - Center drill (80/320)
G0 Z10
G0 X143.137Y-73.32
G0 Z0
M3 S10800
G1 F100 Z0
G1 F100 Z-2
G0 Z0
G1 F100 Z-4
G0 Z0
G0 Z10
; Ellipse - Center drill (81/320)
G0 Z10
G0 X140.597Y-26.7
G0 Z0
M3 S10800
G1 F100 Z0
G1 F100 Z-2
G0 Z0
G1 F100 Z-4
G0 Z0
G0 Z10
; Ellipse - Center drill (82/320)
G0 Z10
G0 X140.597Y-34.32
G0 Z0
M3 S10800
G1 F100 Z0
G1 F100 Z-2
G0 Z0
G1 F100 Z-4
G0 Z0
G0 Z10
; Ellipse - Center drill (83/320)
G0 Z10
G0 X140.597Y-65.7
G0 Z0
M3 S10800
G1 F100 Z0
G1 F100 Z-2
G0 Z0
G1 F100 Z-4
G0 Z0
G0 Z10
; Ellipse - Center drill (84/320)
G0 Z10
G0 X140.597Y-73.32
G0 Z0
M3 S10800
G1 F100 Z0
G1 F100 Z-2
G0 Z0
G1 F100 Z-4
G0 Z0
G0 Z10
; Ellipse - Center drill (85/320)
G0 Z10
G0 X135.937Y-26.7
G0 Z0
M3 S10800
G1 F100 Z0
G1 F100 Z-2
G0 Z0
G1 F100 Z-4
G0 Z0
G0 Z10
; Ellipse - Center drill (86/320)
G0 Z10
G0 X135.937Y-65.7
G0 Z0
M3 S10800
G1 F100 Z0
G1 F100 Z-2
G0 Z0
G1 F100 Z-4
G0 Z0
G0 Z10
; Ellipse - Center drill (87/320)
G0 Z10
G0 X135.737Y-39.48
G0 Z0
M3 S10800
G1 F100 Z0
G1 F100 Z-2
G0 Z0
G1 F100 Z-4
G0 Z0
G0 Z10
; Ellipse - Center drill (88/320)
G0 Z10
G0 X135.737Y-47.1
G0 Z0
M3 S10800
G1 F100 Z0
G1 F100 Z-2
G0 Z0
G1 F100 Z-4
G0 Z0
G0 Z10
; Ellipse - Center drill (89/320)
G0 Z10
G0 X135.737Y-78.48
G0 Z0
M3 S10800
G1 F100 Z0
G1 F100 Z-2
G0 Z0
G1 F100 Z-4
G0 Z0
G0 Z10
; Ellipse - Center drill (90/320)
G0 Z10
G0 X135.737Y-86.1
G0 Z0
M3 S10800
G1 F100 Z0
G1 F100 Z-2
G0 Z0
G1 F100 Z-4
G0 Z0
G0 Z10
; Ellipse - Center drill (91/320)
G0 Z10
G0 X133.437Y-26.7
G0 Z0
M3 S10800
G1 F100 Z0
G1 F100 Z-2
G0 Z0
G1 F100 Z-4
G0 Z0
G0 Z10
; Ellipse - Center drill (92/320)
G0 Z10
G0 X133.437Y-65.7
G0 Z0
M3 S10800
G1 F100 Z0
G1 F100 Z-2
G0 Z0
G1 F100 Z-4
G0 Z0
G0 Z10
; Ellipse - Center drill (93/320)
G0 Z10
G0 X133.197Y-39.48
G0 Z0
M3 S10800
G1 F100 Z0
G1 F100 Z-2
G0 Z0
G1 F100 Z-4
G0 Z0
G0 Z10
; Ellipse - Center drill (94/320)
G0 Z10
G0 X133.197Y-47.1
G0 Z0
M3 S10800
G1 F100 Z0
G1 F100 Z-2
G0 Z0
G1 F100 Z-4
G0 Z0
G0 Z10
; Ellipse - Center drill (95/320)
G0 Z10
G0 X133.197Y-78.48
G0 Z0
M3 S10800
G1 F100 Z0
G1 F100 Z-2
G0 Z0
G1 F100 Z-4
G0 Z0
G0 Z10
; Ellipse - Center drill (96/320)
G0 Z10
G0 X133.197Y-86.1
G0 Z0
M3 S10800
G1 F100 Z0
G1 F100 Z-2
G0 Z0
G1 F100 Z-4
G0 Z0
G0 Z10
; Ellipse - Center drill (97/320)
G0 Z10
G0 X120.337Y-23.9
G0 Z0
M3 S10800
G1 F100 Z0
G1 F100 Z-2
G0 Z0
G1 F100 Z-4
G0 Z0
G0 Z10
; Ellipse - Center drill (98/320)
G0 Z10
G0 X120.337Y-39.14
G0 Z0
M3 S10800
G1 F100 Z0
G1 F100 Z-2
G0 Z0
G1 F100 Z-4
G0 Z0
G0 Z10
; Ellipse - Center drill (99/320)
G0 Z10
G0 X120.337Y-62.9
G0 Z0
M3 S10800
G1 F100 Z0
G1 F100 Z-2
G0 Z0
G1 F100 Z-4
G0 Z0
G0 Z10
; Ellipse - Center drill (100/320)
G0 Z10
G0 X120.337Y-78.14
G0 Z0
M3 S10800
G1 F100 Z0
G1 F100 Z-2
G0 Z0
G1 F100 Z-4
G0 Z0
G0 Z10
; Ellipse - Center drill (101/320)
G0 Z10
G0 X116.937Y-40.4
G0 Z0
M3 S10800
G1 F100 Z0
G1 F100 Z-2
G0 Z0
G1 F100 Z-4
G0 Z0
G0 Z10
; Ellipse - Center drill (102/320)
G0 Z10
G0 X116.937Y-79.4
G0 Z0
M3 S10800
G1 F100 Z0
G1 F100 Z-2
G0 Z0
G1 F100 Z-4
G0 Z0
G0 Z10
; Ellipse - Center drill (103/320)
G0 Z10
G0 X114.397Y-40.4
G0 Z0
M3 S10800
G1 F100 Z0
G1 F100 Z-2
G0 Z0
G1 F100 Z-4
G0 Z0
G0 Z10
; Ellipse - Center drill (104/320)
G0 Z10
G0 X114.397Y-79.4
G0 Z0
M3 S10800
G1 F100 Z0
G1 F100 Z-2
G0 Z0
G1 F100 Z-4
G0 Z0
G0 Z10
; Ellipse - Center drill (105/320)
G0 Z10
G0 X96.863Y-26.7
G0 Z0
M3 S10800
G1 F100 Z0
G1 F100 Z-2
G0 Z0
G1 F100 Z-4
G0 Z0
G0 Z10
; Ellipse - Center drill (106/320)
G0 Z10
G0 X96.863Y-34.32
G0 Z0
M3 S10800
G1 F100 Z0
G1 F100 Z-2
G0 Z0
G1 F100 Z-4
G0 Z0
G0 Z10
; Ellipse - Center drill (107/320)
G0 Z10
G0 X96.863Y-65.7
G0 Z0
M3 S10800
G1 F100 Z0
G1 F100 Z-2
G0 Z0
G1 F100 Z-4
G0 Z0
G0 Z10
; Ellipse - Center drill (108/320)
G0 Z10
G0 X96.863Y-73.32
G0 Z0
M3 S10800
G1 F100 Z0
G1 F100 Z-2
G0 Z0
G1 F100 Z-4
G0 Z0
G0 Z10
; Ellipse - Center drill (109/320)
G0 Z10
G0 X94.323Y-26.7
G0 Z0
M3 S10800
G1 F100 Z0
G1 F100 Z-2
G0 Z0
G1 F100 Z-4
G0 Z0
G0 Z10
; Ellipse - Center drill (110/320)
G0 Z10
G0 X94.323Y-34.32
G0 Z0
M3 S10800
G1 F100 Z0
G1 F100 Z-2
G0 Z0
G1 F100 Z-4
G0 Z0
G0 Z10
; Ellipse - Center drill (111/320)
G0 Z10
G0 X94.323Y-65.7
G0 Z0
M3 S10800
G1 F100 Z0
G1 F100 Z-2
G0 Z0
G1 F100 Z-4
G0 Z0
G0 Z10
; Ellipse - Center drill (112/320)
G0 Z10
G0 X94.323Y-73.32
G0 Z0
M3 S10800
G1 F100 Z0
G1 F100 Z-2
G0 Z0
G1 F100 Z-4
G0 Z0
G0 Z10
; Ellipse - Center drill (113/320)
G0 Z10
G0 X89.663Y-26.7
G0 Z0
M3 S10800
G1 F100 Z0
G1 F100 Z-2
G0 Z0
G1 F100 Z-4
G0 Z0
G0 Z10
; Ellipse - Center drill (114/320)
G0 Z10
G0 X89.663Y-65.7
G0 Z0
M3 S10800
G1 F100 Z0
G1 F100 Z-2
G0 Z0
G1 F100 Z-4
G0 Z0
G0 Z10
; Ellipse - Center drill (115/320)
G0 Z10
G0 X89.463Y-39.48
G0 Z0
M3 S10800
G1 F100 Z0
G1 F100 Z-2
G0 Z0
G1 F100 Z-4
G0 Z0
G0 Z10
; Ellipse - Center drill (116/320)
G0 Z10
G0 X89.463Y-47.1
G0 Z0
M3 S10800
G1 F100 Z0
G1 F100 Z-2
G0 Z0
G1 F100 Z-4
G0 Z0
G0 Z10
; Ellipse - Center drill (117/320)
G0 Z10
G0 X89.463Y-78.48
G0 Z0
M3 S10800
G1 F100 Z0
G1 F100 Z-2
G0 Z0
G1 F100 Z-4
G0 Z0
G0 Z10
; Ellipse - Center drill (118/320)
G0 Z10
G0 X89.463Y-86.1
G0 Z0
M3 S10800
G1 F100 Z0
G1 F100 Z-2
G0 Z0
G1 F100 Z-4
G0 Z0
G0 Z10
; Ellipse - Center drill (119/320)
G0 Z10
G0 X87.163Y-26.7
G0 Z0
M3 S10800
G1 F100 Z0
G1 F100 Z-2
G0 Z0
G1 F100 Z-4
G0 Z0
G0 Z10
; Ellipse - Center drill (120/320)
G0 Z10
G0 X87.163Y-65.7
G0 Z0
M3 S10800
G1 F100 Z0
G1 F100 Z-2
G0 Z0
G1 F100 Z-4
G0 Z0
G0 Z10
; Ellipse - Center drill (121/320)
G0 Z10
G0 X86.923Y-39.48
G0 Z0
M3 S10800
G1 F100 Z0
G1 F100 Z-2
G0 Z0
G1 F100 Z-4
G0 Z0
G0 Z10
; Ellipse - Center drill (122/320)
G0 Z10
G0 X86.923Y-47.1
G0 Z0
M3 S10800
G1 F100 Z0
G1 F100 Z-2
G0 Z0
G1 F100 Z-4
G0 Z0
G0 Z10
; Ellipse - Center drill (123/320)
G0 Z10
G0 X86.923Y-78.48
G0 Z0
M3 S10800
G1 F100 Z0
G1 F100 Z-2
G0 Z0
G1 F100 Z-4
G0 Z0
G0 Z10
; Ellipse - Center drill (124/320)
G0 Z10
G0 X86.923Y-86.1
G0 Z0
M3 S10800
G1 F100 Z0
G1 F100 Z-2
G0 Z0
G1 F100 Z-4
G0 Z0
G0 Z10
; Ellipse - Center drill (125/320)
G0 Z10
G0 X74.063Y-23.9
G0 Z0
M3 S10800
G1 F100 Z0
G1 F100 Z-2
G0 Z0
G1 F100 Z-4
G0 Z0
G0 Z10
; Ellipse - Center drill (126/320)
G0 Z10
G0 X74.063Y-39.14
G0 Z0
M3 S10800
G1 F100 Z0
G1 F100 Z-2
G0 Z0
G1 F100 Z-4
G0 Z0
G0 Z10
; Ellipse - Center drill (127/320)
G0 Z10
G0 X74.063Y-62.9
G0 Z0
M3 S10800
G1 F100 Z0
G1 F100 Z-2
G0 Z0
G1 F100 Z-4
G0 Z0
G0 Z10
; Ellipse - Center drill (128/320)
G0 Z10
G0 X74.063Y-78.14
G0 Z0
M3 S10800
G1 F100 Z0
G1 F100 Z-2
G0 Z0
G1 F100 Z-4
G0 Z0
G0 Z10
; Ellipse - Center drill (129/320)
G0 Z10
G0 X70.663Y-40.4
G0 Z0
M3 S10800
G1 F100 Z0
G1 F100 Z-2
G0 Z0
G1 F100 Z-4
G0 Z0
G0 Z10
; Ellipse - Center drill (130/320)
G0 Z10
G0 X70.663Y-79.4
G0 Z0
M3 S10800
G1 F100 Z0
G1 F100 Z-2
G0 Z0
G1 F100 Z-4
G0 Z0
G0 Z10
; Ellipse - Center drill (131/320)
G0 Z10
G0 X68.123Y-40.4
G0 Z0
M3 S10800
G1 F100 Z0
G1 F100 Z-2
G0 Z0
G1 F100 Z-4
G0 Z0
G0 Z10
; Ellipse - Center drill (132/320)
G0 Z10
G0 X68.123Y-79.4
G0 Z0
M3 S10800
G1 F100 Z0
G1 F100 Z-2
G0 Z0
G1 F100 Z-4
G0 Z0
G0 Z10
; Ellipse - Center drill (133/320)
G0 Z10
G0 X50.588Y-26.7
G0 Z0
M3 S10800
G1 F100 Z0
G1 F100 Z-2
G0 Z0
G1 F100 Z-4
G0 Z0
G0 Z10
; Ellipse - Center drill (134/320)
G0 Z10
G0 X50.588Y-34.32
G0 Z0
M3 S10800
G1 F100 Z0
G1 F100 Z-2
G0 Z0
G1 F100 Z-4
G0 Z0
G0 Z10
; Ellipse - Center drill (135/320)
G0 Z10
G0 X50.588Y-65.7
G0 Z0
M3 S10800
G1 F100 Z0
G1 F100 Z-2
G0 Z0
G1 F100 Z-4
G0 Z0
G0 Z10
; Ellipse - Center drill (136/320)
G0 Z10
G0 X50.588Y-73.32
G0 Z0
M3 S10800
G1 F100 Z0
G1 F100 Z-2
G0 Z0
G1 F100 Z-4
G0 Z0
G0 Z10
; Ellipse - Center drill (137/320)
G0 Z10
G0 X48.048Y-26.7
G0 Z0
M3 S10800
G1 F100 Z0
G1 F100 Z-2
G0 Z0
G1 F100 Z-4
G0 Z0
G0 Z10
; Ellipse - Center drill (138/320)
G0 Z10
G0 X48.048Y-34.32
G0 Z0
M3 S10800
G1 F100 Z0
G1 F100 Z-2
G0 Z0
G1 F100 Z-4
G0 Z0
G0 Z10
; Ellipse - Center drill (139/320)
G0 Z10
G0 X48.048Y-65.7
G0 Z0
M3 S10800
G1 F100 Z0
G1 F100 Z-2
G0 Z0
G1 F100 Z-4
G0 Z0
G0 Z10
; Ellipse - Center drill (140/320)
G0 Z10
G0 X48.048Y-73.32
G0 Z0
M3 S10800
G1 F100 Z0
G1 F100 Z-2
G0 Z0
G1 F100 Z-4
G0 Z0
G0 Z10
; Ellipse - Center drill (141/320)
G0 Z10
G0 X43.388Y-26.7
G0 Z0
M3 S10800
G1 F100 Z0
G1 F100 Z-2
G0 Z0
G1 F100 Z-4
G0 Z0
G0 Z10
; Ellipse - Center drill (142/320)
G0 Z10
G0 X43.388Y-65.7
G0 Z0
M3 S10800
G1 F100 Z0
G1 F100 Z-2
G0 Z0
G1 F100 Z-4
G0 Z0
G0 Z10
; Ellipse - Center drill (143/320)
G0 Z10
G0 X43.188Y-39.48
G0 Z0
M3 S10800
G1 F100 Z0
G1 F100 Z-2
G0 Z0
G1 F100 Z-4
G0 Z0
G0 Z10
; Ellipse - Center drill (144/320)
G0 Z10
G0 X43.188Y-47.1
G0 Z0
M3 S10800
G1 F100 Z0
G1 F100 Z-2
G0 Z0
G1 F100 Z-4
G0 Z0
G0 Z10
; Ellipse - Center drill (145/320)
G0 Z10
G0 X43.188Y-78.48
G0 Z0
M3 S10800
G1 F100 Z0
G1 F100 Z-2
G0 Z0
G1 F100 Z-4
G0 Z0
G0 Z10
; Ellipse - Center drill (146/320)
G0 Z10
G0 X43.188Y-86.1
G0 Z0
M3 S10800
G1 F100 Z0
G1 F100 Z-2
G0 Z0
G1 F100 Z-4
G0 Z0
G0 Z10
; Ellipse - Center drill (147/320)
G0 Z10
G0 X40.888Y-26.7
G0 Z0
M3 S10800
G1 F100 Z0
G1 F100 Z-2
G0 Z0
G1 F100 Z-4
G0 Z0
G0 Z10
; Ellipse - Center drill (148/320)
G0 Z10
G0 X40.888Y-65.7
G0 Z0
M3 S10800
G1 F100 Z0
G1 F100 Z-2
G0 Z0
G1 F100 Z-4
G0 Z0
G0 Z10
; Ellipse - Center drill (149/320)
G0 Z10
G0 X40.648Y-39.48
G0 Z0
M3 S10800
G1 F100 Z0
G1 F100 Z-2
G0 Z0
G1 F100 Z-4
G0 Z0
G0 Z10
; Ellipse - Center drill (150/320)
G0 Z10
G0 X40.648Y-47.1
G0 Z0
M3 S10800
G1 F100 Z0
G1 F100 Z-2
G0 Z0
G1 F100 Z-4
G0 Z0
G0 Z10
; Ellipse - Center drill (151/320)
G0 Z10
G0 X40.648Y-78.48
G0 Z0
M3 S10800
G1 F100 Z0
G1 F100 Z-2
G0 Z0
G1 F100 Z-4
G0 Z0
G0 Z10
; Ellipse - Center drill (152/320)
G0 Z10
G0 X40.648Y-86.1
G0 Z0
M3 S10800
G1 F100 Z0
G1 F100 Z-2
G0 Z0
G1 F100 Z-4
G0 Z0
G0 Z10
; Ellipse - Center drill (153/320)
G0 Z10
G0 X27.788Y-23.9
G0 Z0
M3 S10800
G1 F100 Z0
G1 F100 Z-2
G0 Z0
G1 F100 Z-4
G0 Z0
G0 Z10
; Ellipse - Center drill (154/320)
G0 Z10
G0 X27.788Y-39.14
G0 Z0
M3 S10800
G1 F100 Z0
G1 F100 Z-2
G0 Z0
G1 F100 Z-4
G0 Z0
G0 Z10
; Ellipse - Center drill (155/320)
G0 Z10
G0 X27.788Y-62.9
G0 Z0
M3 S10800
G1 F100 Z0
G1 F100 Z-2
G0 Z0
G1 F100 Z-4
G0 Z0
G0 Z10
; Ellipse - Center drill (156/320)
G0 Z10
G0 X27.788Y-78.14
G0 Z0
M3 S10800
G1 F100 Z0
G1 F100 Z-2
G0 Z0
G1 F100 Z-4
G0 Z0
G0 Z10
; Ellipse - Center drill (157/320)
G0 Z10
G0 X24.388Y-40.4
G0 Z0
M3 S10800
G1 F100 Z0
G1 F100 Z-2
G0 Z0
G1 F100 Z-4
G0 Z0
G0 Z10
; Ellipse - Center drill (158/320)
G0 Z10
G0 X24.388Y-79.4
G0 Z0
M3 S10800
G1 F100 Z0
G1 F100 Z-2
G0 Z0
G1 F100 Z-4
G0 Z0
G0 Z10
; Ellipse - Center drill (159/320)
G0 Z10
G0 X21.848Y-40.4
G0 Z0
M3 S10800
G1 F100 Z0
G1 F100 Z-2
G0 Z0
G1 F100 Z-4
G0 Z0
G0 Z10
; Ellipse - Center drill (160/320)
G0 Z10
G0 X21.848Y-79.4
G0 Z0
M3 S10800
G1 F100 Z0
G1 F100 Z-2
G0 Z0
G1 F100 Z-4
G0 Z0
G0 Z10
; Ellipse - Center drill (161/320)
G0 Z10
G0 X191.148Y-33.501
G0 Z0
M3 S10800
G1 F100 Z0
G1 F100 Z-2
G0 Z0
G1 F100 Z-4
G0 Z0
G0 Z10
; Ellipse - Center drill (162/320)
G0 Z10
G0 X191.148Y-72.501
G0 Z0
M3 S10800
G1 F100 Z0
G1 F100 Z-2
G0 Z0
G1 F100 Z-4
G0 Z0
G0 Z10
; Ellipse - Center drill (163/320)
G0 Z10
G0 X191.148Y-32.001
G0 Z0
M3 S10800
G1 F100 Z0
G1 F100 Z-2
G0 Z0
G1 F100 Z-4
G0 Z0
G0 Z10
; Ellipse - Center drill (164/320)
G0 Z10
G0 X191.148Y-71.001
G0 Z0
M3 S10800
G1 F100 Z0
G1 F100 Z-2
G0 Z0
G1 F100 Z-4
G0 Z0
G0 Z10
; Ellipse - Center drill (165/320)
G0 Z10
G0 X191.148Y-30.5
G0 Z0
M3 S10800
G1 F100 Z0
G1 F100 Z-2
G0 Z0
G1 F100 Z-4
G0 Z0
G0 Z10
; Ellipse - Center drill (166/320)
G0 Z10
G0 X191.148Y-69.5
G0 Z0
M3 S10800
G1 F100 Z0
G1 F100 Z-2
G0 Z0
G1 F100 Z-4
G0 Z0
G0 Z10
; Ellipse - Center drill (167/320)
G0 Z10
G0 X191.148Y-29
G0 Z0
M3 S10800
G1 F100 Z0
G1 F100 Z-2
G0 Z0
G1 F100 Z-4
G0 Z0
G0 Z10
; Ellipse - Center drill (168/320)
G0 Z10
G0 X191.148Y-68
G0 Z0
M3 S10800
G1 F100 Z0
G1 F100 Z-2
G0 Z0
G1 F100 Z-4
G0 Z0
G0 Z10
; Ellipse - Center drill (169/320)
G0 Z10
G0 X191.148Y-27.499
G0 Z0
M3 S10800
G1 F100 Z0
G1 F100 Z-2
G0 Z0
G1 F100 Z-4
G0 Z0
G0 Z10
; Ellipse - Center drill (170/320)
G0 Z10
G0 X191.148Y-66.499
G0 Z0
M3 S10800
G1 F100 Z0
G1 F100 Z-2
G0 Z0
G1 F100 Z-4
G0 Z0
G0 Z10
; Ellipse - Center drill (171/320)
G0 Z10
G0 X172.412Y-12.4
G0 Z0
M3 S10800
G1 F100 Z0
G1 F100 Z-2
G0 Z0
G1 F100 Z-4
G0 Z0
G0 Z10
; Ellipse - Center drill (172/320)
G0 Z10
G0 X172.412Y-48.6
G0 Z0
M3 S10800
G1 F100 Z0
G1 F100 Z-2
G0 Z0
G1 F100 Z-4
G0 Z0
G0 Z10
; Ellipse - Center drill (173/320)
G0 Z10
G0 X172.412Y-51.4
G0 Z0
M3 S10800
G1 F100 Z0
G1 F100 Z-2
G0 Z0
G1 F100 Z-4
G0 Z0
G0 Z10
; Ellipse - Center drill (174/320)
G0 Z10
G0 X172.412Y-87.6
G0 Z0
M3 S10800
G1 F100 Z0
G1 F100 Z-2
G0 Z0
G1 F100 Z-4
G0 Z0
G0 Z10
; Ellipse - Center drill (175/320)
G0 Z10
G0 X170.912Y-12.4
G0 Z0
M3 S10800
G1 F100 Z0
G1 F100 Z-2
G0 Z0
G1 F100 Z-4
G0 Z0
G0 Z10
; Ellipse - Center drill (176/320)
G0 Z10
G0 X170.912Y-48.6
G0 Z0
M3 S10800
G1 F100 Z0
G1 F100 Z-2
G0 Z0
G1 F100 Z-4
G0 Z0
G0 Z10
; Ellipse - Center drill (177/320)
G0 Z10
G0 X170.912Y-51.4
G0 Z0
M3 S10800
G1 F100 Z0
G1 F100 Z-2
G0 Z0
G1 F100 Z-4
G0 Z0
G0 Z10
; Ellipse - Center drill (178/320)
G0 Z10
G0 X170.912Y-87.6
G0 Z0
M3 S10800
G1 F100 Z0
G1 F100 Z-2
G0 Z0
G1 F100 Z-4
G0 Z0
G0 Z10
; Ellipse - Center drill (179/320)
G0 Z10
G0 X169.411Y-12.4
G0 Z0
M3 S10800
G1 F100 Z0
G1 F100 Z-2
G0 Z0
G1 F100 Z-4
G0 Z0
G0 Z10
; Ellipse - Center drill (180/320)
G0 Z10
G0 X169.411Y-48.6
G0 Z0
M3 S10800
G1 F100 Z0
G1 F100 Z-2
G0 Z0
G1 F100 Z-4
G0 Z0
G0 Z10
; Ellipse - Center drill (181/320)
G0 Z10
G0 X169.411Y-51.4
G0 Z0
M3 S10800
G1 F100 Z0
G1 F100 Z-2
G0 Z0
G1 F100 Z-4
G0 Z0
G0 Z10
; Ellipse - Center drill (182/320)
G0 Z10
G0 X169.411Y-87.6
G0 Z0
M3 S10800
G1 F100 Z0
G1 F100 Z-2
G0 Z0
G1 F100 Z-4
G0 Z0
G0 Z10
; Ellipse - Center drill (183/320)
G0 Z10
G0 X167.911Y-12.4
G0 Z0
M3 S10800
G1 F100 Z0
G1 F100 Z-2
G0 Z0
G1 F100 Z-4
G0 Z0
G0 Z10
; Ellipse - Center drill (184/320)
G0 Z10
G0 X167.911Y-48.6
G0 Z0
M3 S10800
G1 F100 Z0
G1 F100 Z-2
G0 Z0
G1 F100 Z-4
G0 Z0
G0 Z10
; Ellipse - Center drill (185/320)
G0 Z10
G0 X167.911Y-51.4
G0 Z0
M3 S10800
G1 F100 Z0
G1 F100 Z-2
G0 Z0
G1 F100 Z-4
G0 Z0
G0 Z10
; Ellipse - Center drill (186/320)
G0 Z10
G0 X167.911Y-87.6
G0 Z0
M3 S10800
G1 F100 Z0
G1 F100 Z-2
G0 Z0
G1 F100 Z-4
G0 Z0
G0 Z10
; Ellipse - Center drill (187/320)
G0 Z10
G0 X166.41Y-12.4
G0 Z0
M3 S10800
G1 F100 Z0
G1 F100 Z-2
G0 Z0
G1 F100 Z-4
G0 Z0
G0 Z10
; Ellipse - Center drill (188/320)
G0 Z10
G0 X166.41Y-48.6
G0 Z0
M3 S10800
G1 F100 Z0
G1 F100 Z-2
G0 Z0
G1 F100 Z-4
G0 Z0
G0 Z10
; Ellipse - Center drill (189/320)
G0 Z10
G0 X166.41Y-51.4
G0 Z0
M3 S10800
G1 F100 Z0
G1 F100 Z-2
G0 Z0
G1 F100 Z-4
G0 Z0
G0 Z10
; Ellipse - Center drill (190/320)
G0 Z10
G0 X166.41Y-87.6
G0 Z0
M3 S10800
G1 F100 Z0
G1 F100 Z-2
G0 Z0
G1 F100 Z-4
G0 Z0
G0 Z10
; Ellipse - Center drill (191/320)
G0 Z10
G0 X147.674Y-33.501
G0 Z0
M3 S10800
G1 F100 Z0
G1 F100 Z-2
G0 Z0
G1 F100 Z-4
G0 Z0
G0 Z10
; Ellipse - Center drill (192/320)
G0 Z10
G0 X147.674Y-72.501
G0 Z0
M3 S10800
G1 F100 Z0
G1 F100 Z-2
G0 Z0
G1 F100 Z-4
G0 Z0
G0 Z10
; Ellipse - Center drill (193/320)
G0 Z10
G0 X147.674Y-32
G0 Z0
M3 S10800
G1 F100 Z0
G1 F100 Z-2
G0 Z0
G1 F100 Z-4
G0 Z0
G0 Z10
; Ellipse - Center drill (194/320)
G0 Z10
G0 X147.674Y-71
G0 Z0
M3 S10800
G1 F100 Z0
G1 F100 Z-2
G0 Z0
G1 F100 Z-4
G0 Z0
G0 Z10
; Ellipse - Center drill (195/320)
G0 Z10
G0 X147.674Y-30.5
G0 Z0
M3 S10800
G1 F100 Z0
G1 F100 Z-2
G0 Z0
G1 F100 Z-4
G0 Z0
G0 Z10
; Ellipse - Center drill (196/320)
G0 Z10
G0 X147.674Y-69.5
G0 Z0
M3 S10800
G1 F100 Z0
G1 F100 Z-2
G0 Z0
G1 F100 Z-4
G0 Z0
G0 Z10
; Ellipse - Center drill (197/320)
G0 Z10
G0 X147.674Y-28.999
G0 Z0
M3 S10800
G1 F100 Z0
G1 F100 Z-2
G0 Z0
G1 F100 Z-4
G0 Z0
G0 Z10
; Ellipse - Center drill (198/320)
G0 Z10
G0 X147.674Y-67.999
G0 Z0
M3 S10800
G1 F100 Z0
G1 F100 Z-2
G0 Z0
G1 F100 Z-4
G0 Z0
G0 Z10
; Ellipse - Center drill (199/320)
G0 Z10
G0 X147.674Y-27.499
G0 Z0
M3 S10800
G1 F100 Z0
G1 F100 Z-2
G0 Z0
G1 F100 Z-4
G0 Z0
G0 Z10
; Ellipse - Center drill (200/320)
G0 Z10
G0 X147.674Y-66.499
G0 Z0
M3 S10800
G1 F100 Z0
G1 F100 Z-2
G0 Z0
G1 F100 Z-4
G0 Z0
G0 Z10
; Ellipse - Center drill (201/320)
G0 Z10
G0 X144.874Y-33.501
G0 Z0
M3 S10800
G1 F100 Z0
G1 F100 Z-2
G0 Z0
G1 F100 Z-4
G0 Z0
G0 Z10
; Ellipse - Center drill (202/320)
G0 Z10
G0 X144.874Y-72.501
G0 Z0
M3 S10800
G1 F100 Z0
G1 F100 Z-2
G0 Z0
G1 F100 Z-4
G0 Z0
G0 Z10
; Ellipse - Center drill (203/320)
G0 Z10
G0 X144.874Y-32.001
G0 Z0
M3 S10800
G1 F100 Z0
G1 F100 Z-2
G0 Z0
G1 F100 Z-4
G0 Z0
G0 Z10
; Ellipse - Center drill (204/320)
G0 Z10
G0 X144.874Y-71.001
G0 Z0
M3 S10800
G1 F100 Z0
G1 F100 Z-2
G0 Z0
G1 F100 Z-4
G0 Z0
G0 Z10
; Ellipse - Center drill (205/320)
G0 Z10
G0 X144.874Y-30.5
G0 Z0
M3 S10800
G1 F100 Z0
G1 F100 Z-2
G0 Z0
G1 F100 Z-4
G0 Z0
G0 Z10
; Ellipse - Center drill (206/320)
G0 Z10
G0 X144.874Y-69.5
G0 Z0
M3 S10800
G1 F100 Z0
G1 F100 Z-2
G0 Z0
G1 F100 Z-4
G0 Z0
G0 Z10
; Ellipse - Center drill (207/320)
G0 Z10
G0 X144.874Y-29
G0 Z0
M3 S10800
G1 F100 Z0
G1 F100 Z-2
G0 Z0
G1 F100 Z-4
G0 Z0
G0 Z10
; Ellipse - Center drill (208/320)
G0 Z10
G0 X144.874Y-68
G0 Z0
M3 S10800
G1 F100 Z0
G1 F100 Z-2
G0 Z0
G1 F100 Z-4
G0 Z0
G0 Z10
; Ellipse - Center drill (209/320)
G0 Z10
G0 X144.874Y-27.499
G0 Z0
M3 S10800
G1 F100 Z0
G1 F100 Z-2
G0 Z0
G1 F100 Z-4
G0 Z0
G0 Z10
; Ellipse - Center drill (210/320)
G0 Z10
G0 X144.874Y-66.499
G0 Z0
M3 S10800
G1 F100 Z0
G1 F100 Z-2
G0 Z0
G1 F100 Z-4
G0 Z0
G0 Z10
; Ellipse - Center drill (211/320)
G0 Z10
G0 X126.138Y-12.4
G0 Z0
M3 S10800
G1 F100 Z0
G1 F100 Z-2
G0 Z0
G1 F100 Z-4
G0 Z0
G0 Z10
; Ellipse - Center drill (212/320)
G0 Z10
G0 X126.138Y-48.6
G0 Z0
M3 S10800
G1 F100 Z0
G1 F100 Z-2
G0 Z0
G1 F100 Z-4
G0 Z0
G0 Z10
; Ellipse - Center drill (213/320)
G0 Z10
G0 X126.138Y-51.4
G0 Z0
M3 S10800
G1 F100 Z0
G1 F100 Z-2
G0 Z0
G1 F100 Z-4
G0 Z0
G0 Z10
; Ellipse - Center drill (214/320)
G0 Z10
G0 X126.138Y-87.6
G0 Z0
M3 S10800
G1 F100 Z0
G1 F100 Z-2
G0 Z0
G1 F100 Z-4
G0 Z0
G0 Z10
; Ellipse - Center drill (215/320)
G0 Z10
G0 X124.638Y-12.4
G0 Z0
M3 S10800
G1 F100 Z0
G1 F100 Z-2
G0 Z0
G1 F100 Z-4
G0 Z0
G0 Z10
; Ellipse - Center drill (216/320)
G0 Z10
G0 X124.638Y-48.6
G0 Z0
M3 S10800
G1 F100 Z0
G1 F100 Z-2
G0 Z0
G1 F100 Z-4
G0 Z0
G0 Z10
; Ellipse - Center drill (217/320)
G0 Z10
G0 X124.638Y-51.4
G0 Z0
M3 S10800
G1 F100 Z0
G1 F100 Z-2
G0 Z0
G1 F100 Z-4
G0 Z0
G0 Z10
; Ellipse - Center drill (218/320)
G0 Z10
G0 X124.638Y-87.6
G0 Z0
M3 S10800
G1 F100 Z0
G1 F100 Z-2
G0 Z0
G1 F100 Z-4
G0 Z0
G0 Z10
; Ellipse - Center drill (219/320)
G0 Z10
G0 X123.137Y-12.4
G0 Z0
M3 S10800
G1 F100 Z0
G1 F100 Z-2
G0 Z0
G1 F100 Z-4
G0 Z0
G0 Z10
; Ellipse - Center drill (220/320)
G0 Z10
G0 X123.137Y-48.6
G0 Z0
M3 S10800
G1 F100 Z0
G1 F100 Z-2
G0 Z0
G1 F100 Z-4
G0 Z0
G0 Z10
; Ellipse - Center drill (221/320)
G0 Z10
G0 X123.137Y-51.4
G0 Z0
M3 S10800
G1 F100 Z0
G1 F100 Z-2
G0 Z0
G1 F100 Z-4
G0 Z0
G0 Z10
; Ellipse - Center drill (222/320)
G0 Z10
G0 X123.137Y-87.6
G0 Z0
M3 S10800
G1 F100 Z0
G1 F100 Z-2
G0 Z0
G1 F100 Z-4
G0 Z0
G0 Z10
; Ellipse - Center drill (223/320)
G0 Z10
G0 X121.637Y-12.4
G0 Z0
M3 S10800
G1 F100 Z0
G1 F100 Z-2
G0 Z0
G1 F100 Z-4
G0 Z0
G0 Z10
; Ellipse - Center drill (224/320)
G0 Z10
G0 X121.637Y-48.6
G0 Z0
M3 S10800
G1 F100 Z0
G1 F100 Z-2
G0 Z0
G1 F100 Z-4
G0 Z0
G0 Z10
; Ellipse - Center drill (225/320)
G0 Z10
G0 X121.637Y-51.4
G0 Z0
M3 S10800
G1 F100 Z0
G1 F100 Z-2
G0 Z0
G1 F100 Z-4
G0 Z0
G0 Z10
; Ellipse - Center drill (226/320)
G0 Z10
G0 X121.637Y-87.6
G0 Z0
M3 S10800
G1 F100 Z0
G1 F100 Z-2
G0 Z0
G1 F100 Z-4
G0 Z0
G0 Z10
; Ellipse - Center drill (227/320)
G0 Z10
G0 X120.136Y-12.4
G0 Z0
M3 S10800
G1 F100 Z0
G1 F100 Z-2
G0 Z0
G1 F100 Z-4
G0 Z0
G0 Z10
; Ellipse - Center drill (228/320)
G0 Z10
G0 X120.136Y-48.6
G0 Z0
M3 S10800
G1 F100 Z0
G1 F100 Z-2
G0 Z0
G1 F100 Z-4
G0 Z0
G0 Z10
; Ellipse - Center drill (229/320)
G0 Z10
G0 X120.136Y-51.4
G0 Z0
M3 S10800
G1 F100 Z0
G1 F100 Z-2
G0 Z0
G1 F100 Z-4
G0 Z0
G0 Z10
; Ellipse - Center drill (230/320)
G0 Z10
G0 X120.136Y-87.6
G0 Z0
M3 S10800
G1 F100 Z0
G1 F100 Z-2
G0 Z0
G1 F100 Z-4
G0 Z0
G0 Z10
; Ellipse - Center drill (231/320)
G0 Z10
G0 X101.4Y-33.501
G0 Z0
M3 S10800
G1 F100 Z0
G1 F100 Z-2
G0 Z0
G1 F100 Z-4
G0 Z0
G0 Z10
; Ellipse - Center drill (232/320)
G0 Z10
G0 X101.4Y-72.501
G0 Z0
M3 S10800
G1 F100 Z0
G1 F100 Z-2
G0 Z0
G1 F100 Z-4
G0 Z0
G0 Z10
; Ellipse - Center drill (233/320)
G0 Z10
G0 X101.4Y-32
G0 Z0
M3 S10800
G1 F100 Z0
G1 F100 Z-2
G0 Z0
G1 F100 Z-4
G0 Z0
G0 Z10
; Ellipse - Center drill (234/320)
G0 Z10
G0 X101.4Y-71
G0 Z0
M3 S10800
G1 F100 Z0
G1 F100 Z-2
G0 Z0
G1 F100 Z-4
G0 Z0
G0 Z10
; Ellipse - Center drill (235/320)
G0 Z10
G0 X101.4Y-30.5
G0 Z0
M3 S10800
G1 F100 Z0
G1 F100 Z-2
G0 Z0
G1 F100 Z-4
G0 Z0
G0 Z10
; Ellipse - Center drill (236/320)
G0 Z10
G0 X101.4Y-69.5
G0 Z0
M3 S10800
G1 F100 Z0
G1 F100 Z-2
G0 Z0
G1 F100 Z-4
G0 Z0
G0 Z10
; Ellipse - Center drill (237/320)
G0 Z10
G0 X101.4Y-28.999
G0 Z0
M3 S10800
G1 F100 Z0
G1 F100 Z-2
G0 Z0
G1 F100 Z-4
G0 Z0
G0 Z10
; Ellipse - Center drill (238/320)
G0 Z10
G0 X101.4Y-67.999
G0 Z0
M3 S10800
G1 F100 Z0
G1 F100 Z-2
G0 Z0
G1 F100 Z-4
G0 Z0
G0 Z10
; Ellipse - Center drill (239/320)
G0 Z10
G0 X101.4Y-27.499
G0 Z0
M3 S10800
G1 F100 Z0
G1 F100 Z-2
G0 Z0
G1 F100 Z-4
G0 Z0
G0 Z10
; Ellipse - Center drill (240/320)
G0 Z10
G0 X101.4Y-66.499
G0 Z0
M3 S10800
G1 F100 Z0
G1 F100 Z-2
G0 Z0
G1 F100 Z-4
G0 Z0
G0 Z10
; Ellipse - Center drill (241/320)
G0 Z10
G0 X98.6Y-33.501
G0 Z0
M3 S10800
G1 F100 Z0
G1 F100 Z-2
G0 Z0
G1 F100 Z-4
G0 Z0
G0 Z10
; Ellipse - Center drill (242/320)
G0 Z10
G0 X98.6Y-72.501
G0 Z0
M3 S10800
G1 F100 Z0
G1 F100 Z-2
G0 Z0
G1 F100 Z-4
G0 Z0
G0 Z10
; Ellipse - Center drill (243/320)
G0 Z10
G0 X98.6Y-32.001
G0 Z0
M3 S10800
G1 F100 Z0
G1 F100 Z-2
G0 Z0
G1 F100 Z-4
G0 Z0
G0 Z10
; Ellipse - Center drill (244/320)
G0 Z10
G0 X98.6Y-71.001
G0 Z0
M3 S10800
G1 F100 Z0
G1 F100 Z-2
G0 Z0
G1 F100 Z-4
G0 Z0
G0 Z10
; Ellipse - Center drill (245/320)
G0 Z10
G0 X98.6Y-30.5
G0 Z0
M3 S10800
G1 F100 Z0
G1 F100 Z-2
G0 Z0
G1 F100 Z-4
G0 Z0
G0 Z10
; Ellipse - Center drill (246/320)
G0 Z10
G0 X98.6Y-69.5
G0 Z0
M3 S10800
G1 F100 Z0
G1 F100 Z-2
G0 Z0
G1 F100 Z-4
G0 Z0
G0 Z10
; Ellipse - Center drill (247/320)
G0 Z10
G0 X98.6Y-29
G0 Z0
M3 S10800
G1 F100 Z0
G1 F100 Z-2
G0 Z0
G1 F100 Z-4
G0 Z0
G0 Z10
; Ellipse - Center drill (248/320)
G0 Z10
G0 X98.6Y-68
G0 Z0
M3 S10800
G1 F100 Z0
G1 F100 Z-2
G0 Z0
G1 F100 Z-4
G0 Z0
G0 Z10
; Ellipse - Center drill (249/320)
G0 Z10
G0 X98.6Y-27.499
G0 Z0
M3 S10800
G1 F100 Z0
G1 F100 Z-2
G0 Z0
G1 F100 Z-4
G0 Z0
G0 Z10
; Ellipse - Center drill (250/320)
G0 Z10
G0 X98.6Y-66.499
G0 Z0
M3 S10800
G1 F100 Z0
G1 F100 Z-2
G0 Z0
G1 F100 Z-4
G0 Z0
G0 Z10
; Ellipse - Center drill (251/320)
G0 Z10
G0 X79.864Y-12.4
G0 Z0
M3 S10800
G1 F100 Z0
G1 F100 Z-2
G0 Z0
G1 F100 Z-4
G0 Z0
G0 Z10
; Ellipse - Center drill (252/320)
G0 Z10
G0 X79.864Y-48.6
G0 Z0
M3 S10800
G1 F100 Z0
G1 F100 Z-2
G0 Z0
G1 F100 Z-4
G0 Z0
G0 Z10
; Ellipse - Center drill (253/320)
G0 Z10
G0 X79.864Y-51.4
G0 Z0
M3 S10800
G1 F100 Z0
G1 F100 Z-2
G0 Z0
G1 F100 Z-4
G0 Z0
G0 Z10
; Ellipse - Center drill (254/320)
G0 Z10
G0 X79.864Y-87.6
G0 Z0
M3 S10800
G1 F100 Z0
G1 F100 Z-2
G0 Z0
G1 F100 Z-4
G0 Z0
G0 Z10
; Ellipse - Center drill (255/320)
G0 Z10
G0 X78.363Y-12.4
G0 Z0
M3 S10800
G1 F100 Z0
G1 F100 Z-2
G0 Z0
G1 F100 Z-4
G0 Z0
G0 Z10
; Ellipse - Center drill (256/320)
G0 Z10
G0 X78.363Y-48.6
G0 Z0
M3 S10800
G1 F100 Z0
G1 F100 Z-2
G0 Z0
G1 F100 Z-4
G0 Z0
G0 Z10
; Ellipse - Center drill (257/320)
G0 Z10
G0 X78.363Y-51.4
G0 Z0
M3 S10800
G1 F100 Z0
G1 F100 Z-2
G0 Z0
G1 F100 Z-4
G0 Z0
G0 Z10
; Ellipse - Center drill (258/320)
G0 Z10
G0 X78.363Y-87.6
G0 Z0
M3 S10800
G1 F100 Z0
G1 F100 Z-2
G0 Z0
G1 F100 Z-4
G0 Z0
G0 Z10
; Ellipse - Center drill (259/320)
G0 Z10
G0 X76.863Y-12.4
G0 Z0
M3 S10800
G1 F100 Z0
G1 F100 Z-2
G0 Z0
G1 F100 Z-4
G0 Z0
G0 Z10
; Ellipse - Center drill (260/320)
G0 Z10
G0 X76.863Y-48.6
G0 Z0
M3 S10800
G1 F100 Z0
G1 F100 Z-2
G0 Z0
G1 F100 Z-4
G0 Z0
G0 Z10
; Ellipse - Center drill (261/320)
G0 Z10
G0 X76.863Y-51.4
G0 Z0
M3 S10800
G1 F100 Z0
G1 F100 Z-2
G0 Z0
G1 F100 Z-4
G0 Z0
G0 Z10
; Ellipse - Center drill (262/320)
G0 Z10
G0 X76.863Y-87.6
G0 Z0
M3 S10800
G1 F100 Z0
G1 F100 Z-2
G0 Z0
G1 F100 Z-4
G0 Z0
G0 Z10
; Ellipse - Center drill (263/320)
G0 Z10
G0 X75.362Y-12.4
G0 Z0
M3 S10800
G1 F100 Z0
G1 F100 Z-2
G0 Z0
G1 F100 Z-4
G0 Z0
G0 Z10
; Ellipse - Center drill (264/320)
G0 Z10
G0 X75.362Y-48.6
G0 Z0
M3 S10800
G1 F100 Z0
G1 F100 Z-2
G0 Z0
G1 F100 Z-4
G0 Z0
G0 Z10
; Ellipse - Center drill (265/320)
G0 Z10
G0 X75.362Y-51.4
G0 Z0
M3 S10800
G1 F100 Z0
G1 F100 Z-2
G0 Z0
G1 F100 Z-4
G0 Z0
G0 Z10
; Ellipse - Center drill (266/320)
G0 Z10
G0 X75.362Y-87.6
G0 Z0
M3 S10800
G1 F100 Z0
G1 F100 Z-2
G0 Z0
G1 F100 Z-4
G0 Z0
G0 Z10
; Ellipse - Center drill (267/320)
G0 Z10
G0 X73.862Y-12.4
G0 Z0
M3 S10800
G1 F100 Z0
G1 F100 Z-2
G0 Z0
G1 F100 Z-4
G0 Z0
G0 Z10
; Ellipse - Center drill (268/320)
G0 Z10
G0 X73.862Y-48.6
G0 Z0
M3 S10800
G1 F100 Z0
G1 F100 Z-2
G0 Z0
G1 F100 Z-4
G0 Z0
G0 Z10
; Ellipse - Center drill (269/320)
G0 Z10
G0 X73.862Y-51.4
G0 Z0
M3 S10800
G1 F100 Z0
G1 F100 Z-2
G0 Z0
G1 F100 Z-4
G0 Z0
G0 Z10
; Ellipse - Center drill (270/320)
G0 Z10
G0 X73.862Y-87.6
G0 Z0
M3 S10800
G1 F100 Z0
G1 F100 Z-2
G0 Z0
G1 F100 Z-4
G0 Z0
G0 Z10
; Ellipse - Center drill (271/320)
G0 Z10
G0 X55.126Y-33.501
G0 Z0
M3 S10800
G1 F100 Z0
G1 F100 Z-2
G0 Z0
G1 F100 Z-4
G0 Z0
G0 Z10
; Ellipse - Center drill (272/320)
G0 Z10
G0 X55.126Y-72.501
G0 Z0
M3 S10800
G1 F100 Z0
G1 F100 Z-2
G0 Z0
G1 F100 Z-4
G0 Z0
G0 Z10
; Ellipse - Center drill (273/320)
G0 Z10
G0 X55.126Y-32
G0 Z0
M3 S10800
G1 F100 Z0
G1 F100 Z-2
G0 Z0
G1 F100 Z-4
G0 Z0
G0 Z10
; Ellipse - Center drill (274/320)
G0 Z10
G0 X55.126Y-71
G0 Z0
M3 S10800
G1 F100 Z0
G1 F100 Z-2
G0 Z0
G1 F100 Z-4
G0 Z0
G0 Z10
; Ellipse - Center drill (275/320)
G0 Z10
G0 X55.126Y-30.5
G0 Z0
M3 S10800
G1 F100 Z0
G1 F100 Z-2
G0 Z0
G1 F100 Z-4
G0 Z0
G0 Z10
; Ellipse - Center drill (276/320)
G0 Z10
G0 X55.126Y-69.5
G0 Z0
M3 S10800
G1 F100 Z0
G1 F100 Z-2
G0 Z0
G1 F100 Z-4
G0 Z0
G0 Z10
; Ellipse - Center drill (277/320)
G0 Z10
G0 X55.126Y-28.999
G0 Z0
M3 S10800
G1 F100 Z0
G1 F100 Z-2
G0 Z0
G1 F100 Z-4
G0 Z0
G0 Z10
; Ellipse - Center drill (278/320)
G0 Z10
G0 X55.126Y-67.999
G0 Z0
M3 S10800
G1 F100 Z0
G1 F100 Z-2
G0 Z0
G1 F100 Z-4
G0 Z0
G0 Z10
; Ellipse - Center drill (279/320)
G0 Z10
G0 X55.126Y-27.499
G0 Z0
M3 S10800
G1 F100 Z0
G1 F100 Z-2
G0 Z0
G1 F100 Z-4
G0 Z0
G0 Z10
; Ellipse - Center drill (280/320)
G0 Z10
G0 X55.126Y-66.499
G0 Z0
M3 S10800
G1 F100 Z0
G1 F100 Z-2
G0 Z0
G1 F100 Z-4
G0 Z0
G0 Z10
; Ellipse - Center drill (281/320)
G0 Z10
G0 X52.326Y-33.501
G0 Z0
M3 S10800
G1 F100 Z0
G1 F100 Z-2
G0 Z0
G1 F100 Z-4
G0 Z0
G0 Z10
; Ellipse - Center drill (282/320)
G0 Z10
G0 X52.326Y-72.501
G0 Z0
M3 S10800
G1 F100 Z0
G1 F100 Z-2
G0 Z0
G1 F100 Z-4
G0 Z0
G0 Z10
; Ellipse - Center drill (283/320)
G0 Z10
G0 X52.326Y-32.001
G0 Z0
M3 S10800
G1 F100 Z0
G1 F100 Z-2
G0 Z0
G1 F100 Z-4
G0 Z0
G0 Z10
; Ellipse - Center drill (284/320)
G0 Z10
G0 X52.326Y-71.001
G0 Z0
M3 S10800
G1 F100 Z0
G1 F100 Z-2
G0 Z0
G1 F100 Z-4
G0 Z0
G0 Z10
; Ellipse - Center drill (285/320)
G0 Z10
G0 X52.326Y-30.5
G0 Z0
M3 S10800
G1 F100 Z0
G1 F100 Z-2
G0 Z0
G1 F100 Z-4
G0 Z0
G0 Z10
; Ellipse - Center drill (286/320)
G0 Z10
G0 X52.326Y-69.5
G0 Z0
M3 S10800
G1 F100 Z0
G1 F100 Z-2
G0 Z0
G1 F100 Z-4
G0 Z0
G0 Z10
; Ellipse - Center drill (287/320)
G0 Z10
G0 X52.326Y-29
G0 Z0
M3 S10800
G1 F100 Z0
G1 F100 Z-2
G0 Z0
G1 F100 Z-4
G0 Z0
G0 Z10
; Ellipse - Center drill (288/320)
G0 Z10
G0 X52.326Y-68
G0 Z0
M3 S10800
G1 F100 Z0
G1 F100 Z-2
G0 Z0
G1 F100 Z-4
G0 Z0
G0 Z10
; Ellipse - Center drill (289/320)
G0 Z10
G0 X52.326Y-27.499
G0 Z0
M3 S10800
G1 F100 Z0
G1 F100 Z-2
G0 Z0
G1 F100 Z-4
G0 Z0
G0 Z10
; Ellipse - Center drill (290/320)
G0 Z10
G0 X52.326Y-66.499
G0 Z0
M3 S10800
G1 F100 Z0
G1 F100 Z-2
G0 Z0
G1 F100 Z-4
G0 Z0
G0 Z10
; Ellipse - Center drill (291/320)
G0 Z10
G0 X33.59Y-12.4
G0 Z0
M3 S10800
G1 F100 Z0
G1 F100 Z-2
G0 Z0
G1 F100 Z-4
G0 Z0
G0 Z10
; Ellipse - Center drill (292/320)
G0 Z10
G0 X33.59Y-48.6
G0 Z0
M3 S10800
G1 F100 Z0
G1 F100 Z-2
G0 Z0
G1 F100 Z-4
G0 Z0
G0 Z10
; Ellipse - Center drill (293/320)
G0 Z10
G0 X33.59Y-51.4
G0 Z0
M3 S10800
G1 F100 Z0
G1 F100 Z-2
G0 Z0
G1 F100 Z-4
G0 Z0
G0 Z10
; Ellipse - Center drill (294/320)
G0 Z10
G0 X33.59Y-87.6
G0 Z0
M3 S10800
G1 F100 Z0
G1 F100 Z-2
G0 Z0
G1 F100 Z-4
G0 Z0
G0 Z10
; Ellipse - Center drill (295/320)
G0 Z10
G0 X32.089Y-12.4
G0 Z0
M3 S10800
G1 F100 Z0
G1 F100 Z-2
G0 Z0
G1 F100 Z-4
G0 Z0
G0 Z10
; Ellipse - Center drill (296/320)
G0 Z10
G0 X32.089Y-48.6
G0 Z0
M3 S10800
G1 F100 Z0
G1 F100 Z-2
G0 Z0
G1 F100 Z-4
G0 Z0
G0 Z10
; Ellipse - Center drill (297/320)
G0 Z10
G0 X32.089Y-51.4
G0 Z0
M3 S10800
G1 F100 Z0
G1 F100 Z-2
G0 Z0
G1 F100 Z-4
G0 Z0
G0 Z10
; Ellipse - Center drill (298/320)
G0 Z10
G0 X32.089Y-87.6
G0 Z0
M3 S10800
G1 F100 Z0
G1 F100 Z-2
G0 Z0
G1 F100 Z-4
G0 Z0
G0 Z10
; Ellipse - Center drill (299/320)
G0 Z10
G0 X30.589Y-12.4
G0 Z0
M3 S10800
G1 F100 Z0
G1 F100 Z-2
G0 Z0
G1 F100 Z-4
G0 Z0
G0 Z10
; Ellipse - Center drill (300/320)
G0 Z10
G0 X30.589Y-48.6
G0 Z0
M3 S10800
G1 F100 Z0
G1 F100 Z-2
G0 Z0
G1 F100 Z-4
G0 Z0
G0 Z10
; Ellipse - Center drill (301/320)
G0 Z10
G0 X30.589Y-51.4
G0 Z0
M3 S10800
G1 F100 Z0
G1 F100 Z-2
G0 Z0
G1 F100 Z-4
G0 Z0
G0 Z10
; Ellipse - Center drill (302/320)
G0 Z10
G0 X30.589Y-87.6
G0 Z0
M3 S10800
G1 F100 Z0
G1 F100 Z-2
G0 Z0
G1 F100 Z-4
G0 Z0
G0 Z10
; Ellipse - Center drill (303/320)
G0 Z10
G0 X29.088Y-12.4
G0 Z0
M3 S10800
G1 F100 Z0
G1 F100 Z-2
G0 Z0
G1 F100 Z-4
G0 Z0
G0 Z10
; Ellipse - Center drill (304/320)
G0 Z10
G0 X29.088Y-48.6
G0 Z0
M3 S10800
G1 F100 Z0
G1 F100 Z-2
G0 Z0
G1 F100 Z-4
G0 Z0
G0 Z10
; Ellipse - Center drill (305/320)
G0 Z10
G0 X29.088Y-51.4
G0 Z0
M3 S10800
G1 F100 Z0
G1 F100 Z-2
G0 Z0
G1 F100 Z-4
G0 Z0
G0 Z10
; Ellipse - Center drill (306/320)
G0 Z10
G0 X29.088Y-87.6
G0 Z0
M3 S10800
G1 F100 Z0
G1 F100 Z-2
G0 Z0
G1 F100 Z-4
G0 Z0
G0 Z10
; Ellipse - Center drill (307/320)
G0 Z10
G0 X27.588Y-12.4
G0 Z0
M3 S10800
G1 F100 Z0
G1 F100 Z-2
G0 Z0
G1 F100 Z-4
G0 Z0
G0 Z10
; Ellipse - Center drill (308/320)
G0 Z10
G0 X27.588Y-48.6
G0 Z0
M3 S10800
G1 F100 Z0
G1 F100 Z-2
G0 Z0
G1 F100 Z-4
G0 Z0
G0 Z10
; Ellipse - Center drill (309/320)
G0 Z10
G0 X27.588Y-51.4
G0 Z0
M3 S10800
G1 F100 Z0
G1 F100 Z-2
G0 Z0
G1 F100 Z-4
G0 Z0
G0 Z10
; Ellipse - Center drill (310/320)
G0 Z10
G0 X27.588Y-87.6
G0 Z0
M3 S10800
G1 F100 Z0
G1 F100 Z-2
G0 Z0
G1 F100 Z-4
G0 Z0
G0 Z10
; Ellipse - Center drill (311/320)
G0 Z10
G0 X8.852Y-33.501
G0 Z0
M3 S10800
G1 F100 Z0
G1 F100 Z-2
G0 Z0
G1 F100 Z-4
G0 Z0
G0 Z10
; Ellipse - Center drill (312/320)
G0 Z10
G0 X8.852Y-72.501
G0 Z0
M3 S10800
G1 F100 Z0
G1 F100 Z-2
G0 Z0
G1 F100 Z-4
G0 Z0
G0 Z10
; Ellipse - Center drill (313/320)
G0 Z10
G0 X8.852Y-32
G0 Z0
M3 S10800
G1 F100 Z0
G1 F100 Z-2
G0 Z0
G1 F100 Z-4
G0 Z0
G0 Z10
; Ellipse - Center drill (314/320)
G0 Z10
G0 X8.852Y-71
G0 Z0
M3 S10800
G1 F100 Z0
G1 F100 Z-2
G0 Z0
G1 F100 Z-4
G0 Z0
G0 Z10
; Ellipse - Center drill (315/320)
G0 Z10
G0 X8.852Y-30.5
G0 Z0
M3 S10800
G1 F100 Z0
G1 F100 Z-2
G0 Z0
G1 F100 Z-4
G0 Z0
G0 Z10
; Ellipse - Center drill (316/320)
G0 Z10
G0 X8.852Y-69.5
G0 Z0
M3 S10800
G1 F100 Z0
G1 F100 Z-2
G0 Z0
G1 F100 Z-4
G0 Z0
G0 Z10
; Ellipse - Center drill (317/320)
G0 Z10
G0 X8.852Y-28.999
G0 Z0
M3 S10800
G1 F100 Z0
G1 F100 Z-2
G0 Z0
G1 F100 Z-4
G0 Z0
G0 Z10
; Ellipse - Center drill (318/320)
G0 Z10
G0 X8.852Y-67.999
G0 Z0
M3 S10800
G1 F100 Z0
G1 F100 Z-2
G0 Z0
G1 F100 Z-4
G0 Z0
G0 Z10
; Ellipse - Center drill (319/320)
G0 Z10
G0 X8.852Y-27.499
G0 Z0
M3 S10800
G1 F100 Z0
G1 F100 Z-2
G0 Z0
G1 F100 Z-4
G0 Z0
G0 Z10
; Ellipse - Center drill (320/320)
G0 Z10
G0 X8.852Y-66.499
G0 Z0
M3 S10800
G1 F100 Z0
G1 F100 Z-2
G0 Z0
G1 F100 Z-4
G0 Z0
G0 Z10

; Turning off spindle
M5
