; This file was generated with "Universal Gcode Sender 2.1.13"
;
; Tool: 2.99mm
; Depth per pass: 2.0mm
; Plunge speed: 100mm/min
; Safe height: 10.0mm
; Tool step over: 0.9mm

G21 ; millimeters
G90 ; absolute coordinate
G17 ; XY plane
G94 ; units per minute feed rate mode

; Ellipse - Center drill (1/48)
G0 Z10
G0 X184.511Y-15.3
G0 Z0
M3 S30000
G1 F100 Z0
G1 F100 Z-2
G0 Z0
G1 F100 Z-4
G0 Z0
G0 Z10
; Ellipse - Center drill (2/48)
G0 Z10
G0 X184.511Y-54.3
G0 Z0
M3 S30000
G1 F100 Z0
G1 F100 Z-2
G0 Z0
G1 F100 Z-4
G0 Z0
G0 Z10
; Ellipse - Center drill (3/48)
G0 Z10
G0 X177.011Y-15.3
G0 Z0
M3 S30000
G1 F100 Z0
G1 F100 Z-2
G0 Z0
G1 F100 Z-4
G0 Z0
G0 Z10
; Ellipse - Center drill (4/48)
G0 Z10
G0 X177.011Y-54.3
G0 Z0
M3 S30000
G1 F100 Z0
G1 F100 Z-2
G0 Z0
G1 F100 Z-4
G0 Z0
G0 Z10
; Ellipse - Center drill (5/48)
G0 Z10
G0 X138.237Y-15.3
G0 Z0
M3 S30000
G1 F100 Z0
G1 F100 Z-2
G0 Z0
G1 F100 Z-4
G0 Z0
G0 Z10
; Ellipse - Center drill (6/48)
G0 Z10
G0 X138.237Y-54.3
G0 Z0
M3 S30000
G1 F100 Z0
G1 F100 Z-2
G0 Z0
G1 F100 Z-4
G0 Z0
G0 Z10
; Ellipse - Center drill (7/48)
G0 Z10
G0 X130.737Y-15.3
G0 Z0
M3 S30000
G1 F100 Z0
G1 F100 Z-2
G0 Z0
G1 F100 Z-4
G0 Z0
G0 Z10
; Ellipse - Center drill (8/48)
G0 Z10
G0 X130.737Y-54.3
G0 Z0
M3 S30000
G1 F100 Z0
G1 F100 Z-2
G0 Z0
G1 F100 Z-4
G0 Z0
G0 Z10
; Ellipse - Center drill (9/48)
G0 Z10
G0 X91.963Y-15.3
G0 Z0
M3 S30000
G1 F100 Z0
G1 F100 Z-2
G0 Z0
G1 F100 Z-4
G0 Z0
G0 Z10
; Ellipse - Center drill (10/48)
G0 Z10
G0 X91.963Y-54.3
G0 Z0
M3 S30000
G1 F100 Z0
G1 F100 Z-2
G0 Z0
G1 F100 Z-4
G0 Z0
G0 Z10
; Ellipse - Center drill (11/48)
G0 Z10
G0 X84.463Y-15.3
G0 Z0
M3 S30000
G1 F100 Z0
G1 F100 Z-2
G0 Z0
G1 F100 Z-4
G0 Z0
G0 Z10
; Ellipse - Center drill (12/48)
G0 Z10
G0 X84.463Y-54.3
G0 Z0
M3 S30000
G1 F100 Z0
G1 F100 Z-2
G0 Z0
G1 F100 Z-4
G0 Z0
G0 Z10
; Ellipse - Center drill (13/48)
G0 Z10
G0 X45.688Y-15.3
G0 Z0
M3 S30000
G1 F100 Z0
G1 F100 Z-2
G0 Z0
G1 F100 Z-4
G0 Z0
G0 Z10
; Ellipse - Center drill (14/48)
G0 Z10
G0 X45.688Y-54.3
G0 Z0
M3 S30000
G1 F100 Z0
G1 F100 Z-2
G0 Z0
G1 F100 Z-4
G0 Z0
G0 Z10
; Ellipse - Center drill (15/48)
G0 Z10
G0 X38.188Y-15.3
G0 Z0
M3 S30000
G1 F100 Z0
G1 F100 Z-2
G0 Z0
G1 F100 Z-4
G0 Z0
G0 Z10
; Ellipse - Center drill (16/48)
G0 Z10
G0 X38.188Y-54.3
G0 Z0
M3 S30000
G1 F100 Z0
G1 F100 Z-2
G0 Z0
G1 F100 Z-4
G0 Z0
G0 Z10
; Ellipse - Center drill (17/48)
G0 Z10
G0 X183.891Y-36.6
G0 Z0
M3 S30000
G1 F100 Z0
G1 F100 Z-2
G0 Z0
G1 F100 Z-4
G0 Z0
G0 Z10
; Ellipse - Center drill (18/48)
G0 Z10
G0 X183.891Y-75.6
G0 Z0
M3 S30000
G1 F100 Z0
G1 F100 Z-2
G0 Z0
G1 F100 Z-4
G0 Z0
G0 Z10
; Ellipse - Center drill (19/48)
G0 Z10
G0 X181.351Y-36.6
G0 Z0
M3 S30000
G1 F100 Z0
G1 F100 Z-2
G0 Z0
G1 F100 Z-4
G0 Z0
G0 Z10
; Ellipse - Center drill (20/48)
G0 Z10
G0 X181.351Y-75.6
G0 Z0
M3 S30000
G1 F100 Z0
G1 F100 Z-2
G0 Z0
G1 F100 Z-4
G0 Z0
G0 Z10
; Ellipse - Center drill (21/48)
G0 Z10
G0 X178.811Y-36.6
G0 Z0
M3 S30000
G1 F100 Z0
G1 F100 Z-2
G0 Z0
G1 F100 Z-4
G0 Z0
G0 Z10
; Ellipse - Center drill (22/48)
G0 Z10
G0 X178.811Y-75.6
G0 Z0
M3 S30000
G1 F100 Z0
G1 F100 Z-2
G0 Z0
G1 F100 Z-4
G0 Z0
G0 Z10
; Ellipse - Center drill (23/48)
G0 Z10
G0 X176.271Y-36.6
G0 Z0
M3 S30000
G1 F100 Z0
G1 F100 Z-2
G0 Z0
G1 F100 Z-4
G0 Z0
G0 Z10
; Ellipse - Center drill (24/48)
G0 Z10
G0 X176.271Y-75.6
G0 Z0
M3 S30000
G1 F100 Z0
G1 F100 Z-2
G0 Z0
G1 F100 Z-4
G0 Z0
G0 Z10
; Ellipse - Center drill (25/48)
G0 Z10
G0 X137.617Y-36.6
G0 Z0
M3 S30000
G1 F100 Z0
G1 F100 Z-2
G0 Z0
G1 F100 Z-4
G0 Z0
G0 Z10
; Ellipse - Center drill (26/48)
G0 Z10
G0 X137.617Y-75.6
G0 Z0
M3 S30000
G1 F100 Z0
G1 F100 Z-2
G0 Z0
G1 F100 Z-4
G0 Z0
G0 Z10
; Ellipse - Center drill (27/48)
G0 Z10
G0 X135.077Y-36.6
G0 Z0
M3 S30000
G1 F100 Z0
G1 F100 Z-2
G0 Z0
G1 F100 Z-4
G0 Z0
G0 Z10
; Ellipse - Center drill (28/48)
G0 Z10
G0 X135.077Y-75.6
G0 Z0
M3 S30000
G1 F100 Z0
G1 F100 Z-2
G0 Z0
G1 F100 Z-4
G0 Z0
G0 Z10
; Ellipse - Center drill (29/48)
G0 Z10
G0 X132.537Y-36.6
G0 Z0
M3 S30000
G1 F100 Z0
G1 F100 Z-2
G0 Z0
G1 F100 Z-4
G0 Z0
G0 Z10
; Ellipse - Center drill (30/48)
G0 Z10
G0 X132.537Y-75.6
G0 Z0
M3 S30000
G1 F100 Z0
G1 F100 Z-2
G0 Z0
G1 F100 Z-4
G0 Z0
G0 Z10
; Ellipse - Center drill (31/48)
G0 Z10
G0 X129.997Y-36.6
G0 Z0
M3 S30000
G1 F100 Z0
G1 F100 Z-2
G0 Z0
G1 F100 Z-4
G0 Z0
G0 Z10
; Ellipse - Center drill (32/48)
G0 Z10
G0 X129.997Y-75.6
G0 Z0
M3 S30000
G1 F100 Z0
G1 F100 Z-2
G0 Z0
G1 F100 Z-4
G0 Z0
G0 Z10
; Ellipse - Center drill (33/48)
G0 Z10
G0 X91.343Y-36.6
G0 Z0
M3 S30000
G1 F100 Z0
G1 F100 Z-2
G0 Z0
G1 F100 Z-4
G0 Z0
G0 Z10
; Ellipse - Center drill (34/48)
G0 Z10
G0 X91.343Y-75.6
G0 Z0
M3 S30000
G1 F100 Z0
G1 F100 Z-2
G0 Z0
G1 F100 Z-4
G0 Z0
G0 Z10
; Ellipse - Center drill (35/48)
G0 Z10
G0 X88.803Y-36.6
G0 Z0
M3 S30000
G1 F100 Z0
G1 F100 Z-2
G0 Z0
G1 F100 Z-4
G0 Z0
G0 Z10
; Ellipse - Center drill (36/48)
G0 Z10
G0 X88.803Y-75.6
G0 Z0
M3 S30000
G1 F100 Z0
G1 F100 Z-2
G0 Z0
G1 F100 Z-4
G0 Z0
G0 Z10
; Ellipse - Center drill (37/48)
G0 Z10
G0 X86.263Y-36.6
G0 Z0
M3 S30000
G1 F100 Z0
G1 F100 Z-2
G0 Z0
G1 F100 Z-4
G0 Z0
G0 Z10
; Ellipse - Center drill (38/48)
G0 Z10
G0 X86.263Y-75.6
G0 Z0
M3 S30000
G1 F100 Z0
G1 F100 Z-2
G0 Z0
G1 F100 Z-4
G0 Z0
G0 Z10
; Ellipse - Center drill (39/48)
G0 Z10
G0 X83.723Y-36.6
G0 Z0
M3 S30000
G1 F100 Z0
G1 F100 Z-2
G0 Z0
G1 F100 Z-4
G0 Z0
G0 Z10
; Ellipse - Center drill (40/48)
G0 Z10
G0 X83.723Y-75.6
G0 Z0
M3 S30000
G1 F100 Z0
G1 F100 Z-2
G0 Z0
G1 F100 Z-4
G0 Z0
G0 Z10
; Ellipse - Center drill (41/48)
G0 Z10
G0 X45.068Y-36.6
G0 Z0
M3 S30000
G1 F100 Z0
G1 F100 Z-2
G0 Z0
G1 F100 Z-4
G0 Z0
G0 Z10
; Ellipse - Center drill (42/48)
G0 Z10
G0 X45.068Y-75.6
G0 Z0
M3 S30000
G1 F100 Z0
G1 F100 Z-2
G0 Z0
G1 F100 Z-4
G0 Z0
G0 Z10
; Ellipse - Center drill (43/48)
G0 Z10
G0 X42.528Y-36.6
G0 Z0
M3 S30000
G1 F100 Z0
G1 F100 Z-2
G0 Z0
G1 F100 Z-4
G0 Z0
G0 Z10
; Ellipse - Center drill (44/48)
G0 Z10
G0 X42.528Y-75.6
G0 Z0
M3 S30000
G1 F100 Z0
G1 F100 Z-2
G0 Z0
G1 F100 Z-4
G0 Z0
G0 Z10
; Ellipse - Center drill (45/48)
G0 Z10
G0 X39.988Y-36.6
G0 Z0
M3 S30000
G1 F100 Z0
G1 F100 Z-2
G0 Z0
G1 F100 Z-4
G0 Z0
G0 Z10
; Ellipse - Center drill (46/48)
G0 Z10
G0 X39.988Y-75.6
G0 Z0
M3 S30000
G1 F100 Z0
G1 F100 Z-2
G0 Z0
G1 F100 Z-4
G0 Z0
G0 Z10
; Ellipse - Center drill (47/48)
G0 Z10
G0 X37.448Y-36.6
G0 Z0
M3 S30000
G1 F100 Z0
G1 F100 Z-2
G0 Z0
G1 F100 Z-4
G0 Z0
G0 Z10
; Ellipse - Center drill (48/48)
G0 Z10
G0 X37.448Y-75.6
G0 Z0
M3 S30000
G1 F100 Z0
G1 F100 Z-2
G0 Z0
G1 F100 Z-4
G0 Z0
G0 Z10

; Turning off spindle
M5
