; This file was generated with "Universal Gcode Sender 2.1.13"
;
; Tool: 2.99mm
; Depth per pass: 2.0mm
; Plunge speed: 100mm/min
; Safe height: 10.0mm
; Tool step over: 0.9mm

G21 ; millimeters
G90 ; absolute coordinate
G17 ; XY plane
G94 ; units per minute feed rate mode

; Ellipse - Center drill (1/64)
G0 Z10
G0 X156.811Y-27.96
G0 Z0
M3 S10800
G1 F100 Z0
G1 F100 Z-2
G0 Z0
G1 F100 Z-4
G0 Z0
G0 Z10
; Ellipse - Center drill (2/64)
G0 Z10
G0 X156.811Y-33.04
G0 Z0
M3 S10800
G1 F100 Z0
G1 F100 Z-2
G0 Z0
G1 F100 Z-4
G0 Z0
G0 Z10
; Ellipse - Center drill (3/64)
G0 Z10
G0 X156.811Y-66.96
G0 Z0
M3 S10800
G1 F100 Z0
G1 F100 Z-2
G0 Z0
G1 F100 Z-4
G0 Z0
G0 Z10
; Ellipse - Center drill (4/64)
G0 Z10
G0 X156.811Y-72.04
G0 Z0
M3 S10800
G1 F100 Z0
G1 F100 Z-2
G0 Z0
G1 F100 Z-4
G0 Z0
G0 Z10
; Ellipse - Center drill (5/64)
G0 Z10
G0 X110.537Y-27.96
G0 Z0
M3 S10800
G1 F100 Z0
G1 F100 Z-2
G0 Z0
G1 F100 Z-4
G0 Z0
G0 Z10
; Ellipse - Center drill (6/64)
G0 Z10
G0 X110.537Y-33.04
G0 Z0
M3 S10800
G1 F100 Z0
G1 F100 Z-2
G0 Z0
G1 F100 Z-4
G0 Z0
G0 Z10
; Ellipse - Center drill (7/64)
G0 Z10
G0 X110.537Y-66.96
G0 Z0
M3 S10800
G1 F100 Z0
G1 F100 Z-2
G0 Z0
G1 F100 Z-4
G0 Z0
G0 Z10
; Ellipse - Center drill (8/64)
G0 Z10
G0 X110.537Y-72.04
G0 Z0
M3 S10800
G1 F100 Z0
G1 F100 Z-2
G0 Z0
G1 F100 Z-4
G0 Z0
G0 Z10
; Ellipse - Center drill (9/64)
G0 Z10
G0 X64.263Y-27.96
G0 Z0
M3 S10800
G1 F100 Z0
G1 F100 Z-2
G0 Z0
G1 F100 Z-4
G0 Z0
G0 Z10
; Ellipse - Center drill (10/64)
G0 Z10
G0 X64.263Y-33.04
G0 Z0
M3 S10800
G1 F100 Z0
G1 F100 Z-2
G0 Z0
G1 F100 Z-4
G0 Z0
G0 Z10
; Ellipse - Center drill (11/64)
G0 Z10
G0 X64.263Y-66.96
G0 Z0
M3 S10800
G1 F100 Z0
G1 F100 Z-2
G0 Z0
G1 F100 Z-4
G0 Z0
G0 Z10
; Ellipse - Center drill (12/64)
G0 Z10
G0 X64.263Y-72.04
G0 Z0
M3 S10800
G1 F100 Z0
G1 F100 Z-2
G0 Z0
G1 F100 Z-4
G0 Z0
G0 Z10
; Ellipse - Center drill (13/64)
G0 Z10
G0 X17.988Y-27.96
G0 Z0
M3 S10800
G1 F100 Z0
G1 F100 Z-2
G0 Z0
G1 F100 Z-4
G0 Z0
G0 Z10
; Ellipse - Center drill (14/64)
G0 Z10
G0 X17.988Y-33.04
G0 Z0
M3 S10800
G1 F100 Z0
G1 F100 Z-2
G0 Z0
G1 F100 Z-4
G0 Z0
G0 Z10
; Ellipse - Center drill (15/64)
G0 Z10
G0 X17.988Y-66.96
G0 Z0
M3 S10800
G1 F100 Z0
G1 F100 Z-2
G0 Z0
G1 F100 Z-4
G0 Z0
G0 Z10
; Ellipse - Center drill (16/64)
G0 Z10
G0 X17.988Y-72.04
G0 Z0
M3 S10800
G1 F100 Z0
G1 F100 Z-2
G0 Z0
G1 F100 Z-4
G0 Z0
G0 Z10
; Ellipse - Center drill (17/64)
G0 Z10
G0 X175.311Y-44.8
G0 Z0
M3 S9600
G1 F100 Z0
G1 F100 Z-2
G0 Z0
G1 F100 Z-4
G0 Z0
G0 Z10
; Ellipse - Center drill (18/64)
G0 Z10
G0 X175.311Y-83.8
G0 Z0
M3 S9600
G1 F100 Z0
G1 F100 Z-2
G0 Z0
G1 F100 Z-4
G0 Z0
G0 Z10
; Ellipse - Center drill (19/64)
G0 Z10
G0 X171.811Y-44.8
G0 Z0
M3 S9600
G1 F100 Z0
G1 F100 Z-2
G0 Z0
G1 F100 Z-4
G0 Z0
G0 Z10
; Ellipse - Center drill (20/64)
G0 Z10
G0 X171.811Y-83.8
G0 Z0
M3 S9600
G1 F100 Z0
G1 F100 Z-2
G0 Z0
G1 F100 Z-4
G0 Z0
G0 Z10
; Ellipse - Center drill (21/64)
G0 Z10
G0 X169.411Y-23.7
G0 Z0
M3 S9600
G1 F100 Z0
G1 F100 Z-2
G0 Z0
G1 F100 Z-4
G0 Z0
G0 Z10
; Ellipse - Center drill (22/64)
G0 Z10
G0 X169.411Y-38.7
G0 Z0
M3 S9600
G1 F100 Z0
G1 F100 Z-2
G0 Z0
G1 F100 Z-4
G0 Z0
G0 Z10
; Ellipse - Center drill (23/64)
G0 Z10
G0 X169.411Y-62.7
G0 Z0
M3 S9600
G1 F100 Z0
G1 F100 Z-2
G0 Z0
G1 F100 Z-4
G0 Z0
G0 Z10
; Ellipse - Center drill (24/64)
G0 Z10
G0 X169.411Y-77.7
G0 Z0
M3 S9600
G1 F100 Z0
G1 F100 Z-2
G0 Z0
G1 F100 Z-4
G0 Z0
G0 Z10
; Ellipse - Center drill (25/64)
G0 Z10
G0 X163.611Y-34.25
G0 Z0
M3 S9600
G1 F100 Z0
G1 F100 Z-2
G0 Z0
G1 F100 Z-4
G0 Z0
G0 Z10
; Ellipse - Center drill (26/64)
G0 Z10
G0 X163.611Y-73.25
G0 Z0
M3 S9600
G1 F100 Z0
G1 F100 Z-2
G0 Z0
G1 F100 Z-4
G0 Z0
G0 Z10
; Ellipse - Center drill (27/64)
G0 Z10
G0 X161.211Y-26.75
G0 Z0
M3 S9600
G1 F100 Z0
G1 F100 Z-2
G0 Z0
G1 F100 Z-4
G0 Z0
G0 Z10
; Ellipse - Center drill (28/64)
G0 Z10
G0 X161.211Y-65.75
G0 Z0
M3 S9600
G1 F100 Z0
G1 F100 Z-2
G0 Z0
G1 F100 Z-4
G0 Z0
G0 Z10
; Ellipse - Center drill (29/64)
G0 Z10
G0 X129.037Y-44.8
G0 Z0
M3 S9600
G1 F100 Z0
G1 F100 Z-2
G0 Z0
G1 F100 Z-4
G0 Z0
G0 Z10
; Ellipse - Center drill (30/64)
G0 Z10
G0 X129.037Y-83.8
G0 Z0
M3 S9600
G1 F100 Z0
G1 F100 Z-2
G0 Z0
G1 F100 Z-4
G0 Z0
G0 Z10
; Ellipse - Center drill (31/64)
G0 Z10
G0 X125.537Y-44.8
G0 Z0
M3 S9600
G1 F100 Z0
G1 F100 Z-2
G0 Z0
G1 F100 Z-4
G0 Z0
G0 Z10
; Ellipse - Center drill (32/64)
G0 Z10
G0 X125.537Y-83.8
G0 Z0
M3 S9600
G1 F100 Z0
G1 F100 Z-2
G0 Z0
G1 F100 Z-4
G0 Z0
G0 Z10
; Ellipse - Center drill (33/64)
G0 Z10
G0 X123.137Y-23.7
G0 Z0
M3 S9600
G1 F100 Z0
G1 F100 Z-2
G0 Z0
G1 F100 Z-4
G0 Z0
G0 Z10
; Ellipse - Center drill (34/64)
G0 Z10
G0 X123.137Y-38.7
G0 Z0
M3 S9600
G1 F100 Z0
G1 F100 Z-2
G0 Z0
G1 F100 Z-4
G0 Z0
G0 Z10
; Ellipse - Center drill (35/64)
G0 Z10
G0 X123.137Y-62.7
G0 Z0
M3 S9600
G1 F100 Z0
G1 F100 Z-2
G0 Z0
G1 F100 Z-4
G0 Z0
G0 Z10
; Ellipse - Center drill (36/64)
G0 Z10
G0 X123.137Y-77.7
G0 Z0
M3 S9600
G1 F100 Z0
G1 F100 Z-2
G0 Z0
G1 F100 Z-4
G0 Z0
G0 Z10
; Ellipse - Center drill (37/64)
G0 Z10
G0 X117.337Y-34.25
G0 Z0
M3 S9600
G1 F100 Z0
G1 F100 Z-2
G0 Z0
G1 F100 Z-4
G0 Z0
G0 Z10
; Ellipse - Center drill (38/64)
G0 Z10
G0 X117.337Y-73.25
G0 Z0
M3 S9600
G1 F100 Z0
G1 F100 Z-2
G0 Z0
G1 F100 Z-4
G0 Z0
G0 Z10
; Ellipse - Center drill (39/64)
G0 Z10
G0 X114.937Y-26.75
G0 Z0
M3 S9600
G1 F100 Z0
G1 F100 Z-2
G0 Z0
G1 F100 Z-4
G0 Z0
G0 Z10
; Ellipse - Center drill (40/64)
G0 Z10
G0 X114.937Y-65.75
G0 Z0
M3 S9600
G1 F100 Z0
G1 F100 Z-2
G0 Z0
G1 F100 Z-4
G0 Z0
G0 Z10
; Ellipse - Center drill (41/64)
G0 Z10
G0 X82.763Y-44.8
G0 Z0
M3 S9600
G1 F100 Z0
G1 F100 Z-2
G0 Z0
G1 F100 Z-4
G0 Z0
G0 Z10
; Ellipse - Center drill (42/64)
G0 Z10
G0 X82.763Y-83.8
G0 Z0
M3 S9600
G1 F100 Z0
G1 F100 Z-2
G0 Z0
G1 F100 Z-4
G0 Z0
G0 Z10
; Ellipse - Center drill (43/64)
G0 Z10
G0 X79.263Y-44.8
G0 Z0
M3 S9600
G1 F100 Z0
G1 F100 Z-2
G0 Z0
G1 F100 Z-4
G0 Z0
G0 Z10
; Ellipse - Center drill (44/64)
G0 Z10
G0 X79.263Y-83.8
G0 Z0
M3 S9600
G1 F100 Z0
G1 F100 Z-2
G0 Z0
G1 F100 Z-4
G0 Z0
G0 Z10
; Ellipse - Center drill (45/64)
G0 Z10
G0 X76.863Y-23.7
G0 Z0
M3 S9600
G1 F100 Z0
G1 F100 Z-2
G0 Z0
G1 F100 Z-4
G0 Z0
G0 Z10
; Ellipse - Center drill (46/64)
G0 Z10
G0 X76.863Y-38.7
G0 Z0
M3 S9600
G1 F100 Z0
G1 F100 Z-2
G0 Z0
G1 F100 Z-4
G0 Z0
G0 Z10
; Ellipse - Center drill (47/64)
G0 Z10
G0 X76.863Y-62.7
G0 Z0
M3 S9600
G1 F100 Z0
G1 F100 Z-2
G0 Z0
G1 F100 Z-4
G0 Z0
G0 Z10
; Ellipse - Center drill (48/64)
G0 Z10
G0 X76.863Y-77.7
G0 Z0
M3 S9600
G1 F100 Z0
G1 F100 Z-2
G0 Z0
G1 F100 Z-4
G0 Z0
G0 Z10
; Ellipse - Center drill (49/64)
G0 Z10
G0 X71.063Y-34.25
G0 Z0
M3 S9600
G1 F100 Z0
G1 F100 Z-2
G0 Z0
G1 F100 Z-4
G0 Z0
G0 Z10
; Ellipse - Center drill (50/64)
G0 Z10
G0 X71.063Y-73.25
G0 Z0
M3 S9600
G1 F100 Z0
G1 F100 Z-2
G0 Z0
G1 F100 Z-4
G0 Z0
G0 Z10
; Ellipse - Center drill (51/64)
G0 Z10
G0 X68.663Y-26.75
G0 Z0
M3 S9600
G1 F100 Z0
G1 F100 Z-2
G0 Z0
G1 F100 Z-4
G0 Z0
G0 Z10
; Ellipse - Center drill (52/64)
G0 Z10
G0 X68.663Y-65.75
G0 Z0
M3 S9600
G1 F100 Z0
G1 F100 Z-2
G0 Z0
G1 F100 Z-4
G0 Z0
G0 Z10
; Ellipse - Center drill (53/64)
G0 Z10
G0 X36.488Y-44.8
G0 Z0
M3 S9600
G1 F100 Z0
G1 F100 Z-2
G0 Z0
G1 F100 Z-4
G0 Z0
G0 Z10
; Ellipse - Center drill (54/64)
G0 Z10
G0 X36.488Y-83.8
G0 Z0
M3 S9600
G1 F100 Z0
G1 F100 Z-2
G0 Z0
G1 F100 Z-4
G0 Z0
G0 Z10
; Ellipse - Center drill (55/64)
G0 Z10
G0 X32.988Y-44.8
G0 Z0
M3 S9600
G1 F100 Z0
G1 F100 Z-2
G0 Z0
G1 F100 Z-4
G0 Z0
G0 Z10
; Ellipse - Center drill (56/64)
G0 Z10
G0 X32.988Y-83.8
G0 Z0
M3 S9600
G1 F100 Z0
G1 F100 Z-2
G0 Z0
G1 F100 Z-4
G0 Z0
G0 Z10
; Ellipse - Center drill (57/64)
G0 Z10
G0 X30.588Y-23.7
G0 Z0
M3 S9600
G1 F100 Z0
G1 F100 Z-2
G0 Z0
G1 F100 Z-4
G0 Z0
G0 Z10
; Ellipse - Center drill (58/64)
G0 Z10
G0 X30.588Y-38.7
G0 Z0
M3 S9600
G1 F100 Z0
G1 F100 Z-2
G0 Z0
G1 F100 Z-4
G0 Z0
G0 Z10
; Ellipse - Center drill (59/64)
G0 Z10
G0 X30.588Y-62.7
G0 Z0
M3 S9600
G1 F100 Z0
G1 F100 Z-2
G0 Z0
G1 F100 Z-4
G0 Z0
G0 Z10
; Ellipse - Center drill (60/64)
G0 Z10
G0 X30.588Y-77.7
G0 Z0
M3 S9600
G1 F100 Z0
G1 F100 Z-2
G0 Z0
G1 F100 Z-4
G0 Z0
G0 Z10
; Ellipse - Center drill (61/64)
G0 Z10
G0 X24.788Y-34.25
G0 Z0
M3 S9600
G1 F100 Z0
G1 F100 Z-2
G0 Z0
G1 F100 Z-4
G0 Z0
G0 Z10
; Ellipse - Center drill (62/64)
G0 Z10
G0 X24.788Y-73.25
G0 Z0
M3 S9600
G1 F100 Z0
G1 F100 Z-2
G0 Z0
G1 F100 Z-4
G0 Z0
G0 Z10
; Ellipse - Center drill (63/64)
G0 Z10
G0 X22.388Y-26.75
G0 Z0
M3 S9600
G1 F100 Z0
G1 F100 Z-2
G0 Z0
G1 F100 Z-4
G0 Z0
G0 Z10
; Ellipse - Center drill (64/64)
G0 Z10
G0 X22.388Y-65.75
G0 Z0
M3 S9600
G1 F100 Z0
G1 F100 Z-2
G0 Z0
G1 F100 Z-4
G0 Z0
G0 Z10

; Turning off spindle
M5
