; This file was generated with "Universal Gcode Sender 2.1.13"
;
; Tool: 2.99mm
; Depth per pass: 2.0mm
; Plunge speed: 200mm/min
; Safe height: 10.0mm
; Tool step over: 0.9mm

G21 ; millimeters
G90 ; absolute coordinate
G17 ; XY plane
G94 ; units per minute feed rate mode

; Ellipse - Center drill (1/56)
G0 Z10
G0 X156.811Y-25.05
G0 Z0
M3 S10500
G1 F200 Z0
G1 F200 Z-2
G0 Z0
G1 F200 Z-4
G0 Z0
G0 Z10
; Ellipse - Center drill (2/56)
G0 Z10
G0 X156.811Y-30.5
G0 Z0
M3 S10500
G1 F200 Z0
G1 F200 Z-2
G0 Z0
G1 F200 Z-4
G0 Z0
G0 Z10
; Ellipse - Center drill (3/56)
G0 Z10
G0 X156.811Y-35.95
G0 Z0
M3 S10500
G1 F200 Z0
G1 F200 Z-2
G0 Z0
G1 F200 Z-4
G0 Z0
G0 Z10
; Ellipse - Center drill (4/56)
G0 Z10
G0 X156.811Y-64.05
G0 Z0
M3 S10500
G1 F200 Z0
G1 F200 Z-2
G0 Z0
G1 F200 Z-4
G0 Z0
G0 Z10
; Ellipse - Center drill (5/56)
G0 Z10
G0 X156.811Y-69.5
G0 Z0
M3 S10500
G1 F200 Z0
G1 F200 Z-2
G0 Z0
G1 F200 Z-4
G0 Z0
G0 Z10
; Ellipse - Center drill (6/56)
G0 Z10
G0 X156.811Y-74.95
G0 Z0
M3 S10500
G1 F200 Z0
G1 F200 Z-2
G0 Z0
G1 F200 Z-4
G0 Z0
G0 Z10
; Ellipse - Center drill (7/56)
G0 Z10
G0 X110.537Y-25.05
G0 Z0
M3 S10500
G1 F200 Z0
G1 F200 Z-2
G0 Z0
G1 F200 Z-4
G0 Z0
G0 Z10
; Ellipse - Center drill (8/56)
G0 Z10
G0 X110.537Y-30.5
G0 Z0
M3 S10500
G1 F200 Z0
G1 F200 Z-2
G0 Z0
G1 F200 Z-4
G0 Z0
G0 Z10
; Ellipse - Center drill (9/56)
G0 Z10
G0 X110.537Y-35.95
G0 Z0
M3 S10500
G1 F200 Z0
G1 F200 Z-2
G0 Z0
G1 F200 Z-4
G0 Z0
G0 Z10
; Ellipse - Center drill (10/56)
G0 Z10
G0 X110.537Y-64.05
G0 Z0
M3 S10500
G1 F200 Z0
G1 F200 Z-2
G0 Z0
G1 F200 Z-4
G0 Z0
G0 Z10
; Ellipse - Center drill (11/56)
G0 Z10
G0 X110.537Y-69.5
G0 Z0
M3 S10500
G1 F200 Z0
G1 F200 Z-2
G0 Z0
G1 F200 Z-4
G0 Z0
G0 Z10
; Ellipse - Center drill (12/56)
G0 Z10
G0 X110.537Y-74.95
G0 Z0
M3 S10500
G1 F200 Z0
G1 F200 Z-2
G0 Z0
G1 F200 Z-4
G0 Z0
G0 Z10
; Ellipse - Center drill (13/56)
G0 Z10
G0 X64.263Y-25.05
G0 Z0
M3 S10500
G1 F200 Z0
G1 F200 Z-2
G0 Z0
G1 F200 Z-4
G0 Z0
G0 Z10
; Ellipse - Center drill (14/56)
G0 Z10
G0 X64.263Y-30.5
G0 Z0
M3 S10500
G1 F200 Z0
G1 F200 Z-2
G0 Z0
G1 F200 Z-4
G0 Z0
G0 Z10
; Ellipse - Center drill (15/56)
G0 Z10
G0 X64.263Y-35.95
G0 Z0
M3 S10500
G1 F200 Z0
G1 F200 Z-2
G0 Z0
G1 F200 Z-4
G0 Z0
G0 Z10
; Ellipse - Center drill (16/56)
G0 Z10
G0 X64.263Y-64.05
G0 Z0
M3 S10500
G1 F200 Z0
G1 F200 Z-2
G0 Z0
G1 F200 Z-4
G0 Z0
G0 Z10
; Ellipse - Center drill (17/56)
G0 Z10
G0 X64.263Y-69.5
G0 Z0
M3 S10500
G1 F200 Z0
G1 F200 Z-2
G0 Z0
G1 F200 Z-4
G0 Z0
G0 Z10
; Ellipse - Center drill (18/56)
G0 Z10
G0 X64.263Y-74.95
G0 Z0
M3 S10500
G1 F200 Z0
G1 F200 Z-2
G0 Z0
G1 F200 Z-4
G0 Z0
G0 Z10
; Ellipse - Center drill (19/56)
G0 Z10
G0 X17.988Y-25.05
G0 Z0
M3 S10500
G1 F200 Z0
G1 F200 Z-2
G0 Z0
G1 F200 Z-4
G0 Z0
G0 Z10
; Ellipse - Center drill (20/56)
G0 Z10
G0 X17.988Y-30.5
G0 Z0
M3 S10500
G1 F200 Z0
G1 F200 Z-2
G0 Z0
G1 F200 Z-4
G0 Z0
G0 Z10
; Ellipse - Center drill (21/56)
G0 Z10
G0 X17.988Y-35.95
G0 Z0
M3 S10500
G1 F200 Z0
G1 F200 Z-2
G0 Z0
G1 F200 Z-4
G0 Z0
G0 Z10
; Ellipse - Center drill (22/56)
G0 Z10
G0 X17.988Y-64.05
G0 Z0
M3 S10500
G1 F200 Z0
G1 F200 Z-2
G0 Z0
G1 F200 Z-4
G0 Z0
G0 Z10
; Ellipse - Center drill (23/56)
G0 Z10
G0 X17.988Y-69.5
G0 Z0
M3 S10500
G1 F200 Z0
G1 F200 Z-2
G0 Z0
G1 F200 Z-4
G0 Z0
G0 Z10
; Ellipse - Center drill (24/56)
G0 Z10
G0 X17.988Y-74.95
G0 Z0
M3 S10500
G1 F200 Z0
G1 F200 Z-2
G0 Z0
G1 F200 Z-4
G0 Z0
G0 Z10
; Ellipse - Center drill (25/56)
G0 Z10
G0 X173.411Y-17.168
G0 Z0
M3 S10500
G1 F200 Z0
G1 F200 Z-2
G0 Z0
G1 F200 Z-2.2
G0 Z0
G0 Z10
; Ellipse - Center drill (26/56)
G0 Z10
G0 X173.411Y-56.167
G0 Z0
M3 S10500
G1 F200 Z1.1
G1 F200 Z-2.2
G0 Z0
G0 Z10
; Ellipse - Center drill (27/56)
G0 Z10
G0 X168.331Y-17.168
G0 Z0
M3 S10500
G1 F200 Z1.1
G1 F200 Z-2.2
G0 Z0
G0 Z10
; Ellipse - Center drill (28/56)
G0 Z10
G0 X168.331Y-56.167
G0 Z0
M3 S10500
G1 F200 Z1.1
G1 F200 Z-2.2
G0 Z0
G0 Z10
; Ellipse - Center drill (29/56)
G0 Z10
G0 X163.011Y-17.168
G0 Z0
M3 S10500
G1 F200 Z1.1
G1 F200 Z-2.2
G0 Z0
G0 Z10
; Ellipse - Center drill (30/56)
G0 Z10
G0 X163.011Y-56.167
G0 Z0
M3 S10500
G1 F200 Z1.1
G1 F200 Z-2.2
G0 Z0
G0 Z10
; Ellipse - Center drill (31/56)
G0 Z10
G0 X157.931Y-17.168
G0 Z0
M3 S10500
G1 F200 Z1.1
G1 F200 Z-2.2
G0 Z0
G0 Z10
; Ellipse - Center drill (32/56)
G0 Z10
G0 X157.931Y-56.167
G0 Z0
M3 S10500
G1 F200 Z1.1
G1 F200 Z-2.2
G0 Z0
G0 Z10
; Ellipse - Center drill (33/56)
G0 Z10
G0 X127.137Y-17.168
G0 Z0
M3 S10500
G1 F200 Z1.1
G1 F200 Z-2.2
G0 Z0
G0 Z10
; Ellipse - Center drill (34/56)
G0 Z10
G0 X127.137Y-56.167
G0 Z0
M3 S10500
G1 F200 Z1.1
G1 F200 Z-2.2
G0 Z0
G0 Z10
; Ellipse - Center drill (35/56)
G0 Z10
G0 X122.057Y-17.168
G0 Z0
M3 S10500
G1 F200 Z1.1
G1 F200 Z-2.2
G0 Z0
G0 Z10
; Ellipse - Center drill (36/56)
G0 Z10
G0 X122.057Y-56.167
G0 Z0
M3 S10500
G1 F200 Z1.1
G1 F200 Z-2.2
G0 Z0
G0 Z10
; Ellipse - Center drill (37/56)
G0 Z10
G0 X116.737Y-17.168
G0 Z0
M3 S10500
G1 F200 Z1.1
G1 F200 Z-2.2
G0 Z0
G0 Z10
; Ellipse - Center drill (38/56)
G0 Z10
G0 X116.737Y-56.167
G0 Z0
M3 S10500
G1 F200 Z1.1
G1 F200 Z-2.2
G0 Z0
G0 Z10
; Ellipse - Center drill (39/56)
G0 Z10
G0 X111.657Y-17.168
G0 Z0
M3 S10500
G1 F200 Z1.1
G1 F200 Z-2.2
G0 Z0
G0 Z10
; Ellipse - Center drill (40/56)
G0 Z10
G0 X111.657Y-56.167
G0 Z0
M3 S10500
G1 F200 Z1.1
G1 F200 Z-2.2
G0 Z0
G0 Z10
; Ellipse - Center drill (41/56)
G0 Z10
G0 X80.863Y-17.168
G0 Z0
M3 S10500
G1 F200 Z1.1
G1 F200 Z-2.2
G0 Z0
G0 Z10
; Ellipse - Center drill (42/56)
G0 Z10
G0 X80.863Y-56.167
G0 Z0
M3 S10500
G1 F200 Z1.1
G1 F200 Z-2.2
G0 Z0
G0 Z10
; Ellipse - Center drill (43/56)
G0 Z10
G0 X75.783Y-17.168
G0 Z0
M3 S10500
G1 F200 Z1.1
G1 F200 Z-2.2
G0 Z0
G0 Z10
; Ellipse - Center drill (44/56)
G0 Z10
G0 X75.783Y-56.167
G0 Z0
M3 S10500
G1 F200 Z1.1
G1 F200 Z-2.2
G0 Z0
G0 Z10
; Ellipse - Center drill (45/56)
G0 Z10
G0 X70.463Y-17.168
G0 Z0
M3 S10500
G1 F200 Z1.1
G1 F200 Z-2.2
G0 Z0
G0 Z10
; Ellipse - Center drill (46/56)
G0 Z10
G0 X70.463Y-56.167
G0 Z0
M3 S10500
G1 F200 Z1.1
G1 F200 Z-2.2
G0 Z0
G0 Z10
; Ellipse - Center drill (47/56)
G0 Z10
G0 X65.383Y-17.168
G0 Z0
M3 S10500
G1 F200 Z1.1
G1 F200 Z-2.2
G0 Z0
G0 Z10
; Ellipse - Center drill (48/56)
G0 Z10
G0 X65.383Y-56.167
G0 Z0
M3 S10500
G1 F200 Z1.1
G1 F200 Z-2.2
G0 Z0
G0 Z10
; Ellipse - Center drill (49/56)
G0 Z10
G0 X34.588Y-17.168
G0 Z0
M3 S10500
G1 F200 Z1.1
G1 F200 Z-2.2
G0 Z0
G0 Z10
; Ellipse - Center drill (50/56)
G0 Z10
G0 X34.588Y-56.167
G0 Z0
M3 S10500
G1 F200 Z1.1
G1 F200 Z-2.2
G0 Z0
G0 Z10
; Ellipse - Center drill (51/56)
G0 Z10
G0 X29.508Y-17.168
G0 Z0
M3 S10500
G1 F200 Z1.1
G1 F200 Z-2.2
G0 Z0
G0 Z10
; Ellipse - Center drill (52/56)
G0 Z10
G0 X29.508Y-56.167
G0 Z0
M3 S10500
G1 F200 Z1.1
G1 F200 Z-2.2
G0 Z0
G0 Z10
; Ellipse - Center drill (53/56)
G0 Z10
G0 X24.188Y-17.168
G0 Z0
M3 S10500
G1 F200 Z1.1
G1 F200 Z-2.2
G0 Z0
G0 Z10
; Ellipse - Center drill (54/56)
G0 Z10
G0 X24.188Y-56.167
G0 Z0
M3 S10500
G1 F200 Z1.1
G1 F200 Z-2.2
G0 Z0
G0 Z10
; Ellipse - Center drill (55/56)
G0 Z10
G0 X19.108Y-17.168
G0 Z0
M3 S10500
G1 F200 Z1.1
G1 F200 Z-2.2
G0 Z0
G0 Z10
; Ellipse - Center drill (56/56)
G0 Z10
G0 X19.108Y-56.167
G0 Z0
M3 S10500
G1 F200 Z1.1
G1 F200 Z-2.2
G0 Z0
G0 Z10

; Turning off spindle
M5
